<?xml version="1.0" encoding="UTF-8"?>
<map version="1.10" tiledversion="1.11.2" orientation="orthogonal" renderorder="right-down" width="55" height="12" tilewidth="40" tileheight="40" infinite="0" nextlayerid="7" nextobjectid="8">
 <editorsettings>
  <export target="Room.lua" format="lua"/>
 </editorsettings>
 <tileset firstgid="1" source="../tilesets/Receptionist.tsx"/>
 <imagelayer id="5" name="bg1" offsetx="240" offsety="0" parallaxx="0.05" repeatx="1">
  <image source="../../../assets/sprites/tilesets/receptionist bg.png"/>
 </imagelayer>
 <imagelayer id="6" name="bg" offsetx="240" offsety="240" parallaxx="0.25" repeatx="1">
  <image source="../../../assets/sprites/tilesets/buildings.png"/>
 </imagelayer>
 <layer id="2" name="Tile Layer 2" width="55" height="12" tintcolor="#53547a" offsetx="-100" offsety="0" parallaxx="0.64">
  <data encoding="csv">
0,259,260,260,260,261,0,0,0,0,0,0,282,283,283,283,284,219,219,219,219,219,219,219,219,219,282,283,283,283,284,0,0,0,0,0,0,0,0,0,0,0,0,0,0,0,0,0,0,0,0,0,0,0,0,
0,278,279,279,279,280,0,0,0,0,0,0,282,283,283,283,284,0,0,0,0,0,0,0,0,0,282,283,283,283,284,0,0,0,0,0,0,0,0,0,0,0,0,0,0,0,0,0,0,0,0,0,0,0,0,
0,301,302,302,302,303,0,0,0,0,0,0,301,298,302,298,303,0,0,0,0,0,0,0,0,0,301,302,302,302,303,0,0,0,0,0,0,0,0,0,0,0,0,0,0,0,0,0,0,0,0,0,0,0,0,
0,320,321,321,321,322,0,0,0,0,0,0,320,321,321,321,322,0,0,0,0,0,0,0,0,0,320,321,317,321,322,0,0,0,0,0,0,0,0,0,0,0,0,0,0,0,0,0,0,0,0,0,0,0,0,
0,320,321,321,321,322,0,0,0,0,0,0,320,321,321,321,322,0,0,0,0,0,0,0,0,0,320,321,321,321,322,0,0,0,0,0,0,0,0,0,0,0,0,0,0,0,0,0,0,0,0,0,0,0,0,
0,320,321,321,321,322,0,0,0,0,0,0,320,317,321,317,322,0,0,0,0,0,0,0,0,0,320,321,317,321,322,0,0,0,0,0,0,0,0,0,0,0,0,0,0,0,0,0,0,0,0,0,0,0,0,
0,320,321,321,321,322,0,0,0,0,0,0,320,321,321,321,322,0,0,0,0,0,0,0,0,0,320,321,321,321,322,0,0,0,0,0,0,0,0,0,0,0,0,0,0,0,0,0,0,0,0,0,0,0,0,
0,320,321,321,321,322,0,0,0,0,0,0,320,321,321,321,322,0,0,0,0,0,0,0,0,0,320,321,317,321,322,0,0,0,0,0,0,0,0,0,0,0,0,0,0,0,0,0,0,0,0,0,0,0,0,
0,320,321,321,321,322,0,0,0,0,0,0,320,317,321,317,322,0,0,0,0,0,0,0,0,0,320,321,321,321,322,0,0,0,0,0,0,0,0,0,0,0,0,0,0,0,0,0,0,0,0,0,0,0,0,
0,320,321,321,321,322,0,0,0,0,0,0,320,321,321,321,322,0,0,0,0,0,0,0,0,0,320,321,317,321,322,0,0,0,0,0,0,0,0,0,0,0,0,0,0,0,0,0,0,0,0,0,0,0,0,
0,320,321,321,321,322,0,0,0,0,0,0,320,321,321,321,322,0,0,0,0,0,0,0,0,0,320,321,321,321,322,0,0,0,0,0,0,0,0,0,0,0,0,0,0,0,0,0,0,0,0,0,0,0,0,
0,320,321,321,321,322,0,0,0,0,0,0,320,317,321,317,322,0,0,0,0,0,0,0,0,0,320,321,317,321,322,0,0,0,0,0,0,0,0,0,0,0,0,0,0,0,0,0,0,0,0,0,0,0,0
</data>
 </layer>
 <layer id="1" name="Tile Layer 1" width="55" height="12">
  <data encoding="csv">
0,0,0,0,0,0,0,0,0,0,0,0,0,0,0,0,0,0,0,0,0,0,0,0,0,0,0,0,0,0,0,0,0,0,0,0,0,0,0,0,0,0,0,0,0,0,0,0,0,0,0,0,0,0,0,
0,0,0,0,0,0,0,0,0,0,0,0,0,0,0,0,0,0,0,0,0,0,0,0,0,0,0,0,0,0,0,0,0,0,0,0,0,0,0,0,0,0,0,0,0,0,0,0,0,0,0,0,0,0,0,
0,0,0,0,0,0,0,0,0,0,0,0,0,0,0,0,0,0,0,0,0,0,0,0,0,0,0,0,0,0,0,0,0,0,0,0,0,0,0,0,0,0,0,0,0,0,0,0,0,0,0,0,0,0,0,
0,0,0,0,0,0,0,0,0,0,0,0,0,0,0,0,0,0,0,0,0,0,0,0,0,0,0,0,0,0,0,0,0,0,0,0,0,0,0,0,0,0,0,0,0,0,0,0,0,0,0,0,0,0,0,
0,0,0,0,0,0,0,0,0,0,0,0,0,0,0,0,0,0,0,0,0,0,0,0,0,0,0,0,0,0,0,0,0,0,0,0,0,0,0,0,0,0,0,0,0,0,0,0,0,0,0,0,0,0,0,
0,0,263,264,264,264,265,0,0,0,0,0,0,0,0,0,0,0,0,0,0,0,0,0,0,0,0,0,0,0,0,0,0,0,0,0,0,0,0,0,0,0,0,0,0,0,0,0,0,0,0,0,0,0,0,
0,0,282,283,283,283,284,62,63,63,63,63,63,63,63,63,63,63,63,63,63,63,63,63,63,63,63,63,63,63,63,63,63,63,63,63,63,63,63,63,63,63,63,63,63,63,63,63,63,63,63,63,63,63,63,
0,0,282,283,283,283,284,81,82,82,82,82,82,82,82,82,82,82,82,82,82,82,82,82,82,82,82,82,82,82,82,82,82,82,82,82,82,82,82,82,82,82,82,82,82,82,82,82,82,82,82,82,82,82,82,
0,0,301,302,302,302,303,0,0,0,0,0,0,0,0,0,0,0,0,0,0,0,0,0,0,0,0,0,0,0,0,0,0,0,0,0,0,0,0,0,0,0,0,0,0,0,0,0,0,0,0,0,0,0,0,
0,0,320,321,321,321,322,0,0,0,0,0,0,0,0,0,0,0,0,0,0,0,0,0,0,0,0,0,0,0,0,0,0,0,0,0,0,0,0,0,0,0,0,0,0,0,0,0,0,0,0,0,0,0,0,
0,0,320,321,321,321,322,0,0,0,0,0,0,0,0,0,0,0,0,0,0,0,0,0,0,0,0,0,0,0,0,0,0,0,0,0,0,0,0,0,0,0,0,0,0,0,0,0,0,0,0,0,0,0,0,
0,0,320,321,321,321,322,0,0,0,0,0,0,0,0,0,0,0,0,0,0,0,0,0,0,0,0,0,0,0,0,0,0,0,0,0,0,0,0,0,0,0,0,0,0,0,0,0,0,0,0,0,0,0,0
</data>
 </layer>
 <objectgroup color="#aa55ff" id="3" name="markers" tintcolor="#55aa00">
  <object id="1" name="spawn" x="189.485" y="255.485">
   <point/>
  </object>
 </objectgroup>
 <objectgroup color="#0000ff" id="4" name="collision">
  <object id="3" x="273.818" y="189.818" width="1924.67" height="50.6667"/>
  <object id="4" x="274.485" y="305.819" width="1972" height="49.3333"/>
  <object id="5" x="62.4848" y="315.818" width="223.333" height="32"/>
  <object id="6" x="49.8182" y="187.152" width="32" height="140.667"/>
  <object id="7" x="73.8181" y="167.152" width="200" height="32"/>
 </objectgroup>
</map>
