<?xml version="1.0" encoding="UTF-8"?>
<map version="1.10" tiledversion="1.12.1" orientation="orthogonal" renderorder="right-down" width="30" height="30" tilewidth="40" tileheight="40" infinite="0" nextlayerid="10" nextobjectid="64">
 <editorsettings>
  <export target="forest2a.lua" format="lua"/>
 </editorsettings>
 <properties>
  <property name="has_tile_sounds" type="bool" value="true"/>
  <property name="music" value="bloom_f"/>
 </properties>
 <tileset firstgid="1" source="../tilesets/Forest.tsx"/>
 <tileset firstgid="1201" source="../tilesets/debug.tsx"/>
 <tileset firstgid="1241" source="../tilesets/trees.tsx"/>
 <layer id="9" name="stepsounds" width="30" height="30" opacity="0">
  <data encoding="csv">
0,0,0,0,0,0,0,0,0,0,0,0,0,0,0,0,0,0,0,0,0,0,0,0,0,0,0,0,0,0,
0,0,0,0,0,0,0,0,0,0,0,0,0,0,0,0,0,0,0,0,0,0,0,0,0,0,0,0,0,0,
0,0,0,0,0,0,0,0,0,0,0,0,0,0,0,0,0,0,0,0,0,0,0,0,0,0,0,0,0,0,
0,0,0,0,0,0,0,0,0,0,0,0,0,0,0,0,0,0,0,0,0,0,0,0,0,0,0,0,0,0,
0,0,0,0,0,0,0,0,0,0,0,0,0,0,0,0,0,0,0,0,0,0,0,0,0,0,0,0,0,0,
0,0,0,0,0,0,0,0,0,0,0,0,0,0,0,0,0,0,0,0,0,0,0,0,0,0,0,0,0,0,
0,0,0,0,0,0,0,0,0,0,0,1206,1206,1206,1206,1206,1206,1206,0,0,0,0,0,0,0,0,0,0,0,0,
0,0,0,0,0,0,0,0,0,0,1206,1206,1206,1206,1206,1206,1206,1206,1206,0,0,0,0,0,0,0,0,0,0,0,
0,0,0,0,0,0,0,0,0,1206,1206,1206,1206,1206,1206,1206,1206,1206,1206,1206,0,0,0,0,0,0,0,0,0,0,
0,0,0,0,0,1206,1206,1206,1206,1206,1206,1206,1206,1206,1206,1206,1206,1206,1206,1206,1206,1206,1206,1206,1206,0,0,0,0,0,
0,0,0,0,0,1206,1206,1206,1206,1206,1206,1206,1206,1206,1206,1206,1206,1206,1206,1206,1206,1206,1206,1206,1206,0,0,0,0,0,
0,0,0,0,0,1206,1206,1206,1206,1206,1206,1206,1206,1206,1206,1201,1206,1206,1206,1206,1206,1206,1206,1206,1206,0,0,0,0,0,
0,0,0,0,0,1206,1206,1206,1206,1206,1206,1206,1206,1206,1206,1201,1206,1206,1206,1206,1206,1206,1206,1206,1206,0,0,0,0,0,
0,0,0,0,0,1206,1206,1206,1206,1206,1206,1206,1206,1201,1201,1201,1201,1201,1201,1201,1206,1206,1206,1206,1206,0,0,0,0,0,
0,0,0,0,0,1206,1206,1206,1206,1206,1206,1206,1206,1206,1206,1206,1206,1206,1206,1206,1206,1206,1206,1206,1206,0,0,0,0,0,
0,0,0,0,0,1206,1206,1206,1206,1206,1206,1206,1206,1206,1206,1206,1206,1206,1206,1206,1206,1206,1206,1206,1206,0,0,0,0,0,
0,0,0,0,0,1206,1206,1206,1206,1206,1206,1206,1206,1206,1206,1206,1206,1206,1206,1206,1206,1206,1206,1206,1206,0,0,0,0,0,
0,0,0,0,0,0,1206,1206,1206,1206,1206,1206,1206,1206,1206,1206,1206,1206,1206,1206,1206,1206,1206,1206,0,0,0,0,0,0,
0,0,0,0,0,0,0,1206,1206,1206,1206,1206,1206,1206,1206,1206,1206,1206,1206,1206,1206,1206,1206,0,0,0,0,0,0,0,
0,0,0,0,0,0,0,0,0,1206,1206,1206,1206,1206,1206,1206,1206,1206,1206,1206,1206,0,0,0,0,0,0,0,0,0,
0,0,0,0,0,0,0,0,0,0,1206,1206,1206,1206,1206,1206,1206,1206,1206,1206,0,0,0,0,0,0,0,0,0,0,
0,0,0,0,0,0,0,0,0,0,0,1206,1206,1206,1206,1206,1206,1206,1206,0,0,0,0,0,0,0,0,0,0,0,
0,0,0,0,0,0,0,0,0,0,0,1206,1206,1206,1206,1206,1206,1206,1206,0,0,0,0,0,0,0,0,0,0,0,
0,0,0,0,0,0,0,0,0,0,0,1206,1206,1206,1206,1206,1206,1206,1206,0,0,0,0,0,0,0,0,0,0,0,
0,0,0,0,0,0,0,0,0,0,0,1206,1206,1206,1206,1206,1206,1206,1206,0,0,0,0,0,0,0,0,0,0,0,
0,0,0,0,0,0,0,0,0,0,0,1206,1206,1206,1206,1206,1206,1206,1206,0,0,0,0,0,0,0,0,0,0,0,
0,0,0,0,0,0,0,0,0,0,0,1206,1206,1206,1206,1206,1206,1206,1206,0,0,0,0,0,0,0,0,0,0,0,
0,0,0,0,0,0,0,0,0,0,0,1206,1206,1206,1206,1206,1206,1206,1206,0,0,0,0,0,0,0,0,0,0,0,
0,0,0,0,0,0,0,0,0,0,0,1206,1206,1206,1206,1206,1206,1206,1206,0,0,0,0,0,0,0,0,0,0,0,
0,0,0,0,0,0,0,0,0,0,0,1206,1206,1206,1206,1206,1206,1206,1206,0,0,0,0,0,0,0,0,0,0,0
</data>
 </layer>
 <layer id="1" name="Tile Layer 1" width="30" height="30">
  <data encoding="csv">
0,0,0,0,0,0,0,0,0,0,0,0,0,0,0,0,0,0,0,0,0,0,0,0,0,0,0,0,0,0,
0,0,0,0,0,0,0,0,0,0,0,0,0,0,0,0,0,0,0,0,0,0,0,0,0,0,0,0,0,0,
0,0,0,0,0,0,0,0,0,0,0,0,0,0,0,0,0,0,0,0,0,0,0,0,0,0,0,0,0,0,
0,0,0,0,0,0,0,0,0,0,0,0,0,0,0,0,0,0,0,0,0,0,0,0,0,0,0,0,0,0,
0,0,0,0,0,0,0,0,0,0,0,0,0,0,0,0,0,0,0,0,0,0,0,0,0,0,0,0,0,0,
0,0,0,0,0,0,0,0,0,0,0,0,0,0,0,0,0,0,0,0,0,0,0,0,0,0,0,0,0,0,
0,0,0,0,0,0,0,0,0,0,0,0,0,0,0,0,0,0,0,0,0,0,0,0,0,0,0,0,0,0,
0,0,0,0,0,0,0,0,0,0,0,0,0,0,0,0,0,0,0,0,0,0,0,0,0,0,0,0,0,0,
0,0,0,0,0,0,0,0,0,53,94,94,94,94,94,94,94,94,94,55,0,0,0,0,0,0,0,0,0,0,
0,0,0,0,0,53,54,54,54,94,94,94,94,94,94,94,94,94,94,94,54,54,54,54,55,0,0,0,0,0,
0,0,0,0,0,93,94,94,94,94,94,94,94,94,94,94,94,94,94,94,94,94,94,94,94,0,0,0,0,0,
0,0,0,0,0,93,94,94,94,94,94,94,94,94,94,86,94,94,94,94,94,94,94,94,94,0,0,0,0,0,
0,0,0,0,0,93,94,94,94,94,94,94,94,94,94,86,94,94,94,94,94,94,94,94,94,0,0,0,0,0,
0,0,0,0,0,93,94,94,94,94,94,94,94,86,86,86,86,86,86,86,94,94,94,94,94,0,0,0,0,0,
0,0,0,0,0,93,94,94,94,94,94,94,94,94,94,94,94,94,94,94,94,94,94,94,94,0,0,0,0,0,
0,0,0,0,0,93,94,94,94,94,94,94,94,94,94,94,94,94,94,94,94,94,94,94,94,0,0,0,0,0,
0,0,0,0,0,133,94,94,94,94,94,94,94,94,94,94,94,94,94,94,94,94,94,94,135,0,0,0,0,0,
0,0,0,0,0,0,133,94,94,94,94,94,94,94,94,94,94,94,94,94,94,94,94,135,0,0,0,0,0,0,
0,0,0,0,0,0,0,133,134,94,94,94,94,94,94,94,94,94,94,94,94,94,135,0,0,0,0,0,0,0,
0,0,0,0,0,0,0,0,0,133,94,94,94,94,94,94,94,94,94,94,135,0,0,0,0,0,0,0,0,0,
0,0,0,0,0,0,0,0,0,0,133,94,94,94,94,94,94,94,94,135,0,0,0,0,0,0,0,0,0,0,
0,0,0,0,0,0,0,0,0,0,0,93,94,94,94,94,94,94,95,0,0,0,0,0,0,0,0,0,0,0,
0,0,0,0,0,0,0,0,0,0,0,93,94,94,94,94,94,94,95,0,0,0,0,0,0,0,0,0,0,0,
0,0,0,0,0,0,0,0,0,0,0,93,94,94,94,94,94,94,95,0,0,0,0,0,0,0,0,0,0,0,
0,0,0,0,0,0,0,0,0,0,0,93,94,94,94,94,94,94,95,0,0,0,0,0,0,0,0,0,0,0,
0,0,0,0,0,0,0,0,0,0,0,93,94,94,94,94,94,94,95,0,0,0,0,0,0,0,0,0,0,0,
0,0,0,0,0,0,0,0,0,0,0,93,94,94,94,94,94,94,95,0,0,0,0,0,0,0,0,0,0,0,
0,0,0,0,0,0,0,0,0,0,0,93,94,94,94,94,94,94,95,0,0,0,0,0,0,0,0,0,0,0,
0,0,0,0,0,0,0,0,0,0,0,93,94,94,94,94,94,94,95,0,0,0,0,0,0,0,0,0,0,0,
0,0,0,0,0,0,0,0,0,0,0,93,94,94,94,94,94,94,95,0,0,0,0,0,0,0,0,0,0,0
</data>
 </layer>
 <objectgroup color="#0000ff" id="4" name="collision" visible="0">
  <object id="5" x="360" y="278" width="440" height="40"/>
  <object id="6" x="800" y="240" width="40" height="120"/>
  <object id="7" x="840" y="320" width="280" height="40"/>
  <object id="8" x="1120" y="360" width="40" height="480"/>
  <object id="9" x="760" y="840" width="360" height="40"/>
  <object id="10" x="760" y="880" width="40" height="320"/>
  <object id="11" x="400" y="840" width="40" height="360"/>
  <object id="12" x="80" y="840" width="320" height="40"/>
  <object id="13" x="40" y="360" width="40" height="480"/>
  <object id="14" x="80" y="320" width="280" height="40"/>
  <object id="15" x="320" y="240" width="40" height="80"/>
  <object id="31" x="763.045" y="520" width="37.4545" height="40.5"/>
  <object id="35" x="80" y="360" width="120" height="480"/>
  <object id="36" x="200" y="680" width="40" height="160"/>
  <object id="37" x="240" y="720" width="40" height="120"/>
  <object id="38" x="280" y="760" width="80" height="80"/>
  <object id="39" x="360" y="800" width="40" height="40"/>
  <object id="40" x="800" y="800" width="320" height="40"/>
  <object id="41" x="840" y="760" width="280" height="40"/>
  <object id="42" x="920" y="720" width="200" height="40"/>
  <object id="43" x="960" y="680" width="160" height="40"/>
  <object id="44" x="1000" y="360" width="120" height="320"/>
 </objectgroup>
 <objectgroup color="#55aa7f" id="6" name="blockcollision" visible="0">
  <object id="19" x="600.125" y="400.252" width="39.5" height="39.9979"/>
  <object id="20" x="639.875" y="399.876" width="40" height="119.009"/>
  <object id="22" x="558" y="400.495" width="40" height="119.009"/>
  <object id="23" x="518.333" y="479.829" width="40" height="39.6757"/>
  <object id="24" x="479.333" y="519.495" width="40" height="39.6757"/>
  <object id="25" x="682.917" y="479.334" width="117.5" height="39.9979"/>
  <object id="26" x="799.902" y="520.146" width="39.8478" height="40.5196"/>
  <object id="29" x="520" y="560.667" width="322" height="39.6667"/>
 </objectgroup>
 <objectgroup color="#aa00ff" id="3" name="markers" visible="0">
  <object id="3" name="entranceA" x="600" y="1097">
   <point/>
  </object>
 </objectgroup>
 <objectgroup color="#ff55ff" id="2" name="objects">
  <object id="2" name="transition" x="440" y="1186" width="320" height="40">
   <properties>
    <property name="map" value="forest2"/>
    <property name="marker" value="entranceB"/>
   </properties>
  </object>
  <object id="16" name="shadow" x="479.572" y="1104.73">
   <point/>
  </object>
  <object id="17" name="pushblock" x="600.5" y="440.083" width="39.25" height="39.9167">
   <properties>
    <property name="inputlock" type="bool" value="false"/>
    <property name="lock" type="bool" value="true"/>
   </properties>
  </object>
  <object id="27" name="tilebutton" x="760.303" y="519.667" width="39.5455" height="41.0909"/>
  <object id="30" name="tilebutton" x="519.977" y="519.705" width="39.5455" height="41.0909">
   <properties>
    <property name="blocks" type="bool" value="true"/>
    <property name="cutscene" value="peonie.puzzle"/>
    <property name="once" type="bool" value="true"/>
   </properties>
  </object>
  <object id="47" gid="1242" x="53" y="1040" width="82" height="130"/>
  <object id="48" gid="1242" x="173" y="1040" width="82" height="130"/>
  <object id="49" gid="1242" x="293" y="1040" width="82" height="130"/>
  <object id="50" gid="1242" x="813" y="1040" width="82" height="130"/>
  <object id="51" gid="1242" x="933" y="1040" width="82" height="130"/>
  <object id="52" gid="1242" x="1053" y="1040" width="82" height="130"/>
  <object id="53" gid="1243" x="1084.3" y="760" width="110" height="110"/>
  <object id="54" gid="1243" x="1084.3" y="520" width="110" height="110"/>
  <object id="56" gid="1243" x="44.3" y="800" width="110" height="110"/>
  <object id="57" gid="1243" x="44.3" y="560" width="110" height="110"/>
  <object id="58" gid="1243" x="1004.3" y="320" width="110" height="110"/>
  <object id="59" gid="1243" x="84.3" y="320" width="110" height="110"/>
  <object id="60" gid="1243" x="764.3" y="200" width="110" height="110"/>
  <object id="63" gid="1243" x="324.3" y="200" width="110" height="110"/>
 </objectgroup>
 <layer id="8" name="decal" width="30" height="30">
  <data encoding="csv">
0,0,0,0,0,0,0,0,0,0,0,0,0,0,0,0,0,0,0,0,0,0,0,0,0,0,0,0,0,0,
0,0,0,0,0,0,0,0,0,0,0,0,0,0,0,0,0,0,0,0,0,0,0,0,0,0,0,0,0,0,
0,0,0,0,0,0,0,0,0,0,62,63,64,62,63,64,62,63,64,0,0,0,0,0,0,0,0,0,0,0,
0,0,0,0,0,0,0,0,0,0,102,103,103,103,103,103,103,103,104,0,0,0,0,0,0,0,0,0,0,0,
0,0,0,0,0,0,0,0,0,0,142,143,143,143,143,143,143,143,144,0,0,0,0,0,0,0,0,0,0,0,
0,0,0,0,0,0,0,0,0,0,182,183,183,183,183,183,183,183,184,0,0,0,0,0,0,0,0,0,0,0,
0,0,0,0,0,0,0,0,0,0,222,223,223,223,223,223,223,223,224,0,0,0,0,0,0,0,0,0,0,0,
0,0,0,0,0,0,0,0,0,0,262,263,263,263,263,263,263,263,264,0,0,0,0,0,0,0,0,0,0,0,
0,0,0,0,0,0,0,0,0,0,0,0,0,0,0,0,0,0,0,0,0,0,0,0,0,0,0,0,0,0,
0,0,0,0,0,0,0,0,0,0,0,0,0,0,0,0,0,0,0,0,0,0,0,0,0,0,0,0,0,0,
0,0,0,0,0,0,0,0,0,0,0,0,0,0,0,0,0,0,0,0,0,0,0,0,0,0,0,0,0,0,
0,0,0,0,0,0,0,0,0,0,0,0,0,0,0,0,0,0,0,0,0,0,0,0,0,0,0,0,0,0,
0,0,0,0,0,0,0,0,0,0,0,0,0,0,0,0,0,0,0,0,0,0,0,0,0,0,0,0,0,0,
0,0,0,0,0,0,0,0,0,0,0,0,0,0,0,0,0,0,0,0,0,0,0,0,0,0,0,0,0,0,
0,0,0,0,0,0,0,0,0,0,0,0,0,0,0,0,0,0,0,0,0,0,0,0,0,0,0,0,0,0,
0,0,0,0,0,0,0,0,0,0,0,0,0,0,0,0,0,0,0,0,0,0,0,0,0,0,0,0,0,0,
0,0,0,0,0,0,0,0,0,0,0,0,0,0,0,0,0,0,0,0,0,0,0,0,0,0,0,0,0,0,
0,0,0,0,0,0,0,0,0,0,0,0,0,0,0,0,0,0,0,0,0,0,0,0,0,0,0,0,0,0,
0,0,0,0,0,0,0,0,0,0,0,0,0,0,0,0,0,0,0,0,0,0,0,0,0,0,0,0,0,0,
0,0,0,0,0,0,0,0,0,0,0,0,0,0,0,0,0,0,0,0,0,0,0,0,0,0,0,0,0,0,
0,0,0,0,0,0,0,0,0,0,0,0,0,0,0,0,0,0,0,0,0,0,0,0,0,0,0,0,0,0,
0,0,0,0,0,0,0,0,0,0,0,0,0,0,0,0,0,0,0,0,0,0,0,0,0,0,0,0,0,0,
0,0,0,0,0,0,0,0,0,0,0,0,0,0,0,0,0,0,0,0,0,0,0,0,0,0,0,0,0,0,
0,0,0,0,0,0,0,0,0,0,0,0,0,0,0,0,0,0,0,0,0,0,0,0,0,0,0,0,0,0,
0,0,0,0,0,0,0,0,0,0,0,0,0,0,0,0,0,0,0,0,0,0,0,0,0,0,0,0,0,0,
0,0,0,0,0,0,0,0,0,0,0,0,0,0,0,0,0,0,0,0,0,0,0,0,0,0,0,0,0,0,
0,0,0,0,0,0,0,0,0,0,0,0,0,0,0,0,0,0,0,0,0,0,0,0,0,0,0,0,0,0,
0,0,0,0,0,0,0,0,0,0,0,0,0,0,0,0,0,0,0,0,0,0,0,0,0,0,0,0,0,0,
0,0,0,0,0,0,0,0,0,0,0,0,0,0,0,0,0,0,0,0,0,0,0,0,0,0,0,0,0,0,
0,0,0,0,0,0,0,0,0,0,0,0,0,0,0,0,0,0,0,0,0,0,0,0,0,0,0,0,0,0
</data>
 </layer>
 <objectgroup id="7" name="objects_party" visible="0"/>
 <imagelayer id="5" name="Image Layer 1" visible="0" opacity="0.44" tintcolor="#575ed8" repeatx="1" repeaty="1">
  <image source="../../../assets/sprites/world/Forest.png" width="1200" height="480"/>
 </imagelayer>
</map>
