<?xml version="1.0" encoding="UTF-8"?>
<map version="1.10" tiledversion="1.11.2" orientation="orthogonal" renderorder="right-down" width="20" height="16" tilewidth="40" tileheight="40" infinite="0" nextlayerid="8" nextobjectid="40">
 <editorsettings>
  <export target="forest4.lua" format="lua"/>
 </editorsettings>
 <properties>
  <property name="has_tile_sounds" type="bool" value="true"/>
  <property name="music" value="bloom_f"/>
  <property name="name" value="Forest - Flower Field"/>
 </properties>
 <tileset firstgid="1" source="../tilesets/Forest.tsx"/>
 <tileset firstgid="1201" source="../tilesets/trees.tsx"/>
 <tileset firstgid="1202" source="../tilesets/debug.tsx"/>
 <layer id="7" name="stepsounds" width="20" height="16" opacity="0">
  <data encoding="csv">
0,0,0,0,0,0,0,0,0,0,0,0,0,0,0,0,0,0,0,0,
0,0,0,0,0,0,0,0,0,0,0,0,0,0,0,0,0,0,0,0,
0,0,0,0,0,0,0,0,0,0,0,0,0,0,0,0,0,0,0,0,
0,0,0,0,0,0,0,0,0,0,0,0,1202,1202,1202,1202,0,0,0,0,
0,0,0,0,0,0,0,0,0,0,0,0,1202,1202,1202,1202,0,0,0,0,
1207,1207,1207,1207,1207,1207,1207,1207,1207,1207,1207,1202,1202,1202,1202,1202,0,0,0,0,
1207,1207,1207,1207,1207,1207,1207,1207,1207,1207,1207,1202,1202,1202,1202,1202,0,0,0,0,
1207,1207,1207,1207,1207,1207,1207,1207,1207,1207,1207,1202,1202,1202,1202,1202,0,0,0,0,
1207,1207,1207,1207,1207,1207,1207,1207,1207,1207,1207,1207,1207,1202,1202,1202,0,0,0,0,
0,0,0,0,0,0,0,0,0,0,0,0,0,1202,1202,1202,0,0,0,0,
0,0,0,0,0,0,0,0,0,0,0,0,0,1202,1202,1202,0,0,0,0,
0,0,0,0,0,0,0,0,0,0,0,0,0,1202,1202,1202,0,0,0,0,
0,0,0,0,0,0,0,0,0,0,0,0,0,1202,1202,1202,0,0,0,0,
0,0,0,0,0,0,0,0,0,0,0,0,0,1202,1202,1202,0,0,0,0,
0,0,0,0,0,0,0,0,0,0,0,0,0,1202,1202,1202,0,0,0,0,
0,0,0,0,0,0,0,0,0,0,0,0,0,1202,1202,1202,0,0,0,0
</data>
 </layer>
 <layer id="1" name="grass" width="20" height="16">
  <data encoding="csv">
0,0,0,0,0,0,0,0,0,0,0,0,0,0,0,0,0,0,0,0,
0,0,0,0,0,0,0,0,0,0,0,0,0,0,0,0,0,0,0,0,
0,0,0,0,0,0,0,0,0,0,0,0,0,0,0,0,0,0,0,0,
0,0,0,0,0,0,0,0,0,0,0,0,45,46,46,47,0,0,0,0,
0,0,0,0,242,243,244,20,0,0,0,0,85,90,90,87,0,0,0,0,
54,54,54,54,54,54,54,54,54,54,55,54,94,90,90,87,0,0,0,0,
94,94,94,94,94,94,94,94,94,94,94,94,94,90,205,87,0,0,0,0,
94,94,94,94,94,94,94,94,94,94,94,94,94,90,90,87,0,0,0,0,
134,134,134,134,134,134,134,134,134,134,134,134,134,94,90,87,0,0,0,0,
0,0,0,242,243,244,0,0,0,0,0,0,0,84,90,87,0,20,0,0,
0,0,0,0,0,0,0,57,0,0,0,0,0,84,0,87,20,0,0,0,
0,0,0,0,0,58,0,0,0,19,0,0,0,84,0,87,0,20,0,0,
0,0,0,0,0,0,0,0,19,0,58,0,0,84,0,87,20,0,0,0,
0,0,0,0,0,0,0,0,0,0,0,0,0,84,0,87,0,0,0,0,
0,0,0,0,0,0,0,0,0,0,0,0,0,0,0,0,0,0,0,0,
0,0,0,0,0,0,0,0,0,0,0,0,0,0,0,0,0,0,0,0
</data>
 </layer>
 <layer id="4" name="snow_over" width="20" height="16">
  <data encoding="csv">
0,0,0,0,0,0,0,0,0,0,0,0,0,0,0,0,0,0,0,0,
0,0,0,0,0,0,0,0,0,0,0,0,0,0,0,0,0,0,0,0,
0,0,0,0,0,0,0,0,0,0,0,0,0,0,0,0,0,0,0,0,
0,0,0,0,0,0,0,0,0,0,0,0,0,46,0,0,0,0,0,0,
0,0,0,0,0,0,0,0,0,0,0,0,0,0,0,0,0,0,0,0,
0,0,0,0,0,0,0,0,0,0,54,45,86,0,0,0,0,0,0,0,
0,0,0,0,0,0,0,0,0,0,0,85,86,0,0,0,0,0,0,0,
0,0,0,0,0,0,0,0,0,0,0,125,86,0,0,0,0,0,0,0,
0,0,0,0,0,0,0,0,0,0,0,0,134,85,82,0,0,0,0,0,
0,0,0,0,0,0,0,0,0,0,0,0,0,85,0,0,0,0,0,0,
0,0,0,0,0,0,0,0,0,0,0,0,0,85,82,83,0,0,0,0,
0,0,0,0,0,0,0,0,0,0,0,0,0,85,86,87,0,0,0,0,
0,0,0,0,0,0,0,0,0,0,0,0,0,85,86,87,0,0,0,0,
0,0,0,0,0,0,0,0,0,0,0,0,0,85,86,87,0,0,0,0,
0,0,0,0,0,0,0,0,0,0,0,0,0,85,86,87,0,0,0,0,
0,0,0,0,0,0,0,0,0,0,0,0,0,85,86,87,0,0,0,0
</data>
 </layer>
 <objectgroup color="#0000ff" id="5" name="collision">
  <object id="22" x="-0.333333" y="155.5" width="440.167" height="48"/>
  <object id="23" x="1.58333" y="351" width="517.667" height="48"/>
  <object id="25" x="440.667" y="80.6667" width="37.3333" height="120.667"/>
  <object id="26" x="479.333" y="78.6667" width="158.667" height="38"/>
  <object id="27" x="680.338" y="79.8117" width="560" height="38" rotation="90"/>
  <object id="28" x="480.667" y="400.667" width="38" height="238.333"/>
 </objectgroup>
 <objectgroup color="#ff55ff" id="3" name="objects">
  <object id="1" gid="1201" x="251" y="202.333" width="156" height="180"/>
  <object id="2" name="savepoint" x="560.333" y="182.667">
   <properties>
    <property name="text1">* The flowers smell really nice.[wait:8]
* You feel welcomed by the atmosphere.</property>
   </properties>
   <point/>
  </object>
  <object id="3" gid="1201" x="424.5" y="115.5" width="156" height="180"/>
  <object id="4" gid="1201" x="604" y="168" width="156" height="180"/>
  <object id="5" gid="1201" x="328.333" y="193.333" width="156" height="180"/>
  <object id="6" gid="1201" x="522" y="118" width="156" height="180"/>
  <object id="7" gid="1201" x="25" y="196" width="156" height="180"/>
  <object id="8" name="interactable" x="156" y="163" width="128" height="38">
   <properties>
    <property name="text1" value="* (You sneeze at the rosy smell of the flowers.) "/>
    <property name="text2">* (You're pretty sure you
inhaled some pollen.)</property>
   </properties>
  </object>
  <object id="10" name="bouquet" x="298.667" y="229.333" width="82.6667" height="85.3333"/>
  <object id="12" gid="57" x="581.625" y="170.375" width="32" height="32"/>
  <object id="13" gid="57" x="510.75" y="170.38" width="32" height="32"/>
  <object id="19" gid="1201" x="370.167" y="478.5" width="156" height="180"/>
  <object id="21" gid="1201" x="619.333" y="362" width="156" height="180"/>
  <object id="29" name="transition" x="2" y="202" width="18.3333" height="150.667">
   <properties>
    <property name="map" value="forest3"/>
    <property name="marker" value="entranceB"/>
   </properties>
  </object>
  <object id="33" name="shadow" x="205" y="95">
   <point/>
  </object>
  <object id="35" gid="57" x="463" y="254.5" width="32" height="32"/>
  <object id="36" gid="1201" x="680" y="531.333" width="156" height="180"/>
  <object id="38" gid="1201" x="659.333" y="614.667" width="156" height="180"/>
  <object id="39" name="interactable" x="116" y="360" width="128" height="38">
   <properties>
    <property name="text1" value="* (You sneeze at the rosy smell of the flowers.) "/>
    <property name="text2">* (You're pretty sure you
inhaled some pollen.)</property>
   </properties>
  </object>
 </objectgroup>
 <objectgroup color="#5500ff" id="6" name="markers">
  <object id="30" name="entranceA" x="48.6667" y="278">
   <point/>
  </object>
 </objectgroup>
 <imagelayer id="2" name="overlay" visible="0" opacity="0.44" tintcolor="#575ed8" offsetx="80" offsety="80" repeatx="1" repeaty="1">
  <image source="../../../assets/sprites/world/Forest.png" width="1200" height="480"/>
 </imagelayer>
</map>
