<?xml version="1.0" encoding="UTF-8"?>
<map version="1.10" tiledversion="1.11.2" orientation="orthogonal" renderorder="right-down" width="50" height="30" tilewidth="40" tileheight="40" infinite="0" nextlayerid="117" nextobjectid="113">
 <editorsettings>
  <export target="forest2.lua" format="lua"/>
 </editorsettings>
 <properties>
  <property name="has_tile_sounds" type="bool" value="true"/>
  <property name="music" value="bloom_f"/>
 </properties>
 <tileset firstgid="1" source="../tilesets/Forest.tsx"/>
 <tileset firstgid="1201" source="../tilesets/trees.tsx"/>
 <tileset firstgid="1205" source="../tilesets/debug.tsx"/>
 <layer id="116" name="stepsounds" width="50" height="30" opacity="0">
  <data encoding="csv">
0,0,0,0,0,0,0,0,0,0,0,0,0,0,0,0,0,0,0,0,0,0,0,0,0,0,0,0,0,0,0,1210,1210,1210,1210,1210,0,0,0,0,0,0,0,0,0,0,0,0,0,0,
0,0,0,0,0,0,0,0,0,0,0,0,0,0,0,0,0,0,0,0,0,0,0,0,0,0,0,0,0,0,0,1210,1210,1210,1210,1210,0,0,0,0,0,0,0,0,0,0,0,0,0,0,
0,0,0,0,0,0,0,0,0,0,0,0,0,0,0,0,0,0,0,0,0,0,0,0,0,0,0,0,0,0,0,1210,1210,1210,1210,1210,0,0,0,0,0,0,0,0,0,0,0,0,0,0,
1205,1205,1205,1205,1205,1205,1205,1205,1205,1205,0,0,0,0,0,0,0,0,0,0,0,0,0,0,0,0,0,0,0,0,0,1210,1210,1210,1210,1210,0,0,0,0,0,0,0,0,0,0,0,0,0,0,
1205,1205,1205,1205,1205,1205,1205,1205,1205,1205,0,0,0,0,0,0,0,0,0,0,0,0,0,0,0,0,0,0,0,0,0,1210,1210,1210,1210,1210,0,0,0,0,0,0,0,0,0,0,0,0,0,0,
1205,1205,1205,1205,1205,1205,1205,1205,1205,1205,0,0,0,0,0,0,0,0,0,0,0,0,0,0,0,0,0,0,0,0,0,1210,1210,1210,1210,1210,0,0,0,0,0,0,0,0,0,0,0,0,0,0,
1205,1205,1205,1205,1205,1205,1205,1205,1205,1205,0,0,0,0,0,0,0,0,0,0,0,0,0,0,0,0,0,0,0,0,0,1210,1210,1210,1210,1210,0,0,0,0,0,0,0,0,0,0,0,0,0,0,
1205,1205,1205,1205,1205,1205,1205,1205,1205,1205,0,0,0,0,0,0,0,0,0,0,0,0,0,0,0,0,0,0,0,0,0,1210,1210,1210,1210,1210,0,0,0,0,0,0,0,0,0,0,0,0,0,0,
1205,1205,1205,1205,1205,1205,1205,1205,1205,1205,0,0,0,0,0,0,0,0,0,0,0,0,0,0,0,0,0,0,0,0,0,1210,1210,1210,1210,1210,0,0,0,0,0,0,0,0,0,0,0,0,0,0,
1205,1205,1205,1205,1205,1205,1205,1205,1205,1205,0,0,0,0,0,0,0,0,0,0,0,0,0,0,0,0,0,0,0,0,0,1210,1210,1210,1210,1210,0,0,0,0,0,0,0,0,0,0,0,0,0,0,
0,0,0,0,1205,1205,1205,1205,1205,1205,0,0,0,0,0,0,0,0,0,0,0,0,0,0,0,0,0,0,0,0,0,1210,1210,1210,1210,1210,0,0,0,0,0,0,0,0,0,0,0,0,0,0,
0,0,0,0,1205,1205,1205,1205,1205,1205,0,0,0,0,0,0,0,0,0,0,0,0,0,0,0,0,0,0,0,0,0,1210,1210,1210,1210,1210,0,0,0,0,0,0,0,0,0,0,0,0,0,0,
0,0,0,0,1205,1205,1205,1205,1205,1205,0,0,0,0,0,0,0,0,0,0,0,0,0,0,0,0,1210,1210,0,0,0,1210,1210,1210,1210,1210,0,0,0,0,0,0,0,0,0,0,0,0,0,0,
0,0,0,0,1205,1205,1205,1205,1205,1205,1205,1205,1205,1205,1205,1205,1205,1205,1205,1205,1205,1205,1205,1205,1205,1205,1205,1210,1210,1210,1210,1210,1210,1210,1210,1210,0,0,0,0,0,0,0,0,0,0,0,0,0,0,
0,0,0,0,1205,1205,1205,1205,1205,1205,1205,1205,1205,1205,1205,1205,1205,1205,1205,1205,1205,1205,1205,1205,1205,1205,1205,1210,1210,1210,1210,1210,1210,1210,1210,1210,0,0,0,0,0,0,0,0,0,0,0,0,0,0,
0,0,0,0,1205,1205,1205,1205,1205,1205,1205,1205,1205,1205,1205,1205,1205,1205,1205,1205,1205,1205,1205,1205,1205,1205,1205,1210,1210,1210,1210,1210,1210,1210,1210,1210,0,0,0,0,0,0,0,0,0,0,0,0,0,0,
0,0,0,0,1205,1205,1205,1205,1205,1205,1205,1205,1205,1205,1205,1205,1205,1205,1205,1205,1205,1205,1205,1205,1205,1205,1205,1210,1210,1210,1210,1210,1210,1210,1210,1210,0,0,0,0,0,0,0,0,0,0,0,0,0,0,
0,0,0,0,1205,1205,1205,1205,1205,1205,1205,1205,1205,1205,1205,1205,1205,1205,1205,1205,1205,1205,1205,1205,1205,1205,1205,1210,1210,1210,1210,1210,1210,1210,1210,1210,0,0,0,0,0,0,0,0,0,0,0,0,0,0,
0,0,0,0,1205,1205,1205,1205,1205,1205,1205,1205,1205,1205,1205,1205,1205,1205,1205,1205,1205,1205,1205,1205,1205,1205,1205,1210,1210,1210,1210,1210,1210,1210,1210,1210,0,0,0,0,0,0,0,0,0,0,0,0,0,0,
0,0,0,0,1205,1205,1205,1205,1205,1205,1205,1205,1205,1205,1205,1205,1205,1205,1205,1205,1205,1205,1205,1205,1205,1205,1205,1210,1210,1210,1210,1210,1210,1210,1210,1210,0,0,0,0,0,0,0,0,0,0,0,0,0,0,
0,0,0,0,0,0,0,0,0,0,0,0,0,0,0,0,0,0,0,0,0,0,1205,1205,1205,1205,1205,1210,1210,1210,1210,1210,1210,1210,1210,1210,1210,0,0,0,0,0,0,0,0,0,0,0,0,0,
0,0,0,0,0,0,0,0,0,0,0,0,0,0,0,0,0,0,0,0,0,0,1205,1205,1205,1205,1205,1210,1210,1210,1210,1210,1210,1210,1210,1210,1210,1210,1210,1210,1210,1210,1210,1210,1210,1210,1210,1210,1210,1210,
0,0,0,0,0,0,0,0,0,0,0,0,0,0,0,0,0,0,0,0,0,0,0,0,0,0,1210,1210,1210,1210,1210,1210,1210,1210,1210,1210,1210,1210,1210,1210,1210,1210,1210,1210,1210,1210,1210,1210,1210,1210,
0,0,0,0,0,0,0,0,0,0,0,0,0,0,0,0,0,0,0,0,0,0,0,0,0,0,1210,1210,1210,1210,1210,1210,1210,1210,1210,1210,1210,1210,1210,1210,1210,1210,1210,1210,1210,1210,1210,1210,1210,1210,
0,0,0,0,0,0,0,0,0,0,0,0,0,0,0,0,0,0,0,0,0,0,0,0,0,0,1210,1210,1210,1210,1210,1210,1210,1210,1210,1210,1210,1210,1210,1210,1210,1210,1210,1210,1210,1210,1210,1210,1210,1210,
0,0,0,0,0,0,0,0,0,0,0,0,0,0,0,0,0,0,0,0,0,0,0,0,0,0,1210,1210,1210,1210,1210,1210,1210,1210,1210,1210,1210,1210,1210,1210,1210,1210,1210,1210,1210,1210,1210,1210,1210,1210,
0,0,0,0,0,0,0,0,0,0,0,0,0,0,0,0,0,0,0,0,0,0,0,0,0,0,0,0,0,0,0,0,0,0,0,0,0,0,0,0,0,0,0,0,0,0,0,0,0,0,
0,0,0,0,0,0,0,0,0,0,0,0,0,0,0,0,0,0,0,0,0,0,0,0,0,0,0,0,0,0,0,0,0,0,0,0,0,0,0,0,0,0,0,0,0,0,0,0,0,0,
0,0,0,0,0,0,0,0,0,0,0,0,0,0,0,0,0,0,0,0,0,0,0,0,0,0,0,0,0,0,0,0,0,0,0,0,0,0,0,0,0,0,0,0,0,0,0,0,0,0,
0,0,0,0,0,0,0,0,0,0,0,0,0,0,0,0,0,0,0,0,0,0,0,0,0,0,0,0,0,0,0,0,0,0,0,0,0,0,0,0,0,0,0,0,0,0,0,0,0,0
</data>
 </layer>
 <layer id="6" name="Tile Layer 1" width="50" height="30">
  <data encoding="csv">
575,576,577,578,0,0,0,0,0,0,0,0,0,0,0,0,0,0,0,0,0,0,0,0,0,0,0,0,0,0,0,93,94,94,94,95,0,0,0,0,0,0,0,0,0,0,0,0,0,0,
615,616,617,618,0,0,0,0,0,0,0,0,0,0,0,0,0,0,0,0,0,0,0,0,0,0,0,0,0,0,0,93,94,94,94,95,0,0,0,0,0,0,0,0,0,0,0,19,0,0,
655,656,657,658,0,0,0,0,0,0,0,0,0,0,0,0,0,0,0,0,0,0,0,0,0,0,0,0,0,0,0,93,94,94,94,95,0,0,0,19,0,0,0,0,0,0,0,0,0,0,
46,46,46,46,46,46,46,46,46,43,0,0,0,0,0,0,0,0,0,0,0,0,0,0,0,0,0,0,0,0,0,93,94,94,94,95,0,0,0,0,0,0,0,0,0,0,0,0,0,0,
86,82,86,86,86,86,86,86,86,87,0,0,0,0,0,0,0,0,0,0,0,0,0,0,0,0,0,0,0,0,0,93,94,94,94,95,0,0,0,0,0,0,0,0,0,19,0,0,0,0,
86,86,86,86,86,86,86,86,86,87,0,0,0,0,0,0,0,0,0,0,0,0,0,0,0,0,0,0,0,0,0,93,94,94,94,95,0,0,0,0,19,0,0,0,0,0,0,0,0,0,
86,86,86,86,86,86,86,82,86,87,0,0,0,0,0,0,0,0,0,0,0,0,0,0,0,0,0,0,0,0,0,93,94,94,94,95,0,0,0,0,0,0,0,0,0,0,19,0,0,0,
86,86,86,82,86,86,86,86,86,87,0,0,0,0,0,0,0,0,0,0,0,0,0,0,0,0,0,0,0,0,0,93,94,94,94,95,0,0,0,0,0,0,0,0,0,0,0,0,0,0,
86,86,86,86,86,86,86,86,86,87,0,0,0,0,0,0,0,0,0,0,0,0,0,0,0,0,0,0,0,0,0,93,94,94,94,95,0,0,18,0,0,0,0,0,0,0,0,0,0,0,
126,126,126,126,86,86,86,86,86,87,0,0,0,0,0,0,0,0,0,0,0,0,0,0,0,0,0,0,0,0,0,93,94,94,94,95,0,0,0,0,0,0,0,0,0,0,0,0,0,0,
0,0,0,0,85,86,82,86,82,87,0,0,0,0,0,0,0,0,0,0,0,0,0,0,0,0,0,0,0,0,0,93,94,94,94,95,0,0,0,0,0,0,0,0,0,0,0,19,0,0,
0,0,0,0,81,86,86,86,86,87,0,0,0,0,0,0,0,0,0,0,0,0,0,0,0,0,0,0,0,0,0,93,94,94,94,95,0,0,18,0,0,0,0,0,0,0,0,19,0,0,
0,0,0,0,81,86,86,86,86,87,0,242,243,244,0,653,0,0,0,0,0,0,242,243,244,0,53,55,0,0,0,93,94,94,94,95,0,0,18,0,0,0,0,0,0,0,0,0,0,0,
0,0,0,0,81,86,82,86,86,86,46,46,42,46,46,42,46,46,46,42,46,46,46,46,46,46,51,94,54,54,54,94,94,94,94,95,0,0,0,0,0,0,0,0,0,0,0,0,0,0,
0,0,0,0,85,86,86,86,86,86,86,86,86,86,86,86,86,86,86,86,86,86,86,86,86,86,91,94,94,94,94,94,94,94,94,95,0,0,0,0,0,0,0,18,0,0,0,0,0,0,
0,0,99,0,85,86,86,82,86,82,86,86,82,86,86,82,86,86,82,86,86,86,86,86,86,86,91,94,94,94,94,94,94,94,94,95,0,0,0,0,0,0,0,0,0,0,0,0,0,0,
0,0,0,0,85,86,86,86,82,86,86,86,86,86,82,86,86,86,86,86,86,86,86,86,86,86,91,94,94,94,94,94,94,94,94,95,0,0,0,18,0,0,0,0,0,0,0,0,0,0,
457,458,0,0,85,86,82,86,86,86,86,86,86,86,86,86,86,86,86,86,86,86,86,86,86,86,91,94,94,94,94,94,94,94,94,95,0,0,0,0,0,0,18,0,0,0,0,0,0,0,
497,498,0,0,85,86,86,86,86,86,82,86,86,82,86,82,86,86,86,82,86,86,86,86,86,86,91,94,94,94,94,94,94,94,94,95,0,18,0,0,0,0,0,0,0,0,0,20,0,0,
537,538,0,0,125,122,126,126,126,126,126,126,126,126,122,126,126,126,126,126,126,126,86,86,86,86,91,94,94,94,94,94,94,94,94,95,0,0,0,0,0,0,0,0,0,0,0,0,0,0,
577,578,0,0,0,0,0,0,0,0,0,0,0,0,0,0,0,0,0,0,0,0,85,86,86,86,91,94,94,94,94,94,94,94,94,94,55,0,0,0,0,20,0,0,0,0,20,0,0,0,
617,618,0,0,0,0,0,0,0,0,0,0,0,0,453,454,455,456,457,458,0,0,125,126,126,126,131,94,94,94,94,94,94,94,94,94,94,54,54,54,54,54,54,54,54,54,54,54,54,54,
657,658,0,0,99,0,0,0,0,0,0,0,0,0,493,494,495,496,497,498,0,0,0,0,0,0,93,94,94,94,94,94,94,94,94,94,94,94,94,94,94,94,94,94,94,94,94,94,94,94,
99,0,0,0,0,0,0,0,0,0,0,0,0,0,533,534,535,536,537,538,0,0,0,0,0,0,93,94,94,94,94,94,94,94,94,94,94,94,94,94,94,94,94,94,94,94,94,94,94,94,
0,0,453,454,455,456,457,458,0,0,99,0,0,99,573,574,575,576,577,578,0,0,0,0,0,0,93,94,94,94,94,94,94,94,94,94,94,94,94,94,94,94,94,94,94,94,94,94,94,94,
0,0,493,494,495,496,497,498,0,0,0,0,0,0,613,614,615,616,617,618,0,0,0,0,0,0,133,134,134,134,134,134,134,134,134,134,134,134,134,134,134,134,134,134,134,134,134,134,134,134,
0,0,533,534,535,536,537,538,0,0,0,0,0,0,653,654,655,656,657,658,0,0,0,0,0,0,20,0,19,19,0,0,0,0,0,0,19,0,0,0,0,0,0,0,0,0,20,0,0,0,
0,0,573,574,575,576,577,578,0,0,0,0,0,0,0,0,0,0,0,0,0,0,0,0,0,0,0,0,0,0,0,0,0,18,0,0,0,0,0,20,0,0,0,0,19,0,0,0,0,18,
0,0,613,614,615,616,617,618,0,99,0,0,0,0,0,99,0,0,0,0,0,0,0,0,0,20,0,0,0,0,20,0,20,0,0,0,0,0,19,0,0,0,20,0,0,0,20,0,0,0,
0,0,653,654,655,656,657,658,0,0,0,0,0,0,0,0,0,0,0,0,0,0,0,0,0,0,0,0,0,0,0,0,20,20,0,0,0,0,0,0,0,0,0,0,19,0,0,0,19,0
</data>
 </layer>
 <objectgroup color="#aa00ff" id="110" name="markers">
  <object id="9" name="spawn" x="160" y="240">
   <point/>
  </object>
  <object id="10" name="entranceA" x="120" y="240">
   <point/>
  </object>
  <object id="34" name="entranceB" x="1343" y="93">
   <point/>
  </object>
  <object id="90" name="exitA" x="1942.67" y="938.667">
   <point/>
  </object>
 </objectgroup>
 <objectgroup color="#0000ff" id="109" name="collision" visible="0">
  <object id="3" x="0" y="80" width="440" height="40"/>
  <object id="4" x="400" y="120" width="40" height="400"/>
  <object id="5" x="440" y="480" width="360" height="40"/>
  <object id="6" x="120" y="800" width="680" height="40"/>
  <object id="7" x="120" y="400" width="40" height="400"/>
  <object id="8" x="0" y="400" width="120" height="40"/>
  <object id="14" x="880" y="880" width="160" height="40"/>
  <object id="15" x="840" y="800" width="40" height="120"/>
  <object id="17" x="1000" y="920" width="40" height="120"/>
  <object id="18" x="1040" y="1040" width="1000" height="40"/>
  <object id="19" x="1480" y="800" width="520" height="40"/>
  <object id="20" x="1440" y="2.66667" width="40" height="797.333"/>
  <object id="21" x="1200" y="0" width="40" height="520"/>
  <object id="22" x="800" y="479" width="246" height="40"/>
  <object id="23" x="800" y="800" width="40" height="40"/>
  <object id="77" x="1157.45" y="717.364" width="44.1818" height="37.1818"/>
  <object id="78" x="1248.62" y="959.788" width="44.1818" height="34.9091"/>
  <object id="88" x="1119.67" y="480" width="80" height="40"/>
  <object id="89" x="1042" y="439.333" width="80" height="40"/>
 </objectgroup>
 <objectgroup color="#ff55ff" id="108" name="objects" opacity="0.94">
  <object id="1" name="transition" x="1982" y="810.667" width="40" height="280">
   <properties>
    <property name="map" value="forest3"/>
    <property name="marker" value="entranceA"/>
   </properties>
  </object>
  <object id="2" name="transition" x="-18" y="120" width="40" height="280">
   <properties>
    <property name="map" value="forest1"/>
    <property name="marker" value="entranceB"/>
   </properties>
  </object>
  <object id="27" name="interactable" x="440.182" y="481.417" width="120.788" height="39.9697">
   <properties>
    <property name="text1" value="* (You try to poke your hand at the missing side of the bush.)"/>
    <property name="text2" value="* (For a moment,[wait:5] you thought you saw your hand disappear.)"/>
   </properties>
  </object>
  <object id="33" name="interactable" x="878.356" y="475.182" width="120.788" height="44.6364">
   <properties>
    <property name="text1" value="* (You try to poke your hand at the missing side of the bush.)"/>
    <property name="text2" value="* (For a moment,[wait:5] you thought you saw your hand disappear.)"/>
   </properties>
  </object>
  <object id="35" name="transition" x="1242" y="-1" width="197" height="31">
   <properties>
    <property name="map" value="forest2a"/>
    <property name="marker" value="entranceA"/>
   </properties>
  </object>
  <object id="36" name="shadow" x="213.333" y="236">
   <point/>
  </object>
  <object id="76" gid="1201" x="1095" y="755" width="158" height="180">
   <properties>
    <property name="solid" type="bool" value="true"/>
   </properties>
  </object>
  <object id="79" gid="1201" x="1186.17" y="995.151" width="158" height="180">
   <properties>
    <property name="solid" type="bool" value="true"/>
   </properties>
  </object>
  <object id="80" name="interactable" x="1152.73" y="726" width="44.1818" height="29.1818">
   <properties>
    <property name="text1">* It's a tree.[wait:5]
* You wish there was candy on it.</property>
   </properties>
  </object>
  <object id="81" name="interactable" x="1248.91" y="965.742" width="44.1818" height="29.1818">
   <properties>
    <property name="text1">* It's a tree.[wait:5]
* You wish there was candy on it.</property>
   </properties>
  </object>
  <object id="84" x="661.333" y="1262.67">
   <point/>
  </object>
  <object id="85" name="script" x="559.667" y="520.667" width="39.5" height="279.333">
   <properties>
    <property name="cutscene" value="peonie.appear"/>
   </properties>
  </object>
  <object id="86" gid="1201" x="-24.3333" y="521.667" width="158" height="180"/>
  <object id="87" gid="1201" x="153.667" y="920.667" width="158" height="180"/>
  <object id="92" name="tree" gid="1201" x="608" y="528" width="165" height="180"/>
  <object id="94" name="tree" gid="1201" x="408" y="328" width="165" height="180"/>
  <object id="95" name="tree" gid="1201" x="648" y="248" width="220" height="260"/>
  <object id="96" name="tree" gid="1201" x="1728" y="848" width="165" height="180"/>
  <object id="97" gid="1201" x="568" y="1088" width="220" height="260"/>
  <object id="98" gid="1201" x="88" y="1208" width="220" height="260"/>
  <object id="99" gid="1201" x="-137" y="918" width="220" height="260"/>
  <object id="100" name="tree" gid="1203" x="1585" y="283" width="220" height="220"/>
  <object id="102" name="tree" gid="1203" x="945" y="203" width="220" height="220"/>
  <object id="103" gid="1203" x="867" y="1281" width="220" height="220"/>
  <object id="104" gid="1203" x="1230" y="1278" width="220" height="220"/>
  <object id="105" gid="1203" x="1510" y="1278" width="220" height="220"/>
  <object id="106" gid="1203" x="1790" y="1278" width="220" height="220"/>
  <object id="107" name="tree" gid="1202" x="1733" y="560" width="82" height="130"/>
  <object id="108" name="tree" gid="1202" x="1493" y="760" width="82" height="130"/>
  <object id="111" name="tree" gid="1202" x="1469" y="475" width="82" height="130"/>
  <object id="112" name="interactable" x="671.659" y="496.409" width="44.1818" height="29.1818">
   <properties>
    <property name="text1">* It's a tree.[wait:5]
* You wish there was candy on it.</property>
   </properties>
  </object>
 </objectgroup>
 <imagelayer id="112" name="Image Layer 1" tintcolor="#aaaaaaaa" offsetx="-1.33333" offsety="-173.333" repeatx="1">
  <image source="../../../assets/sprites/world/Forest Roof.png" width="600" height="240"/>
 </imagelayer>
 <imagelayer id="111" name="Image Layer 1" opacity="0.44" tintcolor="#575ed8" repeatx="1" repeaty="1">
  <image source="../../../assets/sprites/world/Forest.png" width="1200" height="480"/>
 </imagelayer>
</map>
