<?xml version="1.0" encoding="UTF-8"?>
<map version="1.10" tiledversion="1.11.2" orientation="orthogonal" renderorder="right-down" width="50" height="50" tilewidth="40" tileheight="40" infinite="0" nextlayerid="11" nextobjectid="224">
 <editorsettings>
  <export target="forest3.lua" format="lua"/>
 </editorsettings>
 <properties>
  <property name="has_tile_sounds" type="bool" value="true"/>
  <property name="music" value="bloom_f"/>
 </properties>
 <tileset firstgid="1" source="../tilesets/Forest.tsx"/>
 <tileset firstgid="1201" source="../tilesets/trees.tsx"/>
 <tileset firstgid="1202" source="../tilesets/debug.tsx"/>
 <layer id="10" name="stepsounds" width="50" height="50" opacity="0">
  <data encoding="csv">
0,0,0,0,0,0,0,0,0,0,0,0,0,0,0,0,0,0,0,0,0,0,0,0,0,0,0,0,0,0,0,0,0,0,0,0,0,0,0,0,0,0,0,0,0,0,0,0,0,0,
0,0,0,0,0,0,0,0,0,0,0,0,0,0,0,0,0,0,0,0,0,0,0,0,0,0,0,0,0,0,0,0,0,0,0,0,0,0,0,0,0,0,0,0,0,0,0,0,0,0,
0,0,0,0,0,0,0,0,0,0,0,0,0,0,0,0,0,0,0,0,0,0,0,0,0,0,0,0,0,0,0,0,0,0,0,0,0,0,0,0,0,0,0,0,0,0,0,0,0,0,
0,0,0,0,0,0,0,0,0,0,0,0,0,0,0,0,0,0,0,0,0,0,0,0,0,0,0,0,0,0,0,0,0,0,0,0,0,0,0,0,0,0,0,0,0,0,0,0,0,0,
0,0,0,0,0,0,0,0,0,0,0,0,0,0,0,0,0,0,0,0,0,0,0,0,0,0,0,0,0,0,0,0,0,0,0,0,0,0,0,0,0,0,0,0,0,0,0,0,0,0,
1207,1207,1207,1207,1207,1207,1207,1207,1207,0,0,0,0,0,0,0,0,0,0,0,0,0,0,0,0,0,0,0,0,0,0,0,0,0,0,0,0,0,0,0,0,0,0,0,0,0,0,0,0,0,
1207,1207,1207,1207,1207,1207,1207,1207,1207,1207,0,0,0,0,1202,1202,1202,1202,1202,1202,1202,1202,1202,1202,1202,1202,1202,1202,1202,1202,1202,1202,0,0,0,0,0,0,0,0,0,0,0,0,0,0,0,0,0,0,
1207,1207,1207,1207,1207,1207,1207,1207,1207,1207,1207,1207,0,0,1202,1202,1202,1202,1202,1202,1202,1202,1202,1202,1202,1202,1202,1202,1202,1202,1202,1202,0,0,0,0,0,0,0,0,0,0,0,0,0,0,0,0,0,0,
1207,1207,1207,1207,1207,1207,1207,1207,1207,1207,1207,1207,1207,1207,1202,1202,1202,1202,1202,1202,1202,1202,1202,1202,1202,1202,1202,1202,1202,1202,1202,1202,1202,1202,1202,1202,1202,1202,1202,1202,1202,1202,1202,1202,0,0,0,0,0,0,
1207,1207,1207,1207,1207,1207,1207,1207,1207,1207,1207,1207,1207,1207,1202,1202,1202,1202,1202,1202,1202,1202,1202,1202,1202,1202,1202,1202,1202,1202,1202,1202,1202,1202,1202,1202,1202,1202,1202,1202,1202,1202,1202,1202,0,0,0,0,0,0,
0,1207,1207,1207,1207,1207,1207,1207,1207,1207,1207,1207,1207,1202,1202,1202,1202,1202,1202,1202,1202,1202,1202,1202,1202,1202,1202,1202,1202,1202,1202,1202,1202,1202,1202,1202,1202,1202,1202,1202,1202,1202,1202,1202,0,0,0,0,0,0,
0,0,0,0,0,0,0,0,1207,1207,1207,1207,1207,1202,1202,1202,1202,1202,1202,1202,1202,1202,1202,1202,1202,1202,1202,1202,1202,1202,1202,1202,1202,1202,1202,1202,1202,1202,1202,1202,1202,1202,1202,1202,0,0,0,0,0,0,
0,0,0,0,0,0,0,0,0,0,0,0,0,1202,1202,1202,1202,1202,1202,1202,1202,1202,1202,1202,1202,1202,1202,1202,1202,1202,1202,1202,1202,1202,1202,1202,1202,1202,1202,1202,1202,1202,1202,1202,0,0,0,0,0,0,
0,0,0,0,0,0,0,0,0,0,0,0,0,1202,1202,1202,1202,1202,1202,1202,1202,1202,1202,1202,1202,1202,1202,1202,1202,1202,1202,1202,1202,1202,1202,1202,1202,1202,1202,1202,1202,1202,1202,1202,0,0,0,0,0,0,
0,0,0,0,0,0,0,0,0,0,0,0,0,1202,1202,1202,1202,1202,1202,1202,1202,1202,1202,1202,1202,1202,1202,1202,1202,1202,1202,1202,1202,1202,1202,1202,1202,1202,1202,1202,1202,1202,1202,1202,0,0,0,0,0,0,
0,0,0,0,0,0,0,0,0,0,0,0,0,0,0,0,0,0,0,0,0,0,0,0,0,0,0,0,0,0,0,0,0,0,0,0,1202,1202,1202,1202,1202,1202,1202,1202,0,0,0,0,0,0,
0,0,0,0,0,0,0,0,0,0,0,0,0,0,0,0,0,0,0,0,0,0,0,0,0,0,0,0,0,0,0,0,0,0,0,0,1202,1202,1202,1202,1202,1202,1202,1202,0,0,0,0,0,0,
0,0,0,0,0,0,0,0,0,0,0,0,0,0,0,0,0,0,0,0,0,0,0,0,0,0,0,0,0,0,0,0,0,0,0,0,1202,1202,1202,1202,1202,1202,1202,1202,0,0,0,0,0,0,
0,0,0,0,0,0,0,0,0,0,0,0,0,0,0,0,0,0,0,0,0,0,0,0,0,0,0,0,0,0,0,0,0,0,0,0,1202,1202,1202,1202,1202,1202,1202,1202,0,0,0,0,0,0,
0,0,0,0,0,0,0,0,0,0,0,0,0,0,0,0,0,0,0,0,0,0,0,0,0,0,0,0,0,0,0,0,0,0,0,0,1202,1202,1202,1202,1202,1202,1202,1202,0,0,0,0,0,0,
0,0,0,0,0,0,0,0,0,0,0,0,0,0,0,0,0,0,0,0,0,0,0,0,0,0,0,0,0,0,0,0,0,0,0,0,1202,1202,1202,1202,1202,1202,1202,1202,0,0,0,0,0,0,
0,0,0,0,0,0,0,0,0,0,0,0,0,0,0,0,0,0,0,0,0,0,0,0,0,0,0,0,0,0,0,0,0,0,0,0,1202,1202,1202,1202,1202,1202,1202,1202,0,0,0,0,0,0,
0,0,0,0,0,0,0,0,0,0,0,0,0,0,0,0,0,0,0,0,0,0,0,0,0,0,0,0,0,0,0,0,0,0,0,0,1202,1202,1202,1202,1202,1202,1202,1202,0,0,0,0,0,0,
0,0,0,0,0,0,0,0,0,0,0,0,0,0,0,0,0,0,0,0,0,0,0,0,0,0,0,0,0,0,0,0,0,0,0,0,1202,1202,1202,1202,1202,1202,1202,1202,0,0,0,0,0,0,
0,0,0,0,0,0,0,0,0,1207,1207,1207,1207,1207,1207,0,0,1207,1207,1207,1207,1207,1207,1207,1207,1207,0,0,1207,1207,1207,1207,1207,1207,1207,1207,1202,1202,1202,1202,1202,1202,1202,1202,0,0,0,0,0,0,
0,0,0,0,0,0,0,1207,1207,1207,1207,1207,1207,1207,1207,1207,1202,1202,1202,1202,1202,1202,1202,1202,1207,1207,1207,1207,1207,1207,1207,1207,1207,1207,1207,1207,1202,1202,1202,1202,1202,1202,1202,1202,0,0,0,0,0,0,
0,0,0,0,0,0,0,1207,1207,1207,1207,1207,1207,1207,1207,1207,1202,1202,1202,1202,1202,1202,1202,1202,1207,1207,1207,1207,1207,1207,1207,1207,1207,1207,1207,1207,1202,1202,1202,1202,1202,1202,1202,1202,0,0,0,0,0,0,
0,0,0,0,0,0,0,1207,1207,1207,1207,1207,1207,1207,1207,1207,1207,1202,1202,1202,1202,1202,1202,1202,1207,1207,1207,1207,1207,1207,1207,1207,1207,1207,1207,1207,1202,1202,1202,1202,1202,1202,1202,1202,0,0,0,0,0,0,
0,0,0,0,0,0,0,1207,1207,1207,1207,1207,1207,1207,1207,1207,1207,1207,1202,1202,1202,1202,1202,1207,1207,1207,1207,1207,1207,1207,1207,1207,1207,1207,1207,1207,1207,1207,1207,1207,1207,0,0,0,0,0,0,0,0,0,
0,0,0,0,0,0,0,1207,1207,1207,1207,1207,1207,1207,1207,1207,1207,1207,1207,1207,1207,1207,1207,1207,1207,1207,0,0,0,0,0,0,0,1207,1207,1207,1207,1207,0,0,0,0,0,0,0,0,0,0,0,0,
0,0,0,0,0,0,0,1207,1207,1207,1207,1207,1207,0,0,0,0,0,0,0,0,0,0,0,0,0,0,0,0,0,0,0,0,0,0,0,0,0,0,0,0,0,0,0,0,0,0,0,0,0,
0,0,0,0,0,0,0,1207,1207,1207,1207,1207,1207,0,0,0,0,0,0,0,0,0,0,0,0,0,0,0,0,0,0,0,0,0,0,0,0,0,0,0,0,0,0,0,0,0,0,0,0,0,
0,0,0,0,0,0,0,1207,1207,1207,1207,1207,1207,0,0,0,0,0,0,0,0,0,0,0,0,0,0,0,0,0,0,0,0,0,0,0,0,0,0,0,0,0,0,0,0,0,0,0,0,0,
0,0,0,0,0,0,0,1207,1207,1207,1207,1207,1207,0,0,0,0,0,0,0,0,0,0,0,0,0,0,0,0,0,0,0,0,0,0,0,0,0,0,0,0,0,0,0,0,0,0,0,0,0,
0,0,0,0,0,0,0,0,1207,1207,1207,1207,1207,0,0,0,0,0,0,0,0,0,0,0,0,0,0,0,0,0,0,0,0,0,0,0,0,0,0,0,0,0,0,0,0,0,0,0,0,0,
0,0,0,0,0,0,0,0,1207,1207,1207,1207,1207,1207,1207,0,0,0,0,0,0,0,0,0,0,0,0,0,0,0,0,0,0,0,0,0,0,0,0,0,0,0,0,0,0,0,0,0,0,0,
0,0,0,0,0,0,0,0,1207,1207,1207,1207,1207,1207,1207,0,0,0,0,0,0,0,0,0,0,0,0,0,0,0,0,0,0,0,0,0,0,0,0,0,0,0,0,0,0,0,0,0,0,0,
0,0,0,0,0,0,0,0,1207,1207,1207,1207,1207,1207,1207,0,0,0,0,0,0,0,0,0,0,0,0,0,0,0,0,0,0,0,0,0,0,0,0,0,0,0,0,0,0,0,0,0,0,0,
0,0,0,0,0,0,0,0,1207,1207,1207,1207,1207,1207,1207,0,0,0,0,0,0,0,0,0,0,0,0,0,0,0,0,0,0,0,0,0,0,0,0,0,0,0,0,0,0,0,0,0,0,0,
0,0,0,0,0,0,0,0,0,1207,1207,1207,1207,1207,0,0,0,0,0,0,0,0,0,0,0,0,0,0,0,0,0,0,0,0,0,0,0,0,0,0,0,0,0,0,0,0,0,0,0,0,
0,0,0,0,0,0,0,0,0,1207,1207,1207,1207,1207,0,0,0,0,0,0,0,0,0,0,0,0,0,0,0,0,0,1202,1202,1202,1202,1202,1202,0,0,0,0,0,0,0,0,0,0,0,0,0,
0,0,0,0,0,0,0,0,0,1207,1207,1207,1207,1207,0,0,0,0,0,0,0,0,0,0,0,0,0,0,1202,1202,1202,1202,1202,1202,1202,1202,1202,0,0,0,1207,1207,1207,1207,1207,1207,1207,0,0,0,
0,0,0,0,0,0,0,0,0,1207,1207,1207,1207,1207,1207,1207,1207,0,0,0,0,0,0,0,0,0,1207,1207,1202,1202,1202,1202,1202,1202,1202,1202,1202,1207,1207,1207,1207,1207,1207,1207,1207,1207,1207,1207,0,0,
0,0,0,0,0,0,0,0,0,1207,1207,1207,1207,1207,1207,1207,1207,1207,1207,1207,1207,1207,1207,1207,1207,1207,1207,1207,1202,1202,1202,1202,1202,1202,1202,1202,1202,1207,1207,1207,1207,1207,1207,1207,1207,1207,1207,1207,1207,1207,
0,0,0,0,0,0,0,0,0,0,1207,1207,1207,1207,1207,1207,1207,1207,1207,1207,1207,1207,1207,1207,1207,1207,1207,1207,1202,1202,1202,1202,1202,1202,1202,1202,1202,1207,1207,1207,1207,1207,1207,1207,1207,1207,1207,1207,1207,1207,
0,0,0,0,0,0,0,0,0,0,1207,1207,1207,1207,1207,1207,1207,1207,1207,1207,1207,1207,1207,1207,1207,1207,1207,1207,1202,1202,1202,1202,1202,1202,1202,1202,1202,1207,1207,1207,1207,1207,1207,1207,1207,1207,1207,1207,1207,1207,
0,0,0,0,0,0,0,0,0,0,0,1207,1207,1207,1207,1207,1207,1207,1207,1207,1207,1207,1207,1207,1207,1207,1207,1207,1202,1202,1202,1202,1202,1202,1202,1202,1207,1207,1207,1207,1207,1207,1207,1207,1207,1207,1207,1207,1207,1207,
0,0,0,0,0,0,0,0,0,0,0,0,0,1207,1207,1207,1207,1207,1207,1207,1207,1207,1207,1207,1207,1207,1207,1207,1207,1202,1202,1202,1202,1202,1207,1207,1207,1207,1207,1207,1207,1207,1207,1207,1207,1207,1207,1207,1207,0,
0,0,0,0,0,0,0,0,0,0,0,0,0,0,1207,1207,1207,1207,1207,1207,1207,1207,1207,1207,1207,1207,1207,1207,1207,1207,1207,1202,1202,1207,1207,1207,1207,1207,1207,1207,1207,1207,1207,1207,1207,0,0,0,0,0,
0,0,0,0,0,0,0,0,0,0,0,0,0,0,0,0,0,0,0,0,0,0,0,0,0,0,0,0,0,0,0,0,0,0,0,0,0,0,0,0,0,0,0,0,0,0,0,0,0,0
</data>
 </layer>
 <layer id="1" name="Tile Layer 1" width="50" height="50">
  <data encoding="csv">
0,0,0,0,0,0,0,0,0,0,0,0,0,0,0,0,0,0,0,0,0,0,0,0,0,0,0,0,0,0,0,0,0,0,0,0,0,0,0,0,0,0,0,0,0,0,0,0,0,0,
0,0,0,0,0,0,0,0,0,0,0,0,0,0,0,0,0,0,0,0,0,0,0,0,0,0,0,0,0,0,0,0,0,0,0,0,0,0,0,0,0,0,0,0,0,0,0,0,0,0,
0,0,0,0,0,0,0,0,0,0,0,0,0,0,0,0,0,0,0,0,0,0,0,0,0,0,0,0,0,0,0,0,0,0,0,0,0,0,0,0,0,0,0,0,0,0,0,0,0,0,
0,0,0,0,0,0,0,0,0,0,0,0,0,0,0,0,0,0,0,0,0,0,0,0,0,0,0,0,0,0,0,0,0,0,0,0,0,0,0,0,0,0,0,0,0,0,0,0,0,0,
0,0,0,0,0,0,0,0,0,0,0,0,0,0,0,0,0,0,0,0,0,0,0,0,0,0,0,0,0,0,0,0,0,0,0,0,0,0,0,0,0,0,0,0,0,0,0,0,0,0,
54,54,54,54,54,54,54,54,55,0,0,0,0,0,0,0,0,0,0,0,0,0,0,0,0,0,0,0,0,0,0,0,0,0,0,0,0,0,0,0,0,0,0,0,0,0,0,0,0,0,
94,94,94,94,94,94,94,94,94,55,0,0,0,0,0,0,0,0,0,0,0,0,0,0,0,0,0,0,0,0,0,0,0,0,0,0,0,0,0,0,0,0,0,0,0,0,0,0,0,0,
94,94,94,94,94,94,94,94,94,94,54,55,0,0,0,0,0,0,0,0,0,0,0,0,0,0,0,0,0,0,0,0,0,0,0,0,0,0,0,0,0,0,0,0,0,0,0,0,0,0,
94,94,94,94,94,94,94,94,94,94,94,94,54,54,55,0,0,0,0,0,0,0,0,0,0,0,0,0,0,0,0,0,0,0,0,0,0,0,0,0,0,0,0,0,0,0,0,0,0,0,
134,94,94,94,94,94,94,94,94,94,94,94,94,94,95,0,0,0,0,0,0,0,0,0,0,0,0,0,0,0,0,0,0,0,0,0,0,0,0,0,0,0,0,0,0,0,0,0,0,0,
0,133,134,134,134,134,134,134,94,94,94,94,94,94,95,0,0,0,0,0,0,0,0,0,0,0,0,0,0,0,0,0,0,0,0,0,0,0,0,0,0,0,0,0,0,0,0,0,0,0,
0,0,0,0,0,0,0,0,133,134,134,134,134,134,135,0,0,0,0,0,0,0,0,0,0,0,0,0,0,0,0,0,0,0,0,0,0,0,0,0,0,0,0,0,0,0,0,0,0,0,
0,0,0,0,0,0,0,0,0,0,0,0,0,0,0,0,0,0,0,0,0,0,0,0,0,0,0,0,0,0,0,0,0,0,0,0,0,0,0,0,0,0,0,0,0,0,0,0,0,0,
0,0,0,0,0,0,0,0,0,0,0,0,0,0,0,0,0,0,0,0,0,0,0,0,0,0,0,0,0,0,0,0,0,0,0,0,0,0,0,0,0,0,0,0,0,0,0,0,0,0,
0,0,0,0,0,0,0,0,0,0,0,0,0,0,0,0,0,0,0,0,0,0,0,0,0,0,0,0,0,0,0,0,0,0,0,0,0,0,0,0,0,0,0,0,0,0,0,0,0,0,
0,0,0,0,0,0,0,0,0,0,0,0,0,0,0,0,0,0,0,0,0,0,0,0,0,0,0,0,0,0,0,0,0,0,0,0,0,0,0,0,0,0,0,0,0,0,0,0,0,0,
0,0,0,0,0,0,0,0,0,0,0,0,0,0,0,0,0,0,0,0,0,0,0,0,0,0,0,0,0,0,0,0,0,0,0,0,0,0,0,0,0,0,0,0,0,0,0,0,0,0,
0,0,0,0,0,0,0,0,0,0,0,0,0,0,0,0,0,0,0,0,0,0,0,0,0,0,0,0,0,0,0,0,0,0,0,0,0,0,0,0,0,0,0,0,0,0,0,0,0,0,
0,0,0,0,0,0,0,0,0,0,0,0,0,0,0,0,0,0,0,0,0,0,0,0,0,0,0,0,0,0,0,0,0,0,0,0,0,0,0,0,0,0,0,0,0,0,0,0,0,0,
0,0,0,0,0,0,0,0,0,0,0,0,0,0,0,0,0,0,0,0,0,0,0,0,0,0,0,0,0,0,0,0,0,0,0,0,0,0,0,0,0,0,0,0,0,0,0,0,0,0,
0,0,0,0,0,0,0,0,0,0,0,0,0,0,0,0,0,0,0,0,0,0,0,0,0,0,0,0,0,0,0,0,0,0,0,0,0,0,0,0,0,0,0,0,0,0,0,0,0,0,
0,0,0,0,0,0,0,0,0,0,0,0,0,0,0,0,0,0,0,0,0,0,0,0,0,0,0,0,0,0,0,0,0,0,0,0,0,0,0,0,0,0,0,0,0,0,0,0,0,0,
0,0,0,0,0,0,0,0,0,0,0,0,0,0,0,0,0,0,0,0,0,0,0,0,0,0,0,0,0,0,0,0,0,0,0,0,0,0,94,94,0,0,0,0,0,0,0,0,0,0,
0,0,0,0,0,0,0,0,0,0,0,0,0,0,0,0,0,0,0,0,0,0,0,0,0,0,0,0,0,0,0,0,0,0,0,0,0,0,94,94,0,0,0,0,0,0,0,0,0,0,
0,0,0,0,0,0,0,0,0,53,54,54,54,54,55,0,0,53,54,54,54,54,54,54,54,55,0,0,53,54,54,54,54,54,54,54,94,94,94,94,94,94,0,0,0,0,0,0,0,0,
0,0,0,0,0,0,0,53,54,94,94,94,94,94,94,54,54,94,94,94,94,94,94,94,94,94,54,54,94,94,94,94,94,94,94,94,94,94,94,94,94,94,0,0,0,0,0,0,0,0,
0,0,0,0,0,0,0,93,94,94,94,94,94,94,94,94,94,94,94,94,94,94,94,94,94,94,94,94,94,94,94,94,94,94,94,94,94,94,94,94,94,94,0,0,0,0,0,0,0,0,
0,0,0,0,0,0,0,93,94,94,94,94,94,94,94,94,94,94,94,94,94,94,94,94,94,94,94,94,94,94,94,94,94,94,94,94,94,94,94,94,94,94,0,0,0,0,0,0,0,0,
0,0,0,0,0,0,0,93,94,94,94,94,94,94,94,94,94,94,94,94,94,94,94,94,94,94,134,134,134,134,134,134,134,94,94,94,94,94,134,134,135,0,0,0,0,0,0,0,0,0,
0,0,0,0,0,0,0,93,94,94,94,94,94,134,134,134,134,134,134,134,134,134,134,134,134,135,0,0,0,0,0,0,0,133,134,134,134,135,0,0,0,0,0,0,0,0,0,0,0,0,
0,0,0,0,0,0,0,93,94,94,94,94,95,0,0,0,0,0,0,0,0,0,0,0,0,0,0,0,0,0,0,0,0,0,0,0,0,0,0,0,0,0,0,0,0,0,0,0,0,0,
0,0,0,0,0,0,0,93,94,94,94,94,95,0,0,0,0,0,0,0,0,0,0,0,0,0,0,0,0,0,0,0,0,0,0,0,0,0,0,0,0,0,0,0,0,0,0,0,0,0,
0,0,0,0,0,0,0,93,94,94,94,94,95,0,0,0,0,0,0,0,0,0,0,0,0,0,0,0,0,0,0,0,0,0,0,0,0,0,0,0,0,0,0,0,0,0,0,0,0,0,
0,0,0,0,0,0,0,133,94,94,94,94,95,0,0,0,0,0,0,0,0,0,0,0,0,0,0,0,0,0,0,0,0,0,0,0,0,0,0,0,0,0,0,0,0,0,0,0,0,0,
0,0,0,0,0,0,0,0,93,94,94,94,95,0,0,0,0,0,0,0,0,0,0,0,0,0,0,0,0,0,0,0,0,0,0,0,0,0,0,0,0,0,0,0,0,0,0,0,0,0,
0,0,0,0,0,0,0,0,93,94,94,94,94,54,55,0,0,0,0,0,0,0,0,0,0,0,0,0,0,0,0,0,0,0,0,0,0,0,0,0,0,0,0,0,0,0,0,0,0,0,
0,0,0,0,0,0,0,0,93,94,94,94,94,94,95,0,0,0,0,0,0,0,0,0,0,0,0,0,0,0,0,0,0,0,0,0,0,0,0,0,0,0,0,0,0,0,0,0,0,0,
0,0,0,0,0,0,0,0,93,94,94,94,94,94,95,0,0,0,0,0,0,0,0,0,0,0,0,0,0,0,0,0,0,0,0,0,0,0,0,0,0,0,0,0,0,0,0,0,0,0,
0,0,0,0,0,0,0,0,133,94,94,94,94,94,135,0,0,0,0,0,0,0,0,0,0,0,0,0,0,0,0,0,0,0,0,0,0,0,0,0,0,0,0,0,0,0,0,0,0,0,
0,0,0,0,0,0,0,0,0,93,94,94,94,94,0,0,0,0,0,0,0,0,0,0,0,0,0,0,0,0,0,0,0,0,0,0,0,0,0,0,0,0,0,0,0,0,0,0,0,0,
0,0,0,0,0,0,0,0,0,93,94,94,94,94,0,0,0,0,0,0,0,0,0,0,0,0,0,0,0,0,0,0,0,0,0,0,0,0,0,0,0,0,0,0,0,0,0,0,0,0,
0,0,0,0,0,0,0,0,0,93,94,94,94,94,0,0,0,0,0,0,0,0,0,0,0,0,0,0,0,0,0,0,0,0,0,0,0,0,0,0,53,54,54,54,54,54,55,0,0,0,
0,0,0,0,0,0,0,0,0,93,94,94,94,94,54,54,55,0,0,0,0,0,0,0,0,0,53,54,54,54,54,54,54,54,54,54,54,54,54,54,94,94,94,94,94,94,94,55,0,0,
0,0,0,0,0,0,0,0,0,133,94,94,94,94,94,94,94,54,54,54,54,54,54,54,54,54,94,94,94,94,94,94,94,94,94,94,94,94,94,94,94,94,94,94,94,94,94,94,54,54,
0,0,0,0,0,0,0,0,0,0,93,94,94,94,94,94,94,94,94,94,94,94,94,94,94,94,94,94,94,94,94,94,94,94,94,94,94,94,94,94,94,94,94,94,94,94,94,94,94,94,
0,0,0,0,0,0,0,0,0,0,133,94,94,94,94,94,94,94,94,94,94,94,94,94,94,94,94,94,94,94,94,94,94,94,94,94,94,94,94,94,94,94,94,94,94,94,94,94,94,94,
0,0,0,0,0,0,0,0,0,0,0,133,134,94,94,94,94,94,94,94,94,94,94,94,94,94,94,94,94,94,94,94,94,94,94,94,94,94,94,94,94,94,94,94,94,94,94,94,94,134,
0,0,0,0,0,0,0,0,0,0,0,0,0,133,94,94,94,94,94,94,94,94,94,94,94,94,94,94,94,94,94,94,94,94,94,94,94,94,94,94,94,94,94,94,94,134,134,134,135,0,
0,0,0,0,0,0,0,0,0,0,0,0,0,0,133,134,134,134,134,134,134,134,134,134,134,134,134,134,134,134,134,134,134,134,134,134,134,134,134,134,134,134,134,134,135,0,0,0,0,0,
0,0,0,0,0,0,0,0,0,0,0,0,0,0,0,0,0,0,0,0,0,0,0,0,0,0,0,0,0,0,0,0,0,0,0,0,0,0,0,0,0,0,0,0,0,0,0,0,0,0
</data>
 </layer>
 <layer id="2" name="Tile Layer 2" width="50" height="50">
  <data encoding="csv">
0,0,0,0,0,0,0,0,0,0,0,0,0,0,0,0,0,0,0,0,0,0,0,0,0,0,0,0,0,0,0,0,0,0,0,0,0,0,0,0,0,0,0,0,0,0,0,0,0,0,
0,0,0,0,0,0,0,0,0,0,0,0,0,0,0,0,0,0,0,0,0,0,0,0,0,0,0,0,0,0,0,0,0,0,0,0,0,0,0,0,0,0,0,0,0,0,0,0,0,0,
0,0,0,0,0,0,0,0,0,0,0,0,0,0,0,0,0,0,0,0,0,0,0,0,0,0,0,0,0,0,0,0,0,0,0,0,0,0,0,0,0,0,0,0,0,0,0,0,0,0,
0,0,0,0,0,0,0,0,0,0,0,0,0,0,0,0,0,0,0,0,0,0,0,0,0,0,0,0,0,0,0,0,0,0,0,0,0,0,0,0,0,0,0,0,0,0,0,0,0,0,
0,0,0,0,0,0,0,0,0,0,0,0,0,0,0,0,0,0,0,0,0,0,0,0,0,0,0,0,0,0,0,0,0,0,0,0,0,0,0,0,0,0,0,0,0,0,0,0,0,0,
0,0,0,0,0,0,0,0,0,0,0,0,0,0,0,0,0,0,0,0,0,0,0,0,0,0,0,0,0,0,0,0,0,0,0,0,0,0,0,0,0,0,0,0,0,0,0,0,0,0,
0,0,0,0,0,0,0,0,0,0,0,0,0,0,41,46,42,46,46,46,46,46,46,46,46,46,46,46,46,46,46,47,0,0,0,0,0,0,0,0,0,0,58,0,0,0,0,0,0,0,
0,0,0,0,0,0,0,0,0,0,0,0,0,0,85,86,82,82,86,86,86,86,82,86,86,86,86,86,86,86,86,87,0,58,0,0,0,0,0,0,0,0,0,0,0,0,0,0,0,0,
0,0,0,0,0,0,0,0,0,0,0,0,0,0,85,82,86,82,82,82,86,86,82,86,86,86,86,82,86,86,86,86,46,46,46,46,46,46,46,46,46,46,46,47,0,0,0,0,0,0,
0,0,0,0,0,0,0,0,0,0,0,0,0,0,85,86,86,86,86,86,86,86,82,86,86,86,86,82,86,82,82,86,86,86,86,86,86,86,86,86,86,86,86,87,0,0,0,0,0,0,
0,0,0,0,0,0,0,0,0,0,0,0,0,45,86,86,86,82,86,86,86,86,82,82,86,86,86,82,86,86,82,82,86,86,86,86,86,86,86,86,86,86,86,87,0,0,0,0,0,0,
0,0,0,0,0,0,0,0,0,0,0,0,0,85,86,86,86,82,82,86,86,86,82,82,86,86,86,86,82,82,82,82,82,82,82,86,86,82,82,86,82,82,86,87,0,0,0,0,0,0,
0,0,0,0,0,0,0,0,0,0,0,0,0,85,86,82,82,82,86,86,82,86,86,86,82,82,86,86,82,82,86,86,86,86,82,82,86,82,86,86,86,86,86,87,0,0,0,0,0,0,
0,0,0,0,0,0,0,0,0,0,0,0,0,85,86,86,86,86,86,86,82,82,82,82,82,86,86,86,82,86,86,86,86,86,86,86,86,82,82,86,86,86,82,87,0,0,0,0,0,0,
0,0,0,0,0,0,0,0,0,0,0,0,0,125,126,126,126,126,126,126,126,126,126,126,126,126,126,126,126,126,126,126,126,126,126,126,86,86,82,82,86,86,82,87,0,0,0,0,0,0,
0,0,0,0,0,0,0,0,0,0,0,0,0,0,0,0,0,0,0,0,0,58,0,0,0,0,0,0,0,0,0,0,0,0,0,0,85,86,86,86,86,82,82,87,0,0,0,0,0,0,
0,0,62,63,64,0,0,0,0,0,0,0,0,0,0,0,0,0,0,0,0,0,0,0,0,0,0,0,0,0,0,58,0,0,0,0,85,82,82,82,82,82,86,87,0,0,0,0,0,0,
0,0,102,103,104,0,0,0,0,0,0,0,0,0,0,0,0,0,0,0,0,0,0,0,0,0,0,0,0,0,0,0,0,0,0,0,85,82,86,82,82,86,86,87,0,0,0,0,0,0,
0,0,142,143,144,0,0,0,0,0,0,0,0,0,0,0,0,0,0,0,0,0,0,0,0,0,0,0,0,0,0,0,0,0,0,0,85,82,82,82,82,86,86,87,0,0,0,0,0,0,
0,0,182,183,184,0,0,0,0,0,0,0,0,0,0,0,0,0,0,0,0,0,0,0,0,0,0,0,0,0,0,0,20,0,0,0,85,86,86,86,86,86,86,87,0,0,0,0,0,0,
0,0,222,223,224,0,0,0,0,0,0,0,0,0,0,0,0,0,0,0,0,0,0,0,0,0,0,0,0,0,0,0,0,0,0,0,85,82,82,82,86,86,86,87,0,0,0,0,0,0,
0,0,222,223,224,0,0,0,0,0,20,0,0,0,0,0,0,0,0,0,0,0,0,0,0,0,0,0,0,0,0,0,0,0,0,0,85,86,86,86,86,86,86,87,0,0,0,0,0,0,
0,0,222,223,224,0,0,18,0,0,0,0,0,0,0,0,0,0,0,0,0,0,20,0,0,0,0,0,0,20,0,0,0,0,0,0,85,86,86,82,86,82,86,87,0,0,0,0,0,0,
0,0,222,223,224,0,0,0,0,58,0,0,0,0,0,0,0,0,0,58,0,0,0,0,0,0,0,0,0,0,0,0,0,0,0,0,85,86,86,86,86,86,86,87,0,0,0,0,0,0,
0,0,262,263,264,0,0,0,0,0,0,0,0,0,0,0,0,0,0,0,0,0,0,0,0,0,0,0,0,0,0,0,0,0,0,0,85,86,86,86,82,86,86,87,0,0,0,0,0,0,
0,0,0,0,0,58,0,0,0,0,0,0,0,0,0,0,45,50,50,50,50,50,50,51,0,0,0,0,0,0,0,0,0,0,0,0,85,86,82,86,86,86,86,87,0,0,0,0,0,0,
58,0,0,0,0,0,0,0,0,0,0,0,0,0,0,0,129,82,90,90,90,82,90,91,0,0,0,0,0,0,0,0,0,0,0,0,85,86,86,86,86,86,86,87,0,0,0,0,0,0,
0,0,0,0,0,0,0,0,0,0,0,0,0,0,0,0,0,129,90,90,82,90,90,131,0,0,0,0,0,0,0,0,0,0,0,0,125,126,126,126,126,126,126,127,0,0,0,0,0,0,
0,0,62,63,64,0,0,0,0,0,0,0,0,0,0,0,0,0,130,130,130,130,131,0,0,0,0,0,0,0,0,0,0,0,0,0,0,0,0,0,0,0,0,0,0,0,0,0,0,0,
0,0,102,103,104,0,0,0,0,0,0,0,0,0,0,0,0,0,0,0,0,0,0,0,0,0,0,0,0,0,0,0,0,0,0,0,0,0,0,0,0,0,0,0,0,0,0,0,0,0,
0,0,142,143,144,0,0,0,0,0,0,0,0,0,0,0,0,0,0,0,0,0,0,0,0,20,0,0,0,18,0,0,0,0,0,0,0,0,0,0,0,0,0,20,0,0,0,0,0,0,
0,0,182,183,184,0,58,0,0,0,0,0,0,0,0,0,18,0,0,0,0,0,0,0,0,0,0,0,0,0,0,0,0,0,0,0,0,0,0,0,0,0,0,0,0,0,0,0,0,0,
0,0,222,223,224,0,0,0,0,0,0,0,0,20,0,0,0,0,0,0,0,0,0,0,0,0,0,0,0,0,0,0,0,0,0,0,0,0,0,0,0,0,0,0,0,0,0,0,0,0,
0,0,222,223,224,0,0,0,0,0,0,0,0,0,0,0,0,0,0,0,0,0,0,0,0,0,0,0,0,0,0,0,0,0,0,0,0,0,0,0,0,0,0,0,0,0,0,0,0,0,
0,58,222,223,224,0,0,0,0,0,0,0,0,0,0,0,0,0,0,0,0,0,0,0,0,0,0,0,0,0,0,0,0,0,0,0,0,0,0,0,0,0,0,0,0,0,0,0,0,0,
0,0,222,223,224,0,0,0,0,0,0,0,0,0,0,0,0,0,0,0,0,20,0,0,0,0,0,0,0,0,0,0,0,0,0,0,0,0,0,0,0,0,0,0,0,0,0,0,0,0,
0,0,262,263,264,0,18,0,0,0,0,0,0,0,0,0,0,0,0,0,0,0,58,0,0,0,0,0,0,0,0,0,0,0,0,0,0,0,0,0,0,0,0,0,0,0,0,0,0,0,
0,0,0,0,0,0,0,0,0,0,0,0,0,0,0,0,0,0,0,0,58,0,0,0,0,0,0,0,58,0,0,0,0,58,0,0,0,0,0,0,0,0,0,0,0,0,0,58,0,0,
0,0,0,0,0,0,0,0,0,0,0,0,0,0,0,0,0,0,0,0,0,0,0,0,0,0,0,0,0,0,0,0,0,0,0,0,0,0,0,0,58,0,0,0,0,0,58,0,0,0,
0,58,0,0,0,0,0,0,0,0,0,0,0,0,0,0,0,0,58,0,0,0,58,58,0,0,0,0,0,0,0,0,0,0,0,0,0,18,0,0,0,0,0,0,0,0,0,0,0,0,
0,0,0,0,0,0,0,0,0,0,0,0,0,0,0,20,0,0,0,0,0,0,0,0,18,18,0,0,0,0,0,45,46,46,46,46,47,0,0,0,0,0,0,0,0,0,0,0,0,0,
0,0,0,0,0,20,58,0,0,0,0,0,0,0,0,0,0,0,0,0,0,0,0,0,0,0,0,0,45,46,46,86,86,86,86,82,87,0,0,0,0,0,0,0,0,0,0,0,18,0,
0,0,62,63,64,0,0,0,0,0,0,0,0,0,0,0,0,0,0,0,0,0,0,0,0,0,0,0,85,86,86,86,82,86,86,86,87,0,0,0,0,0,0,0,0,0,0,0,0,0,
0,0,102,103,104,0,0,0,0,0,0,0,0,0,0,0,0,0,0,0,0,0,0,0,0,0,0,0,85,82,86,86,86,86,86,86,87,0,0,0,0,0,0,0,0,0,0,0,0,0,
0,0,142,143,144,0,0,0,0,0,0,0,0,0,0,0,0,0,0,0,0,0,0,0,0,0,0,0,85,86,86,86,86,82,86,82,87,0,0,0,0,0,0,0,0,0,0,0,0,0,
0,0,182,183,184,0,0,0,0,0,0,0,0,0,0,0,0,0,0,0,0,0,0,0,0,0,0,0,85,86,86,86,86,86,86,86,87,0,0,0,0,0,0,0,0,0,0,0,0,0,
58,0,222,223,224,0,0,0,0,0,0,0,0,0,0,0,0,0,0,0,0,0,0,0,0,0,0,0,125,86,82,86,86,86,126,126,127,0,0,0,0,0,0,0,0,0,0,0,0,0,
0,0,222,223,224,0,0,0,18,0,0,0,0,0,0,0,0,0,0,0,0,0,0,0,0,0,0,0,0,125,126,86,86,127,0,0,0,0,0,0,0,0,0,0,0,0,0,0,0,0,
0,0,222,223,224,0,58,0,0,0,0,0,0,0,0,0,0,0,0,0,0,0,0,0,0,0,0,0,0,0,0,125,127,0,0,0,0,0,0,0,0,0,0,0,0,0,0,0,0,0,
0,0,262,263,264,0,0,0,0,0,0,0,0,58,0,0,0,0,0,0,0,0,0,0,0,0,0,0,0,0,0,0,0,0,0,18,0,0,0,0,0,0,0,0,0,0,0,0,0,0
</data>
 </layer>
 <layer id="7" name="Tile Layer 3" width="50" height="50" tintcolor="#adadad">
  <data encoding="csv">
0,0,0,0,0,0,0,0,0,0,0,0,0,0,0,0,0,0,0,0,0,0,0,0,0,0,0,0,0,0,0,0,0,0,0,0,0,0,0,0,0,0,0,0,0,0,0,0,0,0,
0,0,0,0,0,0,0,0,0,0,0,0,0,0,0,0,0,0,0,0,0,0,0,0,0,0,0,0,0,0,0,0,0,0,0,0,0,0,0,0,0,0,0,0,0,0,0,0,0,0,
0,0,0,0,0,0,0,0,0,0,0,0,0,0,0,0,0,0,0,0,0,0,0,0,0,0,0,0,0,0,0,0,0,0,0,0,0,0,0,0,0,0,0,0,0,0,0,0,0,0,
0,0,0,0,0,0,0,0,0,0,0,0,0,0,0,0,0,0,0,0,0,0,0,0,0,0,0,0,0,0,0,0,0,0,0,0,0,0,0,0,0,0,0,0,0,0,0,0,0,0,
0,0,0,0,0,0,0,0,0,0,0,0,0,0,0,0,0,0,0,0,0,0,0,0,0,0,0,0,0,0,0,0,0,0,0,0,0,0,0,0,0,0,0,0,0,0,0,0,0,0,
0,0,0,0,0,0,0,0,0,0,0,0,0,0,0,0,0,0,0,0,0,0,0,0,0,0,0,0,0,0,0,0,0,0,0,0,0,0,0,0,0,0,0,0,0,0,0,0,0,0,
0,0,18,0,0,0,18,0,0,0,0,0,0,0,0,0,0,0,0,0,0,0,0,0,0,0,0,0,0,0,0,0,0,0,0,0,0,0,0,0,0,0,0,0,0,0,0,0,0,0,
0,0,0,0,0,0,0,0,0,0,0,0,0,0,0,0,0,0,0,0,0,0,0,0,0,0,0,0,0,0,0,0,0,0,0,0,0,0,0,0,0,0,0,0,0,0,0,0,0,0,
0,0,0,0,0,0,0,0,0,0,0,0,18,0,0,0,0,0,0,0,0,0,0,0,0,0,0,0,0,0,0,0,0,0,0,0,0,0,0,0,0,0,0,0,0,0,0,0,0,0,
0,0,0,20,0,0,0,18,0,0,0,0,0,0,0,0,0,0,0,0,0,0,0,0,0,0,0,0,0,0,0,0,0,0,0,0,0,0,0,0,0,0,0,0,0,0,0,0,0,0,
0,0,0,0,0,0,0,0,0,0,18,0,0,0,0,0,0,0,0,0,0,0,0,0,0,0,0,0,0,0,0,0,0,0,0,0,0,0,0,0,0,0,0,0,0,0,0,0,0,0,
0,0,0,0,0,0,0,0,0,0,0,0,0,0,0,0,0,0,0,0,0,0,0,0,0,0,0,0,0,0,0,0,0,0,0,0,0,0,0,0,0,0,0,0,0,0,0,0,0,0,
0,0,0,0,0,0,0,0,0,0,0,0,0,0,0,0,0,0,0,0,0,0,0,0,0,0,0,0,0,0,0,0,0,0,0,0,0,0,0,0,0,0,0,0,0,0,0,0,0,0,
0,0,0,0,0,0,0,0,0,0,0,0,0,0,0,0,0,0,0,0,0,0,0,0,0,0,0,0,0,0,0,0,0,0,0,0,0,0,0,0,0,0,0,0,0,0,0,0,0,0,
0,0,0,0,0,0,0,0,0,0,0,0,0,0,0,0,0,0,0,0,0,0,0,0,0,0,0,0,0,0,0,0,0,0,0,0,0,0,0,0,0,0,0,0,0,0,0,0,0,0,
0,0,0,0,0,0,0,0,0,0,0,0,0,0,0,0,0,0,0,0,0,0,0,0,0,0,0,0,0,0,0,0,0,0,0,0,0,0,0,0,0,0,0,0,0,0,0,0,0,0,
0,0,0,0,0,0,0,0,0,0,0,0,0,0,0,0,0,0,0,0,0,0,0,0,0,0,0,0,0,0,0,0,0,0,0,0,0,0,0,0,0,0,0,0,0,0,0,0,0,0,
0,0,0,0,0,0,0,0,0,0,0,0,0,0,0,0,0,0,0,0,0,0,0,0,0,0,0,0,0,0,0,0,0,0,0,0,0,0,0,0,0,0,0,0,0,0,0,0,0,0,
0,0,0,0,0,0,0,0,0,0,0,0,0,0,0,0,0,0,0,0,0,0,0,0,0,0,0,0,0,0,0,0,0,0,0,0,0,0,0,0,0,0,0,0,0,0,0,0,0,0,
0,0,0,0,0,0,0,0,0,0,0,0,0,0,0,0,0,0,0,0,0,0,0,0,0,0,0,0,0,0,0,0,0,0,0,0,0,0,0,0,0,0,0,0,0,0,0,0,0,0,
0,0,0,0,0,0,0,0,0,0,0,0,0,0,0,0,0,0,0,0,0,0,0,0,0,0,0,0,0,0,0,0,0,0,0,0,0,0,0,0,0,0,0,0,0,0,0,0,0,0,
0,0,0,0,0,0,0,0,0,0,0,0,0,0,0,0,0,0,0,0,0,0,0,0,0,0,0,0,0,0,0,0,0,0,0,0,0,0,0,0,0,0,0,0,0,0,0,0,0,0,
0,0,0,0,0,0,0,0,0,0,0,0,0,0,0,0,0,0,0,0,0,0,0,0,0,0,0,0,0,0,0,0,0,0,0,0,0,0,0,0,0,0,0,0,0,0,0,0,0,0,
0,0,0,0,0,0,0,0,0,0,0,0,0,0,0,0,20,0,0,0,0,0,0,0,0,0,0,0,0,0,0,0,0,0,0,0,0,0,0,0,0,0,0,0,0,0,0,0,0,0,
0,0,0,0,0,0,0,0,0,0,0,0,0,0,0,0,0,0,0,0,0,0,20,0,0,0,0,0,0,0,0,0,0,0,0,0,0,0,0,0,0,0,0,0,0,0,0,0,0,0,
0,0,0,0,0,0,0,0,0,0,0,0,20,0,18,0,0,0,0,0,0,0,0,0,0,0,0,0,0,0,18,0,0,20,0,0,0,0,0,0,0,0,0,0,0,0,0,0,0,0,
0,0,0,0,0,0,0,0,0,0,0,0,0,0,0,0,0,0,0,0,0,0,0,0,0,0,0,20,0,0,0,0,0,0,0,0,0,0,0,0,0,0,0,0,0,0,0,0,0,0,
0,0,0,0,0,0,0,0,20,0,0,0,0,0,20,0,0,0,0,0,0,0,0,0,0,0,0,0,0,0,0,0,0,18,0,0,0,0,0,0,0,0,0,0,0,0,0,0,0,0,
0,0,0,0,0,0,0,0,0,0,20,0,0,0,0,0,18,0,0,0,0,0,0,0,0,20,0,0,0,0,0,0,0,0,0,0,20,0,0,0,0,0,0,0,0,0,0,0,0,0,
0,0,0,0,0,0,0,0,0,0,20,20,0,0,0,0,0,0,0,0,0,0,0,0,0,0,0,0,0,0,0,0,0,0,0,0,0,0,0,0,0,0,0,0,0,0,0,0,0,0,
0,0,0,0,0,0,0,0,0,0,0,0,0,0,0,0,0,0,0,0,0,0,0,0,0,0,0,0,0,0,0,0,0,0,0,0,0,0,0,0,0,0,0,0,0,0,0,0,0,0,
0,0,0,0,0,0,0,0,0,0,0,0,0,0,0,0,0,0,0,0,0,0,0,0,0,0,0,0,0,0,0,0,0,0,0,0,0,0,0,0,0,0,0,0,0,0,0,0,0,0,
0,0,0,0,0,0,0,0,20,0,0,0,0,0,0,0,0,0,0,0,0,0,0,0,0,0,0,0,0,0,0,0,0,0,0,0,0,0,0,0,0,0,0,0,0,0,0,0,0,0,
0,0,0,0,0,0,0,0,0,0,0,0,0,0,0,0,0,0,0,0,0,0,0,0,0,0,0,0,0,0,0,0,0,0,0,0,0,0,0,0,0,0,0,0,0,0,0,0,0,0,
0,0,0,0,0,0,0,0,0,0,0,0,0,0,0,0,0,0,0,0,0,0,0,0,0,0,0,0,0,0,0,0,0,0,0,0,0,0,0,0,0,0,0,0,0,0,0,0,0,0,
0,0,0,0,0,0,0,0,0,0,0,0,0,0,0,0,0,0,0,0,0,0,0,0,0,0,0,0,0,0,0,0,0,0,0,0,0,0,0,0,0,0,0,0,0,0,0,0,0,0,
0,0,0,0,0,0,0,0,0,20,18,0,0,20,0,0,0,0,0,0,0,0,0,0,0,0,0,0,0,0,0,0,0,0,0,0,0,0,0,0,0,0,0,0,0,0,0,0,0,0,
0,0,0,0,0,0,0,0,0,20,0,0,0,0,0,0,0,0,0,0,0,0,0,0,0,0,0,0,0,0,0,0,0,0,0,0,0,0,0,0,0,0,0,0,0,0,0,0,0,0,
0,0,0,0,0,0,0,0,0,0,0,0,18,0,0,0,0,0,0,0,0,0,0,0,0,0,0,0,0,0,0,0,0,0,0,0,0,0,0,0,0,0,0,0,0,0,0,0,0,0,
0,0,0,0,0,0,0,0,0,0,0,0,0,0,0,0,0,0,0,0,0,0,0,0,0,0,0,0,0,0,0,0,0,0,0,0,0,0,0,0,0,0,0,0,0,0,0,0,0,0,
0,0,0,0,0,0,0,0,0,0,0,20,0,0,0,0,0,0,0,0,0,0,0,0,0,0,0,0,0,0,0,0,0,0,0,0,0,0,0,0,0,0,0,0,0,0,0,0,0,0,
0,0,0,0,0,0,0,0,0,0,0,0,0,0,0,0,0,0,0,0,0,0,0,0,0,0,0,0,0,0,0,0,0,0,0,0,0,0,0,0,0,0,0,0,0,0,0,0,0,0,
0,0,0,0,0,0,0,0,0,0,0,0,0,0,0,0,0,0,0,0,0,0,0,0,0,0,0,0,0,0,0,0,0,0,0,0,0,0,0,0,0,0,20,0,18,0,20,0,0,0,
0,0,0,0,0,0,0,0,0,0,0,0,0,20,0,20,0,0,18,0,0,0,0,0,20,0,0,20,0,0,0,0,0,0,0,0,0,0,0,0,0,0,0,0,0,0,0,0,0,0,
0,0,0,0,0,0,0,0,0,0,0,20,0,0,0,0,0,0,0,0,20,0,20,0,0,0,0,0,0,0,0,0,0,0,0,0,0,0,0,20,0,0,0,0,0,20,0,0,0,0,
0,0,0,0,0,0,0,0,0,0,0,0,0,0,0,0,0,20,0,0,20,0,0,0,0,0,18,20,0,0,0,0,0,0,0,0,0,0,0,0,0,0,0,0,0,0,0,0,0,0,
0,0,0,0,0,0,0,0,0,0,0,0,0,0,0,0,0,0,0,0,0,0,0,20,0,0,0,0,0,0,0,0,0,0,0,0,0,0,20,0,0,0,0,20,0,0,0,20,0,0,
0,0,0,0,0,0,0,0,0,0,0,0,0,0,20,0,0,20,0,0,0,0,20,0,0,0,0,20,0,0,0,0,0,0,0,18,0,0,0,0,0,0,0,0,0,0,0,0,0,0,
0,0,0,0,0,0,0,0,0,0,0,0,0,0,0,0,0,0,0,0,0,20,0,0,0,0,0,0,0,0,0,0,0,0,0,0,0,0,0,0,20,0,0,0,0,0,0,0,0,0,
0,0,0,0,0,0,0,0,0,0,0,0,0,0,0,0,0,0,0,0,0,0,0,0,0,0,0,0,0,0,0,0,0,0,0,0,0,0,0,0,0,0,0,0,0,0,0,0,0,0
</data>
 </layer>
 <objectgroup color="#0000ff" id="3" name="collision" tintcolor="#0000ff">
  <object id="1" x="0" y="160" width="360" height="40"/>
  <object id="2" x="360" y="200" width="40" height="40"/>
  <object id="3" x="400" y="240" width="80" height="40"/>
  <object id="4" x="480" y="280" width="40" height="40"/>
  <object id="5" x="520" y="280" width="40" height="40"/>
  <object id="6" x="520" y="240" width="40" height="40"/>
  <object id="7" x="560" y="200" width="720" height="40"/>
  <object id="8" x="1280" y="240" width="40" height="80"/>
  <object id="9" x="1320" y="280" width="440" height="40"/>
  <object id="10" x="1760" y="320" width="40" height="800"/>
  <object id="11" x="1640" y="1120" width="120" height="40"/>
  <object id="13" x="1520" y="1151" width="120" height="40"/>
  <object id="14" x="1320" y="1188" width="200" height="40"/>
  <object id="15" x="1040" y="1151" width="280" height="40"/>
  <object id="16" x="520" y="1188" width="520" height="57.3333"/>
  <object id="17" x="516" y="1240" width="44" height="168.667"/>
  <object id="19" x="560" y="1360" width="40" height="49.3333"/>
  <object id="20" x="592" y="1400" width="40" height="158.667"/>
  <object id="22" x="560" y="1556" width="40" height="44"/>
  <object id="23" x="560" y="1600" width="40" height="80"/>
  <object id="24" x="600" y="1640" width="80" height="40"/>
  <object id="25" x="680" y="1680" width="360" height="40"/>
  <object id="26" x="1040" y="1640" width="80" height="40"/>
  <object id="27" x="1120" y="1600" width="120" height="40"/>
  <object id="28" x="1240" y="1560" width="240" height="40"/>
  <object id="29" x="1480" y="1600" width="40" height="80"/>
  <object id="30" x="1520" y="1640" width="80" height="40"/>
  <object id="31" x="1600" y="1600" width="280" height="40"/>
  <object id="32" x="1880" y="1640" width="40" height="40"/>
  <object id="33" x="1920" y="1680" width="80" height="40"/>
  <object id="34" x="1960" y="1880" width="40" height="40"/>
  <object id="35" x="1800" y="1912" width="160" height="44"/>
  <object id="36" x="600" y="1952.33" width="1200" height="47.6667"/>
  <object id="37" x="560" y="1953" width="40" height="47"/>
  <object id="38" x="520" y="1914.33" width="40" height="45.6667"/>
  <object id="39" x="480.333" y="1871.33" width="40" height="48.33"/>
  <object id="40" x="400" y="1871.33" width="80" height="48.3333"/>
  <object id="41" x="400" y="1840" width="44.3333" height="31"/>
  <object id="42" x="360" y="1760" width="47.6667" height="80"/>
  <object id="43" x="320" y="1560" width="45.3333" height="200"/>
  <object id="44" x="280" y="1360" width="40" height="200"/>
  <object id="45" x="240" y="1000" width="40" height="360"/>
  <object id="46" x="280" y="960" width="80" height="40"/>
  <object id="47" x="360" y="920" width="200" height="40"/>
  <object id="48" x="600" y="880" width="80" height="40"/>
  <object id="49" x="560" y="880" width="40" height="40"/>
  <object id="51" x="680" y="920" width="360" height="40"/>
  <object id="52" x="1040" y="960" width="80" height="40"/>
  <object id="53" x="1120" y="920" width="320" height="40"/>
  <object id="54" x="1400" y="600" width="40" height="320"/>
  <object id="55" x="520" y="600" width="880" height="40"/>
  <object id="57" x="480" y="480" width="40" height="120"/>
  <object id="58" x="320" y="480" width="160" height="40"/>
  <object id="59" x="40" y="440" width="280" height="40"/>
  <object id="61" x="-40" y="400" width="80" height="40"/>
  <object id="62" x="2186" y="178"/>
 </objectgroup>
 <objectgroup color="#ff00ff" id="5" name="objects">
  <object id="64" name="transition" x="-14" y="200" width="40" height="200">
   <properties>
    <property name="map" value="forest2"/>
    <property name="marker" value="exitA"/>
   </properties>
  </object>
  <object id="65" name="transition" x="1960" y="1720" width="40" height="160"/>
  <object id="67" gid="1201" x="660" y="908.722" width="153.122" height="174.443">
   <properties>
    <property name="solid" type="bool" value="true"/>
   </properties>
  </object>
  <object id="68" gid="1201" x="865.439" y="948.779" width="153.122" height="174.443">
   <properties>
    <property name="solid" type="bool" value="true"/>
   </properties>
  </object>
  <object id="69" gid="1201" x="1069.44" y="940.779" width="153.122" height="174.443">
   <properties>
    <property name="solid" type="bool" value="true"/>
   </properties>
  </object>
  <object id="70" gid="1201" x="1257.44" y="944.779" width="153.122" height="174.443">
   <properties>
    <property name="solid" type="bool" value="true"/>
   </properties>
  </object>
  <object id="71" gid="1201" x="1175.44" y="926.779" width="153.122" height="174.443">
   <properties>
    <property name="solid" type="bool" value="true"/>
   </properties>
  </object>
  <object id="72" gid="1201" x="1003.44" y="934.779" width="153.122" height="174.443">
   <properties>
    <property name="solid" type="bool" value="true"/>
   </properties>
  </object>
  <object id="73" gid="1201" x="901.439" y="900.779" width="153.122" height="174.443">
   <properties>
    <property name="solid" type="bool" value="true"/>
   </properties>
  </object>
  <object id="74" gid="1201" x="773.439" y="888.779" width="153.122" height="174.443">
   <properties>
    <property name="solid" type="bool" value="true"/>
   </properties>
  </object>
  <object id="75" gid="1201" x="681.439" y="824.779" width="153.122" height="174.443">
   <properties>
    <property name="solid" type="bool" value="true"/>
   </properties>
  </object>
  <object id="76" gid="1201" x="827.439" y="820.779" width="153.122" height="174.443">
   <properties>
    <property name="solid" type="bool" value="true"/>
   </properties>
  </object>
  <object id="77" gid="1201" x="965.439" y="842.779" width="153.122" height="174.443">
   <properties>
    <property name="solid" type="bool" value="true"/>
   </properties>
  </object>
  <object id="78" gid="1201" x="1077.44" y="838.779" width="153.122" height="174.443">
   <properties>
    <property name="solid" type="bool" value="true"/>
   </properties>
  </object>
  <object id="79" gid="1201" x="1229.44" y="844.779" width="153.122" height="174.443">
   <properties>
    <property name="solid" type="bool" value="true"/>
   </properties>
  </object>
  <object id="80" gid="1201" x="583.439" y="886.779" width="153.122" height="174.443">
   <properties>
    <property name="solid" type="bool" value="true"/>
   </properties>
  </object>
  <object id="81" gid="1201" x="246.999" y="860.721" width="153.122" height="174.443">
   <properties>
    <property name="solid" type="bool" value="true"/>
   </properties>
  </object>
  <object id="82" gid="1201" x="452.438" y="900.779" width="153.122" height="174.443">
   <properties>
    <property name="solid" type="bool" value="true"/>
   </properties>
  </object>
  <object id="83" gid="1201" x="656.439" y="892.779" width="153.122" height="174.443">
   <properties>
    <property name="solid" type="bool" value="true"/>
   </properties>
  </object>
  <object id="84" gid="1201" x="844.439" y="896.779" width="153.122" height="174.443">
   <properties>
    <property name="solid" type="bool" value="true"/>
   </properties>
  </object>
  <object id="85" gid="1201" x="762.439" y="878.779" width="153.122" height="174.443">
   <properties>
    <property name="solid" type="bool" value="true"/>
   </properties>
  </object>
  <object id="86" gid="1201" x="590.439" y="886.779" width="153.122" height="174.443">
   <properties>
    <property name="solid" type="bool" value="true"/>
   </properties>
  </object>
  <object id="87" gid="1201" x="488.438" y="852.779" width="153.122" height="174.443">
   <properties>
    <property name="solid" type="bool" value="true"/>
   </properties>
  </object>
  <object id="88" gid="1201" x="360.438" y="840.779" width="153.122" height="174.443">
   <properties>
    <property name="solid" type="bool" value="true"/>
   </properties>
  </object>
  <object id="89" gid="1201" x="268.438" y="776.779" width="153.122" height="174.443">
   <properties>
    <property name="solid" type="bool" value="true"/>
   </properties>
  </object>
  <object id="90" gid="1201" x="414.438" y="772.779" width="153.122" height="174.443">
   <properties>
    <property name="solid" type="bool" value="true"/>
   </properties>
  </object>
  <object id="91" gid="1201" x="552.438" y="794.779" width="153.122" height="174.443">
   <properties>
    <property name="solid" type="bool" value="true"/>
   </properties>
  </object>
  <object id="92" gid="1201" x="664.439" y="790.779" width="153.122" height="174.443">
   <properties>
    <property name="solid" type="bool" value="true"/>
   </properties>
  </object>
  <object id="93" gid="1201" x="816.439" y="796.779" width="153.122" height="174.443">
   <properties>
    <property name="solid" type="bool" value="true"/>
   </properties>
  </object>
  <object id="94" gid="1201" x="278.438" y="914.779" width="153.122" height="174.443">
   <properties>
    <property name="solid" type="bool" value="true"/>
   </properties>
  </object>
  <object id="95" gid="1201" x="328.999" y="196.721" width="153.122" height="174.443">
   <properties>
    <property name="solid" type="bool" value="true"/>
   </properties>
  </object>
  <object id="97" gid="1201" x="738.439" y="228.779" width="153.122" height="174.443">
   <properties>
    <property name="solid" type="bool" value="true"/>
   </properties>
  </object>
  <object id="98" gid="1201" x="926.439" y="232.779" width="153.122" height="174.443">
   <properties>
    <property name="solid" type="bool" value="true"/>
   </properties>
  </object>
  <object id="99" gid="1201" x="844.439" y="214.779" width="153.122" height="174.443">
   <properties>
    <property name="solid" type="bool" value="true"/>
   </properties>
  </object>
  <object id="100" gid="1201" x="672.439" y="222.779" width="153.122" height="174.443">
   <properties>
    <property name="solid" type="bool" value="true"/>
   </properties>
  </object>
  <object id="102" gid="1201" x="442.438" y="176.779" width="153.122" height="174.443">
   <properties>
    <property name="solid" type="bool" value="true"/>
   </properties>
  </object>
  <object id="103" gid="1201" x="350.438" y="112.779" width="153.122" height="174.443">
   <properties>
    <property name="solid" type="bool" value="true"/>
   </properties>
  </object>
  <object id="104" gid="1201" x="496.438" y="108.779" width="153.122" height="174.443">
   <properties>
    <property name="solid" type="bool" value="true"/>
   </properties>
  </object>
  <object id="105" gid="1201" x="634.438" y="130.779" width="153.122" height="174.443">
   <properties>
    <property name="solid" type="bool" value="true"/>
   </properties>
  </object>
  <object id="106" gid="1201" x="746.439" y="126.779" width="153.122" height="174.443">
   <properties>
    <property name="solid" type="bool" value="true"/>
   </properties>
  </object>
  <object id="107" gid="1201" x="898.439" y="132.779" width="153.122" height="174.443">
   <properties>
    <property name="solid" type="bool" value="true"/>
   </properties>
  </object>
  <object id="108" gid="1201" x="252.438" y="174.779" width="153.122" height="174.443">
   <properties>
    <property name="solid" type="bool" value="true"/>
   </properties>
  </object>
  <object id="109" gid="1201" x="918.999" y="210.721" width="153.122" height="174.443">
   <properties>
    <property name="solid" type="bool" value="true"/>
   </properties>
  </object>
  <object id="110" gid="1201" x="1083.11" y="230.112" width="153.122" height="174.443">
   <properties>
    <property name="solid" type="bool" value="true"/>
   </properties>
  </object>
  <object id="111" gid="1201" x="1328.44" y="242.779" width="153.122" height="174.443">
   <properties>
    <property name="solid" type="bool" value="true"/>
   </properties>
  </object>
  <object id="112" gid="1201" x="1516.44" y="246.779" width="153.122" height="174.443">
   <properties>
    <property name="solid" type="bool" value="true"/>
   </properties>
  </object>
  <object id="113" gid="1201" x="1434.44" y="228.779" width="153.122" height="174.443">
   <properties>
    <property name="solid" type="bool" value="true"/>
   </properties>
  </object>
  <object id="114" gid="1201" x="1262.44" y="236.779" width="153.122" height="174.443">
   <properties>
    <property name="solid" type="bool" value="true"/>
   </properties>
  </object>
  <object id="115" gid="1201" x="1160.44" y="202.779" width="153.122" height="174.443">
   <properties>
    <property name="solid" type="bool" value="true"/>
   </properties>
  </object>
  <object id="116" gid="1201" x="1032.44" y="190.779" width="153.122" height="174.443">
   <properties>
    <property name="solid" type="bool" value="true"/>
   </properties>
  </object>
  <object id="117" gid="1201" x="940.438" y="126.779" width="153.122" height="174.443">
   <properties>
    <property name="solid" type="bool" value="true"/>
   </properties>
  </object>
  <object id="118" gid="1201" x="1086.44" y="122.779" width="153.122" height="174.443">
   <properties>
    <property name="solid" type="bool" value="true"/>
   </properties>
  </object>
  <object id="119" gid="1201" x="1224.44" y="144.779" width="153.122" height="174.443">
   <properties>
    <property name="solid" type="bool" value="true"/>
   </properties>
  </object>
  <object id="120" gid="1201" x="1336.44" y="140.779" width="153.122" height="174.443">
   <properties>
    <property name="solid" type="bool" value="true"/>
   </properties>
  </object>
  <object id="121" gid="1201" x="1488.44" y="146.779" width="153.122" height="174.443">
   <properties>
    <property name="solid" type="bool" value="true"/>
   </properties>
  </object>
  <object id="122" gid="1201" x="842.438" y="188.779" width="153.122" height="174.443">
   <properties>
    <property name="solid" type="bool" value="true"/>
   </properties>
  </object>
  <object id="123" gid="1201" x="1267" y="216.721" width="153.122" height="174.443">
   <properties>
    <property name="solid" type="bool" value="true"/>
   </properties>
  </object>
  <object id="124" gid="1201" x="1472.44" y="256.779" width="153.122" height="174.443">
   <properties>
    <property name="solid" type="bool" value="true"/>
   </properties>
  </object>
  <object id="125" gid="1201" x="1676.44" y="248.779" width="153.122" height="174.443">
   <properties>
    <property name="solid" type="bool" value="true"/>
   </properties>
  </object>
  <object id="126" gid="1201" x="1864.44" y="252.779" width="153.122" height="174.443">
   <properties>
    <property name="solid" type="bool" value="true"/>
   </properties>
  </object>
  <object id="127" gid="1201" x="1782.44" y="234.779" width="153.122" height="174.443">
   <properties>
    <property name="solid" type="bool" value="true"/>
   </properties>
  </object>
  <object id="128" gid="1201" x="1610.44" y="242.779" width="153.122" height="174.443">
   <properties>
    <property name="solid" type="bool" value="true"/>
   </properties>
  </object>
  <object id="129" gid="1201" x="1508.44" y="208.779" width="153.122" height="174.443">
   <properties>
    <property name="solid" type="bool" value="true"/>
   </properties>
  </object>
  <object id="130" gid="1201" x="1380.44" y="196.779" width="153.122" height="174.443">
   <properties>
    <property name="solid" type="bool" value="true"/>
   </properties>
  </object>
  <object id="131" gid="1201" x="1288.44" y="132.779" width="153.122" height="174.443">
   <properties>
    <property name="solid" type="bool" value="true"/>
   </properties>
  </object>
  <object id="132" gid="1201" x="1434.44" y="128.779" width="153.122" height="174.443">
   <properties>
    <property name="solid" type="bool" value="true"/>
   </properties>
  </object>
  <object id="133" gid="1201" x="1572.44" y="150.779" width="153.122" height="174.443">
   <properties>
    <property name="solid" type="bool" value="true"/>
   </properties>
  </object>
  <object id="134" gid="1201" x="1684.44" y="146.779" width="153.122" height="174.443">
   <properties>
    <property name="solid" type="bool" value="true"/>
   </properties>
  </object>
  <object id="135" gid="1201" x="1836.44" y="152.779" width="153.122" height="174.443">
   <properties>
    <property name="solid" type="bool" value="true"/>
   </properties>
  </object>
  <object id="136" gid="1201" x="1190.44" y="194.779" width="153.122" height="174.443">
   <properties>
    <property name="solid" type="bool" value="true"/>
   </properties>
  </object>
  <object id="137" gid="1201" x="592.999" y="1404.72" width="153.122" height="174.443">
   <properties>
    <property name="solid" type="bool" value="true"/>
   </properties>
  </object>
  <object id="138" gid="1201" x="798.438" y="1444.78" width="153.122" height="174.443">
   <properties>
    <property name="solid" type="bool" value="true"/>
   </properties>
  </object>
  <object id="139" gid="1201" x="1002.44" y="1436.78" width="153.122" height="174.443">
   <properties>
    <property name="solid" type="bool" value="true"/>
   </properties>
  </object>
  <object id="140" gid="1201" x="1190.44" y="1440.78" width="153.122" height="174.443">
   <properties>
    <property name="solid" type="bool" value="true"/>
   </properties>
  </object>
  <object id="141" gid="1201" x="1108.44" y="1422.78" width="153.122" height="174.443">
   <properties>
    <property name="solid" type="bool" value="true"/>
   </properties>
  </object>
  <object id="142" gid="1201" x="936.439" y="1430.78" width="153.122" height="174.443">
   <properties>
    <property name="solid" type="bool" value="true"/>
   </properties>
  </object>
  <object id="143" gid="1201" x="834.438" y="1396.78" width="153.122" height="174.443">
   <properties>
    <property name="solid" type="bool" value="true"/>
   </properties>
  </object>
  <object id="144" gid="1201" x="706.438" y="1384.78" width="153.122" height="174.443">
   <properties>
    <property name="solid" type="bool" value="true"/>
   </properties>
  </object>
  <object id="145" gid="1201" x="614.438" y="1320.78" width="153.122" height="174.443">
   <properties>
    <property name="solid" type="bool" value="true"/>
   </properties>
  </object>
  <object id="146" gid="1201" x="760.438" y="1316.78" width="153.122" height="174.443">
   <properties>
    <property name="solid" type="bool" value="true"/>
   </properties>
  </object>
  <object id="147" gid="1201" x="898.438" y="1338.78" width="153.122" height="174.443">
   <properties>
    <property name="solid" type="bool" value="true"/>
   </properties>
  </object>
  <object id="148" gid="1201" x="1010.44" y="1334.78" width="153.122" height="174.443">
   <properties>
    <property name="solid" type="bool" value="true"/>
   </properties>
  </object>
  <object id="149" gid="1201" x="1162.44" y="1340.78" width="153.122" height="174.443">
   <properties>
    <property name="solid" type="bool" value="true"/>
   </properties>
  </object>
  <object id="150" gid="1201" x="516.438" y="1382.78" width="153.122" height="174.443">
   <properties>
    <property name="solid" type="bool" value="true"/>
   </properties>
  </object>
  <object id="151" gid="1201" x="1249" y="1416.72" width="153.122" height="174.443">
   <properties>
    <property name="solid" type="bool" value="true"/>
   </properties>
  </object>
  <object id="152" gid="1201" x="1454.44" y="1456.78" width="153.122" height="174.443">
   <properties>
    <property name="solid" type="bool" value="true"/>
   </properties>
  </object>
  <object id="153" gid="1201" x="1658.44" y="1448.78" width="153.122" height="174.443">
   <properties>
    <property name="solid" type="bool" value="true"/>
   </properties>
  </object>
  <object id="154" gid="1201" x="1846.44" y="1452.78" width="153.122" height="174.443">
   <properties>
    <property name="solid" type="bool" value="true"/>
   </properties>
  </object>
  <object id="155" gid="1201" x="1764.44" y="1434.78" width="153.122" height="174.443">
   <properties>
    <property name="solid" type="bool" value="true"/>
   </properties>
  </object>
  <object id="156" gid="1201" x="1592.44" y="1442.78" width="153.122" height="174.443">
   <properties>
    <property name="solid" type="bool" value="true"/>
   </properties>
  </object>
  <object id="157" gid="1201" x="1490.44" y="1408.78" width="153.122" height="174.443">
   <properties>
    <property name="solid" type="bool" value="true"/>
   </properties>
  </object>
  <object id="158" gid="1201" x="1362.44" y="1396.78" width="153.122" height="174.443">
   <properties>
    <property name="solid" type="bool" value="true"/>
   </properties>
  </object>
  <object id="159" gid="1201" x="1270.44" y="1332.78" width="153.122" height="174.443">
   <properties>
    <property name="solid" type="bool" value="true"/>
   </properties>
  </object>
  <object id="160" gid="1201" x="1416.44" y="1328.78" width="153.122" height="174.443">
   <properties>
    <property name="solid" type="bool" value="true"/>
   </properties>
  </object>
  <object id="161" gid="1201" x="1554.44" y="1350.78" width="153.122" height="174.443">
   <properties>
    <property name="solid" type="bool" value="true"/>
   </properties>
  </object>
  <object id="162" gid="1201" x="1666.44" y="1346.78" width="153.122" height="174.443">
   <properties>
    <property name="solid" type="bool" value="true"/>
   </properties>
  </object>
  <object id="163" gid="1201" x="1818.44" y="1352.78" width="153.122" height="174.443">
   <properties>
    <property name="solid" type="bool" value="true"/>
   </properties>
  </object>
  <object id="164" gid="1201" x="1172.44" y="1394.78" width="153.122" height="174.443">
   <properties>
    <property name="solid" type="bool" value="true"/>
   </properties>
  </object>
  <object id="179" gid="1201" x="1739.44" y="418.778" width="153.122" height="174.443">
   <properties>
    <property name="solid" type="bool" value="true"/>
   </properties>
  </object>
  <object id="181" gid="1201" x="1839.44" y="560.778" width="153.122" height="174.443">
   <properties>
    <property name="solid" type="bool" value="true"/>
   </properties>
  </object>
  <object id="182" gid="1201" x="1861.44" y="432.778" width="153.122" height="174.443">
   <properties>
    <property name="solid" type="bool" value="true"/>
   </properties>
  </object>
  <object id="183" gid="1201" x="1741.44" y="524.778" width="153.122" height="174.443">
   <properties>
    <property name="solid" type="bool" value="true"/>
   </properties>
  </object>
  <object id="188" gid="1201" x="1750.44" y="1143.78" width="153.122" height="174.443">
   <properties>
    <property name="solid" type="bool" value="true"/>
   </properties>
  </object>
  <object id="189" gid="1201" x="1850.44" y="1285.78" width="153.122" height="174.443">
   <properties>
    <property name="solid" type="bool" value="true"/>
   </properties>
  </object>
  <object id="190" gid="1201" x="1872.44" y="1157.78" width="153.122" height="174.443">
   <properties>
    <property name="solid" type="bool" value="true"/>
   </properties>
  </object>
  <object id="191" gid="1201" x="1752.44" y="1249.78" width="153.122" height="174.443">
   <properties>
    <property name="solid" type="bool" value="true"/>
   </properties>
  </object>
  <object id="192" gid="1201" x="1768.44" y="965.779" width="153.122" height="174.443">
   <properties>
    <property name="solid" type="bool" value="true"/>
   </properties>
  </object>
  <object id="193" gid="1201" x="1868.44" y="1107.78" width="153.122" height="174.443">
   <properties>
    <property name="solid" type="bool" value="true"/>
   </properties>
  </object>
  <object id="194" gid="1201" x="1890.44" y="979.779" width="153.122" height="174.443">
   <properties>
    <property name="solid" type="bool" value="true"/>
   </properties>
  </object>
  <object id="195" gid="1201" x="1770.44" y="1071.78" width="153.122" height="174.443">
   <properties>
    <property name="solid" type="bool" value="true"/>
   </properties>
  </object>
  <object id="196" gid="1201" x="1766.44" y="799.779" width="153.122" height="174.443">
   <properties>
    <property name="solid" type="bool" value="true"/>
   </properties>
  </object>
  <object id="197" gid="1201" x="1866.44" y="941.779" width="153.122" height="174.443">
   <properties>
    <property name="solid" type="bool" value="true"/>
   </properties>
  </object>
  <object id="198" gid="1201" x="1888.44" y="813.779" width="153.122" height="174.443">
   <properties>
    <property name="solid" type="bool" value="true"/>
   </properties>
  </object>
  <object id="199" gid="1201" x="1768.44" y="905.779" width="153.122" height="174.443">
   <properties>
    <property name="solid" type="bool" value="true"/>
   </properties>
  </object>
  <object id="200" gid="1201" x="1762.44" y="627.779" width="153.122" height="174.443">
   <properties>
    <property name="solid" type="bool" value="true"/>
   </properties>
  </object>
  <object id="201" gid="1201" x="1862.44" y="769.779" width="153.122" height="174.443">
   <properties>
    <property name="solid" type="bool" value="true"/>
   </properties>
  </object>
  <object id="202" gid="1201" x="1884.44" y="641.779" width="153.122" height="174.443">
   <properties>
    <property name="solid" type="bool" value="true"/>
   </properties>
  </object>
  <object id="203" gid="1201" x="1764.44" y="733.779" width="153.122" height="174.443">
   <properties>
    <property name="solid" type="bool" value="true"/>
   </properties>
  </object>
  <object id="204" gid="1201" x="1247.44" y="122.779" width="153.122" height="174.443">
   <properties>
    <property name="solid" type="bool" value="true"/>
   </properties>
  </object>
  <object id="205" gid="1201" x="1483.44" y="130.779" width="153.122" height="174.443">
   <properties>
    <property name="solid" type="bool" value="true"/>
   </properties>
  </object>
  <object id="207" gid="1201" x="795.439" y="210.112" width="153.122" height="174.443">
   <properties>
    <property name="solid" type="bool" value="true"/>
   </properties>
  </object>
  <object id="215" name="shadow" x="153.333" y="157.333">
   <point/>
  </object>
  <object id="221" name="shooter" x="1080.25" y="990.875">
   <point/>
  </object>
  <object id="223" name="shooter" x="634" y="990.88">
   <point/>
  </object>
  <object id="96" gid="1201" x="534.438" y="236.779" width="153.122" height="174.443">
   <properties>
    <property name="solid" type="bool" value="true"/>
   </properties>
  </object>
  <object id="101" gid="1201" x="570.438" y="188.779" width="153.122" height="174.443">
   <properties>
    <property name="solid" type="bool" value="true"/>
   </properties>
  </object>
 </objectgroup>
 <objectgroup color="#55aa00" id="8" name="battleareas" visible="0">
  <object id="217" x="280" y="920" width="1160" height="280"/>
 </objectgroup>
 <objectgroup color="#aa00ff" id="6" name="markers" visible="0" tintcolor="#aa00ff">
  <object id="63" name="entranceA" x="86" y="306">
   <point/>
  </object>
  <object id="66" name="entranceB" x="1920" y="1800">
   <point/>
  </object>
  <object id="213" name="spawn" x="261.333" y="305.333">
   <point/>
  </object>
 </objectgroup>
 <imagelayer id="4" name="Overlay" opacity="0.44" tintcolor="#575ed8" repeatx="1" repeaty="1">
  <image source="../../../assets/sprites/world/Forest.png" width="1200" height="480"/>
 </imagelayer>
</map>
