<?xml version="1.0" encoding="UTF-8"?>
<map version="1.10" tiledversion="1.11.2" orientation="orthogonal" renderorder="right-down" width="50" height="50" tilewidth="40" tileheight="40" infinite="0" nextlayerid="12" nextobjectid="153">
 <editorsettings>
  <export target="recep4.lua" format="lua"/>
 </editorsettings>
 <properties>
  <property name="music" value="hallway"/>
 </properties>
 <tileset firstgid="1" source="../tilesets/Receptionist.tsx"/>
 <imagelayer id="7" name="bg" parallaxx="0.1" parallaxy="0.05" repeatx="1">
  <image source="../../../assets/sprites/tilesets/receptionist bg.png" width="640" height="480"/>
 </imagelayer>
 <imagelayer id="8" name="bg2" tintcolor="#000000" offsetx="-54.5455" offsety="290.909" parallaxx="0.25" parallaxy="0.1" repeatx="1">
  <image source="../../../assets/sprites/tilesets/buildings.png" width="631" height="594"/>
 </imagelayer>
 <imagelayer id="9" name="bg2" visible="0" offsetx="58.5758" offsety="357.576" parallaxx="0.35" parallaxy="0.1" repeatx="1">
  <image source="../../../assets/sprites/tilesets/buildings.png" width="631" height="594"/>
 </imagelayer>
 <layer id="1" name="Tile Layer 1" width="50" height="50">
  <data encoding="csv">
0,0,0,282,283,283,283,52,0,0,0,0,0,0,0,0,0,0,0,0,0,0,0,0,0,0,0,0,0,0,0,0,0,0,0,0,0,0,0,0,0,0,0,0,0,0,0,0,0,0,
0,0,0,282,283,283,283,52,0,0,0,0,0,0,0,0,0,0,0,0,0,0,0,0,0,0,0,0,0,0,0,0,0,0,0,0,0,0,0,0,0,0,0,0,0,0,0,0,0,0,
0,0,0,282,283,283,283,52,0,0,0,0,0,0,0,0,0,0,0,0,0,0,0,0,0,0,0,0,0,0,0,0,0,0,0,0,0,0,0,0,0,0,0,0,0,0,0,0,0,0,
0,0,0,50,283,51,283,52,0,0,0,0,0,0,0,0,0,0,0,0,0,0,0,0,0,0,0,0,0,0,0,0,0,0,0,0,0,0,0,0,0,0,0,0,0,0,0,0,0,0,
0,0,0,301,21,22,23,303,0,0,0,0,0,0,0,0,0,0,0,0,0,0,0,0,0,0,0,0,0,0,0,0,0,0,0,0,0,0,0,0,0,0,0,0,0,0,0,0,0,0,
0,0,0,320,40,41,42,322,0,0,0,0,0,0,0,0,0,0,0,0,0,0,0,0,0,0,0,0,0,0,0,0,0,0,0,0,0,0,0,0,0,0,0,0,0,0,0,0,0,0,
0,0,0,316,40,41,42,318,0,0,0,0,0,0,0,0,0,0,0,0,0,0,0,0,0,0,0,0,0,0,0,0,0,0,0,0,0,0,0,0,0,0,0,0,0,0,0,0,0,0,
0,0,0,320,40,41,42,322,0,0,0,0,0,0,0,0,0,0,0,0,0,0,0,0,0,0,0,0,0,0,0,0,0,0,0,0,0,0,0,0,0,0,0,0,0,0,0,0,0,0,
0,0,0,320,40,41,42,322,0,0,0,0,0,0,0,0,0,0,0,0,0,0,0,0,0,0,0,0,0,0,0,0,0,0,0,0,0,0,0,0,0,0,0,0,0,0,0,0,0,0,
0,0,0,316,40,41,42,318,0,0,0,0,0,0,0,0,0,0,0,0,0,0,0,0,0,0,0,0,0,0,0,0,0,0,0,0,0,0,0,0,0,0,0,0,0,0,0,0,0,0,
0,0,0,320,40,41,42,322,0,0,0,0,0,0,0,0,0,0,0,0,0,0,0,0,0,0,0,0,0,0,0,0,0,0,0,0,0,0,0,0,0,0,0,0,0,0,0,0,0,0,
0,0,0,320,40,41,42,322,0,0,0,0,0,0,0,0,0,0,0,0,0,0,0,0,0,0,0,0,0,0,0,0,0,0,0,0,0,0,0,0,0,0,0,0,0,0,0,0,0,0,
0,0,0,316,40,41,42,318,0,0,0,0,0,0,0,0,0,0,0,0,0,0,0,0,0,0,0,0,0,0,0,0,0,0,0,0,0,0,0,0,0,0,0,0,0,0,0,0,0,0,
0,0,0,320,40,41,42,322,0,0,0,0,0,0,0,0,0,0,0,0,0,0,0,0,0,0,0,0,0,0,0,0,0,0,0,0,0,0,0,0,0,0,0,0,0,0,0,0,0,0,
0,0,0,320,40,41,42,322,0,0,0,0,0,0,0,0,0,0,0,0,0,0,0,0,0,0,0,0,0,0,0,0,0,0,0,0,0,0,0,0,0,0,0,0,0,0,0,0,0,0,
0,0,0,316,40,41,42,318,0,0,0,0,0,0,0,0,0,0,0,0,0,0,0,0,0,0,0,0,0,0,0,0,0,0,0,0,0,0,0,0,0,0,0,0,0,0,0,0,0,0,
0,0,0,320,40,41,42,322,0,0,0,0,0,0,0,0,0,0,0,0,0,0,0,0,0,0,0,0,0,0,0,0,0,0,0,0,0,0,0,0,0,0,0,0,0,0,0,0,0,0,
0,0,0,320,40,41,42,322,0,0,0,0,0,0,0,0,0,0,0,0,0,0,0,0,0,0,0,0,0,0,0,263,264,264,264,264,264,264,264,264,265,0,0,0,0,0,0,0,0,0,
0,263,264,264,264,264,264,264,264,265,0,0,0,0,0,0,0,0,0,0,0,0,0,0,0,0,0,0,0,0,0,282,283,283,283,283,283,283,283,283,284,0,0,0,0,0,0,0,0,0,
0,282,283,283,283,283,283,283,283,284,53,53,53,53,53,53,53,53,53,53,53,53,54,55,53,53,53,53,53,54,55,282,283,283,283,283,283,283,283,283,284,0,0,0,0,0,0,0,0,0,
0,282,283,283,283,283,283,283,283,284,72,72,72,72,72,72,72,72,72,72,72,72,73,74,72,72,72,72,72,73,74,282,283,283,283,283,283,283,283,283,284,0,0,0,0,0,0,0,0,0,
0,301,302,302,302,302,302,302,302,303,0,0,0,0,0,0,0,0,0,0,0,0,0,0,0,0,0,0,0,0,0,282,283,283,283,283,283,283,283,283,284,0,0,0,0,0,0,0,0,0,
0,320,317,321,321,321,321,321,317,322,0,0,0,0,0,0,0,0,0,0,0,0,0,0,0,0,0,0,0,0,0,282,283,283,283,283,283,283,283,283,284,0,0,0,0,0,0,0,0,0,
0,339,340,340,340,340,340,340,340,341,0,0,0,0,0,0,0,0,0,0,0,0,0,0,0,0,0,0,0,0,0,301,302,302,21,23,302,302,302,302,71,0,0,0,0,0,0,0,0,0,
0,0,0,320,321,321,321,322,0,0,0,0,0,0,0,0,0,0,0,0,0,0,0,0,0,0,0,0,0,0,0,320,321,321,40,42,321,321,321,321,90,0,0,0,0,0,0,0,0,0,
0,0,0,320,321,321,321,322,0,0,0,0,0,0,0,0,0,0,0,0,0,0,0,0,0,0,0,0,0,0,0,320,317,321,40,42,321,317,321,321,90,0,0,0,0,0,0,0,0,0,
0,0,0,316,321,321,321,318,0,0,0,0,0,0,0,0,0,0,0,0,0,0,0,0,0,0,0,0,0,0,0,320,321,321,40,42,321,321,321,321,90,0,0,0,0,0,0,0,0,0,
0,0,0,320,321,321,321,322,0,0,0,0,0,0,0,0,0,0,0,0,0,0,0,0,0,0,0,0,0,0,0,320,321,321,40,42,321,321,321,321,90,0,0,0,0,0,0,0,0,0,
0,0,0,320,321,321,321,322,0,0,0,0,0,0,0,0,0,0,0,0,0,0,0,0,0,0,0,0,0,0,0,320,317,321,40,42,321,317,321,321,90,0,0,0,0,0,0,0,0,0,
0,0,0,316,321,321,321,318,0,0,0,0,0,0,0,0,0,0,0,0,0,0,0,0,0,0,0,0,0,0,0,320,321,321,40,42,321,321,321,321,90,0,0,0,0,0,0,0,0,0,
0,0,0,320,321,321,321,322,0,0,0,0,0,0,0,0,0,0,0,0,0,0,0,0,0,0,0,0,0,0,0,320,321,321,40,42,321,321,321,321,90,0,0,0,0,0,0,0,0,0,
0,0,0,320,321,321,321,322,0,0,0,0,0,0,0,0,0,0,0,0,0,0,0,0,0,0,0,0,0,0,0,320,317,321,40,42,321,317,321,321,90,0,0,0,0,0,0,0,0,0,
0,0,0,316,321,321,321,318,0,0,0,0,0,0,0,0,0,0,0,0,0,0,0,0,0,0,0,0,0,0,263,225,226,226,59,61,226,226,226,226,109,0,0,0,0,0,0,0,0,0,
0,0,0,320,321,321,321,322,0,0,0,0,0,0,0,263,264,264,264,265,0,0,0,0,0,0,0,0,0,0,193,283,283,283,283,283,283,283,283,283,265,0,0,0,0,0,0,0,0,0,
0,0,0,320,321,321,321,322,0,0,0,0,0,0,0,282,283,283,283,283,32,32,32,32,32,32,32,32,32,32,283,283,283,283,283,283,283,283,283,283,284,0,0,0,0,0,0,0,0,0,
0,0,0,316,321,321,321,318,0,0,0,0,0,0,0,282,283,283,283,283,283,283,283,283,283,283,283,283,283,283,283,283,283,283,283,283,283,283,283,283,284,0,0,0,0,0,0,0,0,0,
0,0,0,320,321,321,321,322,0,0,0,0,0,0,0,282,283,283,283,173,298,302,302,298,302,302,298,302,302,298,174,283,283,283,283,283,283,283,283,283,284,0,0,0,0,0,0,0,0,0,
0,0,0,320,321,321,321,322,0,0,0,0,0,0,0,282,283,283,283,284,340,340,340,340,340,340,340,340,340,340,282,283,283,283,283,283,283,283,283,283,284,0,0,0,0,0,0,0,0,0,
0,0,0,316,321,321,321,318,0,0,0,0,0,0,0,301,302,70,302,303,0,0,0,0,0,0,0,0,0,0,301,302,302,302,302,302,302,302,302,302,71,0,0,0,0,0,0,0,0,0,
0,0,0,320,321,321,321,322,0,0,0,0,0,0,0,320,321,89,321,322,0,0,0,0,0,0,0,0,0,0,320,321,321,321,321,321,321,321,321,321,90,0,0,0,0,0,0,0,0,0,
0,0,0,320,321,321,321,322,0,0,0,0,0,0,0,320,321,89,321,322,0,0,0,0,0,0,0,0,0,0,320,321,321,321,321,321,321,321,321,321,90,0,0,0,0,0,0,0,0,0,
0,0,0,316,321,321,321,318,0,0,0,0,0,0,0,320,321,89,321,322,0,0,0,0,0,0,0,0,0,0,320,321,321,321,321,321,321,321,321,321,90,0,0,0,0,0,0,0,0,0,
0,0,0,320,321,321,321,322,0,0,0,0,0,0,0,320,321,89,321,322,0,0,0,0,0,0,0,0,0,0,320,321,321,321,321,321,321,321,321,321,90,0,0,0,0,0,0,0,0,0,
0,0,0,320,321,321,321,322,0,0,0,0,0,0,0,320,321,89,321,322,0,0,0,0,0,0,0,0,0,0,320,321,321,321,321,321,321,321,321,321,90,0,0,0,0,0,0,0,0,0,
0,0,0,316,321,321,321,318,0,0,0,0,0,0,0,320,321,89,321,322,0,0,0,0,0,0,0,0,0,0,320,321,321,321,321,321,321,321,321,321,90,0,0,0,0,0,0,0,0,0,
0,0,0,320,321,321,321,322,0,0,0,0,0,0,0,320,321,89,321,322,0,0,0,0,0,0,0,0,0,0,320,321,321,321,321,321,321,321,321,321,90,0,0,0,0,0,0,0,0,0,
0,0,0,320,321,321,321,322,0,0,0,0,0,0,0,320,321,89,321,322,0,0,0,0,0,0,0,0,0,0,320,321,321,321,321,321,321,321,321,321,90,0,0,0,0,0,0,0,0,0,
0,0,0,316,321,321,321,318,0,0,0,0,0,0,0,320,321,89,321,322,0,0,0,0,0,0,0,0,0,0,320,321,321,321,321,321,321,321,321,321,90,0,0,0,0,0,0,0,0,0,
0,0,0,320,321,321,321,322,0,0,0,0,0,0,0,320,321,89,321,322,0,0,0,0,0,0,0,0,0,0,320,321,321,321,321,321,321,321,321,321,90,0,0,0,0,0,0,0,0,0,
0,0,0,320,321,321,321,322,0,0,0,0,0,0,0,320,321,89,321,322,0,0,0,0,0,0,0,0,0,0,320,321,321,321,321,321,321,321,321,321,90,0,0,0,0,0,0,0,0,0
</data>
 </layer>
 <objectgroup color="#55ff00" id="2" name="enemycollision" visible="0">
  <object id="1" x="400" y="832" width="840" height="40"/>
  <object id="2" x="397.333" y="760" width="842.667" height="25.3333"/>
  <object id="3" x="400" y="720" width="40" height="40"/>
  <object id="5" x="240" y="680" width="160" height="40"/>
  <object id="6" x="40" y="680" width="160" height="40"/>
  <object id="8" x="120" y="160" width="71.6667" height="520"/>
  <object id="9" x="263.5" y="160" width="56.5" height="520"/>
  <object id="10" x="320" y="0" width="40" height="160"/>
  <object id="11" x="80" y="0" width="40" height="160"/>
  <object id="12" x="0" y="720" width="40" height="120"/>
  <object id="13" x="40" y="840" width="360" height="40"/>
  <object id="14" x="1200" y="880" width="40" height="40"/>
  <object id="15" x="1240" y="920" width="127.667" height="40"/>
  <object id="16" x="1432.33" y="881" width="248" height="40"/>
  <object id="18" x="1684" y="880" width="156" height="40"/>
  <object id="19" x="1840" y="680" width="40" height="240"/>
  <object id="20" x="1240" y="640" width="600" height="40"/>
  <object id="21" x="1200" y="680" width="40" height="80"/>
  <object id="22" x="1332" y="960" width="35" height="360"/>
  <object id="23" x="1240" y="1280" width="92" height="40"/>
  <object id="24" x="1432" y="1280" width="208" height="40"/>
  <object id="25" x="1640" y="1160" width="43.8182" height="200"/>
  <object id="26" x="1715.82" y="1160" width="44.1818" height="200"/>
  <object id="27" x="1760" y="1080" width="40" height="80"/>
  <object id="30" x="1600" y="1080" width="40" height="80"/>
  <object id="33" x="1760" y="1280" width="80" height="40"/>
  <object id="34" x="1840" y="1240" width="40" height="40"/>
  <object id="35" x="1880" y="1280" width="40" height="240"/>
  <object id="36" x="1200" y="1520" width="680" height="40"/>
  <object id="37" x="1160" y="1440" width="40" height="80"/>
  <object id="38" x="800" y="1440" width="360" height="40"/>
  <object id="39" x="800" y="1480" width="40" height="40"/>
  <object id="40" x="725.167" y="1520" width="74.8333" height="40"/>
  <object id="41" x="600" y="1520" width="76.1667" height="40"/>
  <object id="42" x="560" y="1320" width="40" height="200"/>
  <object id="43" x="600" y="1280" width="200" height="40"/>
  <object id="44" x="800" y="1320" width="400" height="40"/>
  <object id="45" x="1160" y="1280" width="40" height="40"/>
  <object id="46" x="1200" y="1240" width="40" height="40"/>
  <object id="47" x="1431.67" y="960" width="33.3333" height="320"/>
  <object id="48" x="640" y="1560" width="37" height="440"/>
  <object id="49" x="725" y="1560" width="35" height="440"/>
  <object id="89" x="1721" y="961.333" width="38" height="119.333"/>
  <object id="90" x="1641.67" y="960.667" width="38" height="119.333"/>
  <object id="95" x="1681.27" y="920.545" width="40.1818" height="9.27273"/>
  <object id="102" x="1684.33" y="1159" width="33" height="12"/>
 </objectgroup>
 <objectgroup color="#0000ff" id="11" name="collision">
  <object id="105" x="400" y="832" width="840" height="40"/>
  <object id="106" x="397.333" y="760" width="842.667" height="25.3333"/>
  <object id="107" x="400" y="720" width="40" height="40"/>
  <object id="108" x="266.167" y="680" width="133.833" height="40"/>
  <object id="109" x="40" y="680" width="138" height="40"/>
  <object id="110" x="120" y="160" width="57.6667" height="520"/>
  <object id="111" x="264.5" y="160" width="55.5" height="520"/>
  <object id="112" x="320" y="0" width="40" height="160"/>
  <object id="113" x="80" y="0" width="40" height="160"/>
  <object id="114" x="0" y="720" width="40" height="120"/>
  <object id="115" x="40" y="840" width="360" height="40"/>
  <object id="116" x="1200" y="880" width="40" height="40"/>
  <object id="117" x="1240" y="920" width="127.667" height="40"/>
  <object id="118" x="1432.33" y="920" width="208.318" height="40"/>
  <object id="121" x="1240" y="640" width="440.667" height="40"/>
  <object id="122" x="1200" y="680" width="40" height="80"/>
  <object id="123" x="1332" y="960" width="35" height="360"/>
  <object id="124" x="1240" y="1280" width="92" height="40"/>
  <object id="125" x="1432" y="1280" width="208" height="40"/>
  <object id="133" x="1200" y="1520" width="438" height="40"/>
  <object id="134" x="1160" y="1440" width="40" height="80"/>
  <object id="135" x="800" y="1440" width="360" height="40"/>
  <object id="136" x="800" y="1480" width="40" height="40"/>
  <object id="137" x="725.167" y="1520" width="74.8333" height="40"/>
  <object id="138" x="600" y="1520" width="76.1667" height="40"/>
  <object id="139" x="560" y="1320" width="40" height="200"/>
  <object id="140" x="600" y="1280" width="200" height="40"/>
  <object id="141" x="800" y="1320" width="400" height="40"/>
  <object id="142" x="1160" y="1280" width="40" height="40"/>
  <object id="143" x="1200" y="1240" width="40" height="40"/>
  <object id="144" x="1431.67" y="960" width="33.3333" height="320"/>
  <object id="145" x="640" y="1560" width="37" height="440"/>
  <object id="146" x="725" y="1560" width="35" height="440"/>
  <object id="151" x="1680.46" y="681.6" width="278.667" height="40" rotation="90"/>
  <object id="152" x="1680.74" y="1319.25" width="208" height="40" rotation="90"/>
 </objectgroup>
 <objectgroup id="6" name="paths">
  <object id="58" name="virovirokun" x="698.667" y="1328">
   <polygon points="0,0 -84,80 -6.66667,166.667 82.6667,80"/>
  </object>
 </objectgroup>
 <objectgroup color="#55ffff" id="10" name="climbing" class="objects"/>
 <objectgroup color="#aa00ff" id="5" name="markers">
  <object id="54" name="entranceA" x="217.333" y="89.3333">
   <point/>
  </object>
  <object id="104" name="warpdoorpath" x="1482" y="753">
   <point/>
  </object>
 </objectgroup>
 <objectgroup color="#ff55ff" id="3" name="objects">
  <object id="50" name="transition" x="120" y="0" width="200" height="40">
   <properties>
    <property name="map" value="recep3"/>
    <property name="marker" value="entranceC"/>
   </properties>
  </object>
  <object id="51" name="transition" x="673.5" y="1960" width="54.5" height="40">
   <properties>
    <property name="map" value="recep5"/>
    <property name="marker" value="entranceA"/>
   </properties>
  </object>
  <object id="52" name="enemy" x="674.333" y="1387.33" width="54" height="44">
   <properties>
    <property name="actor" value="sirengeist"/>
    <property name="chase" type="bool" value="true"/>
    <property name="encounter" value="sirengeist2"/>
    <property name="enemy" value="sirengeist"/>
    <property name="once" type="bool" value="true"/>
    <property name="path" value="virovirokun"/>
   </properties>
  </object>
  <object id="63" name="slidearea" x="1368.67" y="919.364" width="62.3333" height="403.636"/>
  <object id="64" name="slidearea" x="678.5" y="1521" width="46" height="473.667"/>
  <object id="65" name="slidearea" x="179" y="160.667" width="85" height="559.333"/>
  <object id="66" name="npc" x="1329" y="730">
   <properties>
    <property name="actor" value="nurse_shop"/>
    <property name="cutscene" value="nurse.sell"/>
   </properties>
   <point/>
  </object>
  <object id="67" name="script" x="1212.67" y="787.167" width="29.3333" height="41.5">
   <properties>
    <property name="cutscene" value="nurse.bring"/>
   </properties>
  </object>
  <object id="103" name="warpdoor" x="1484.5" y="683.5">
   <properties>
    <property name="flag1" value="encounter#ralsei:done"/>
    <property name="map1" value="forest1"/>
    <property name="marker1" value="spawn"/>
    <property name="openflag" value="encounter#ralsei:done"/>
   </properties>
   <point/>
  </object>
 </objectgroup>
</map>
