<?xml version="1.0" encoding="UTF-8"?>
<map version="1.10" tiledversion="1.11.2" orientation="orthogonal" renderorder="right-down" width="50" height="50" tilewidth="40" tileheight="40" infinite="0" backgroundcolor="#13132b" nextlayerid="10" nextobjectid="152">
 <editorsettings>
  <export target="recep3.lua" format="lua"/>
 </editorsettings>
 <properties>
  <property name="music" value="hallway"/>
 </properties>
 <tileset firstgid="1" source="../tilesets/Receptionist.tsx"/>
 <tileset firstgid="362" source="../tilesets/cones.tsx"/>
 <layer id="10" name="Tile Layer 3" width="50" height="50" tintcolor="#55557f" parallaxx="0.9" parallaxy="0.9">
  <data encoding="csv">
0,84,85,86,0,0,0,0,0,0,0,0,0,0,0,103,104,105,0,0,0,0,0,0,0,0,0,0,0,0,0,0,0,0,0,0,0,0,0,0,0,0,0,0,0,0,0,0,0,0,
0,103,104,105,0,0,0,0,0,0,0,0,0,0,0,103,104,105,0,0,0,0,0,0,0,0,0,0,0,0,0,0,0,0,0,0,0,0,0,0,0,0,0,0,0,0,0,0,0,0,
0,103,104,105,0,0,0,0,0,0,0,0,0,0,0,103,104,105,0,0,0,0,0,0,0,0,0,0,0,0,0,0,0,0,0,0,0,0,0,0,0,0,0,0,0,0,0,0,0,0,
0,103,104,105,0,0,0,0,0,0,0,0,0,0,0,103,104,105,0,0,0,0,0,0,0,0,0,0,0,0,0,0,0,0,0,0,0,0,0,0,0,0,0,0,0,0,0,0,0,0,
0,103,104,105,0,0,0,0,0,0,0,0,0,0,0,103,104,105,0,0,0,0,0,0,0,0,0,0,0,0,0,0,0,0,0,0,0,0,0,0,0,0,0,0,0,0,0,0,0,0,
0,103,104,105,0,0,0,0,0,0,0,0,0,0,0,103,104,105,0,0,0,0,0,0,0,0,0,0,0,0,0,0,0,0,0,0,0,0,0,0,0,0,0,0,0,0,0,0,0,0,
0,103,104,105,0,0,0,0,0,0,0,0,0,0,0,103,104,105,0,0,0,0,0,0,0,0,0,0,0,0,0,0,0,0,0,0,0,0,0,0,0,0,0,0,0,0,0,0,0,0,
0,103,104,105,0,0,0,0,0,0,0,0,0,0,0,103,104,105,0,0,0,0,0,0,0,0,0,0,0,0,0,0,0,0,0,0,0,0,0,0,0,0,0,0,0,0,0,0,0,0,
0,103,104,105,0,0,0,0,0,0,0,0,0,0,0,103,104,105,0,0,0,0,0,0,0,0,0,0,0,0,0,0,0,0,0,0,0,0,0,0,0,0,0,0,0,0,0,0,0,0,
0,103,104,105,0,0,0,0,0,0,0,0,0,0,0,103,104,105,0,0,0,0,0,0,0,0,0,0,0,0,0,0,0,0,0,0,0,0,0,0,0,0,0,0,0,0,0,0,0,0,
0,103,104,105,0,0,0,0,0,0,0,0,0,0,0,103,104,105,0,0,0,0,0,0,0,0,0,0,0,0,0,0,0,0,0,0,0,0,0,0,0,0,0,0,0,0,0,0,0,0,
0,103,104,105,0,0,0,0,0,0,0,0,0,0,0,103,104,105,0,0,0,0,0,0,0,0,0,0,0,0,0,0,0,0,0,0,0,0,0,0,0,0,0,0,0,0,0,0,0,0,
64,64,64,64,62,62,62,62,62,62,62,62,62,62,62,62,62,62,62,62,62,62,62,62,62,63,64,64,62,62,62,62,62,62,62,62,62,62,62,62,62,62,62,62,62,62,62,62,62,62,
83,83,83,83,81,81,81,81,81,81,81,81,81,81,81,81,81,81,81,81,81,81,81,81,81,82,83,83,81,81,81,81,81,81,81,81,81,81,81,81,81,81,81,81,81,81,81,81,81,81,
0,103,104,105,0,0,0,0,0,0,0,0,0,0,0,103,104,105,0,0,0,0,0,0,0,0,0,0,0,0,0,0,0,0,0,0,0,0,0,0,0,0,0,0,0,0,0,0,0,0,
0,103,104,105,0,0,0,0,0,0,0,0,0,0,0,103,104,105,0,0,0,0,0,0,0,0,0,0,0,0,0,0,0,0,0,0,0,0,0,0,0,0,0,0,0,0,0,0,0,0,
0,103,104,105,0,0,0,0,0,0,0,0,0,0,0,103,104,105,0,0,0,0,0,0,0,0,0,0,0,0,0,0,0,0,0,0,0,0,0,0,0,0,0,0,0,0,0,0,0,0,
0,103,104,105,0,0,0,0,0,0,0,0,0,0,0,103,104,105,0,0,0,0,0,0,0,0,0,0,0,0,0,0,0,0,0,0,0,0,0,0,0,0,0,0,0,0,0,0,0,0,
0,103,104,105,0,0,0,0,0,0,0,0,0,0,0,103,104,105,0,0,0,0,0,0,0,0,0,0,0,0,0,0,0,0,0,0,0,0,0,0,0,0,0,0,0,0,0,0,0,0,
0,103,104,105,0,0,0,0,0,0,0,0,0,0,0,103,104,105,0,0,0,0,0,0,0,0,0,0,0,0,0,0,0,0,0,0,0,0,0,0,0,0,0,0,0,0,0,0,0,0,
0,103,104,105,0,0,0,0,0,0,0,0,0,0,0,103,104,105,0,0,0,0,0,0,0,0,0,0,0,0,0,0,0,0,0,0,0,0,0,0,0,0,0,0,0,0,0,0,0,0,
0,103,104,105,0,0,0,0,0,0,0,0,0,0,0,103,104,105,0,0,0,0,0,0,0,0,0,0,0,0,0,0,0,0,0,0,0,0,0,0,0,0,0,0,0,0,0,0,0,0,
0,103,104,105,0,0,0,0,0,0,0,0,0,0,0,103,104,105,0,0,0,0,0,0,0,0,0,0,0,0,0,0,0,0,0,0,0,0,0,0,0,0,0,0,0,0,0,0,0,0,
0,65,66,67,0,0,0,0,0,0,0,0,0,0,0,103,104,105,0,0,0,0,0,0,0,0,0,0,0,0,0,0,0,0,0,0,0,0,0,0,0,0,0,0,0,0,0,0,0,0,
0,65,66,67,0,0,0,0,0,0,0,0,0,0,0,103,104,105,0,0,0,0,0,0,0,0,0,0,0,0,0,0,0,0,0,0,0,0,0,0,0,0,0,0,0,0,0,0,0,0,
0,65,66,67,0,0,0,0,0,0,0,0,0,0,0,103,104,105,0,0,0,0,0,0,0,0,0,0,0,0,0,0,0,0,0,0,0,0,0,0,0,0,0,0,0,0,0,0,0,0,
0,65,66,67,0,0,0,0,0,0,0,0,0,0,0,103,104,105,0,0,0,0,0,0,0,0,0,0,0,0,0,0,0,0,0,0,0,0,0,0,0,0,0,0,0,0,0,0,0,0,
0,84,85,86,0,0,0,0,0,0,0,0,0,0,0,103,104,105,0,0,0,0,0,0,0,0,0,0,0,0,0,0,0,0,0,0,0,0,0,0,0,0,0,0,0,0,0,0,0,0,
0,103,104,105,0,0,0,0,0,0,0,0,0,0,0,103,104,105,0,0,0,0,0,0,0,0,0,0,0,0,0,0,0,0,0,0,0,0,0,0,0,0,0,0,0,0,0,0,0,0,
0,0,0,0,0,0,0,0,0,0,0,0,0,0,0,103,104,105,0,0,0,0,0,0,0,0,0,0,0,0,0,0,0,0,0,0,0,0,0,0,0,0,0,0,0,0,0,0,0,0,
0,0,0,0,0,0,0,0,0,0,0,0,0,0,0,103,104,105,0,0,0,0,0,0,0,0,0,0,0,0,0,0,0,0,0,0,0,0,0,0,0,0,0,0,0,0,0,0,0,0,
0,0,0,0,0,0,0,0,0,0,0,0,0,0,0,103,104,105,0,0,0,0,0,0,0,0,0,0,0,0,0,0,0,0,0,0,0,0,0,0,0,0,0,0,0,0,0,0,0,0,
0,0,0,0,0,0,0,0,0,0,0,0,0,0,0,103,104,105,0,0,0,0,0,0,0,0,0,0,0,0,0,0,0,0,0,0,0,0,0,0,0,0,0,0,0,0,0,0,0,0,
0,0,0,0,0,0,0,0,0,0,0,0,0,0,0,103,104,105,0,0,0,0,0,0,0,0,0,0,0,0,0,0,0,0,0,0,0,0,0,0,0,0,0,0,0,0,0,0,0,0,
0,0,0,0,0,0,0,0,0,0,0,0,0,0,0,103,104,105,0,0,0,0,0,0,0,0,0,0,0,0,0,0,0,0,0,0,0,0,0,0,0,0,0,0,0,0,0,0,0,0,
64,64,64,64,64,64,64,62,62,62,62,62,62,62,62,62,62,62,62,62,62,62,63,64,64,64,64,64,64,64,64,64,64,64,64,64,64,64,64,64,64,64,64,64,64,64,64,64,64,64,
83,83,83,83,83,83,83,81,81,81,81,81,81,81,81,81,81,81,81,81,81,81,82,83,83,83,83,83,83,83,83,83,83,83,83,83,83,83,83,83,83,83,83,83,83,83,83,83,83,83,
0,0,0,0,0,0,0,0,0,0,0,0,0,0,0,103,104,105,0,0,0,0,0,0,0,0,0,0,0,0,0,0,0,0,0,0,0,0,0,0,0,0,0,0,0,0,0,0,0,0,
0,0,0,0,0,0,0,0,0,0,0,0,0,0,0,103,104,105,0,0,0,0,0,0,0,0,0,0,0,0,0,0,0,0,0,0,0,0,0,0,0,0,0,0,0,0,0,0,0,0,
0,0,0,0,0,0,0,0,0,0,0,0,0,0,0,103,104,105,0,0,0,0,0,0,0,0,0,0,0,0,0,0,0,0,0,0,0,0,0,0,0,0,0,0,0,0,0,0,0,0,
0,0,0,0,0,0,0,0,0,0,0,0,0,0,0,103,104,105,0,0,0,0,0,0,0,0,0,0,0,0,0,0,0,0,0,0,0,0,0,0,0,0,0,0,0,0,0,0,0,0,
0,0,0,0,0,0,0,0,0,0,0,0,0,0,0,103,104,105,0,0,0,0,0,0,0,0,0,0,0,0,0,0,0,0,0,0,0,0,0,0,0,0,0,0,0,0,0,0,0,0,
0,0,0,0,0,0,0,0,0,0,0,0,0,0,0,103,104,105,0,0,0,0,0,0,0,0,0,0,0,0,0,0,0,0,0,0,0,0,0,0,0,0,0,0,0,0,0,0,0,0,
0,0,0,0,0,0,0,0,0,0,0,0,0,0,0,103,104,105,0,0,0,0,0,0,0,0,0,0,0,0,0,0,0,0,0,0,0,0,0,0,0,0,0,0,0,0,0,0,0,0,
0,0,0,0,0,0,0,0,0,0,0,0,0,0,0,103,104,105,0,0,0,0,0,0,0,0,0,0,0,0,0,0,0,0,0,0,0,0,0,0,0,0,0,0,0,0,0,0,0,0,
0,0,0,0,0,0,0,0,0,0,0,0,0,0,0,103,104,105,0,0,0,0,0,0,0,0,0,0,0,0,0,0,0,0,0,0,0,0,0,0,0,0,0,0,0,0,0,0,0,0,
0,0,0,0,0,0,0,0,0,0,0,0,0,0,0,103,104,105,0,0,0,0,0,0,0,0,0,0,0,0,0,0,0,0,0,0,0,0,0,0,0,0,0,0,0,0,0,0,0,0,
0,0,0,0,0,0,0,0,0,0,0,0,0,0,0,103,104,105,0,0,0,0,0,0,0,0,0,0,0,0,0,0,0,0,0,0,0,0,0,0,0,0,0,0,0,0,0,0,0,0,
0,0,0,0,0,0,0,0,0,0,0,0,0,0,0,103,104,105,0,0,0,0,0,0,0,0,0,0,0,0,0,0,0,0,0,0,0,0,0,0,0,0,0,0,0,0,0,0,0,0,
0,0,0,0,0,0,0,0,0,0,0,0,0,0,0,103,104,105,0,0,0,0,0,0,0,0,0,0,0,0,0,0,0,0,0,0,0,0,0,0,0,0,0,0,0,0,0,0,0,0
</data>
 </layer>
 <layer id="11" name="Tile Layer 4" width="50" height="50" tintcolor="#7b7bb8" parallaxx="1.1" parallaxy="1.1">
  <data encoding="csv">
0,0,0,0,0,0,0,0,0,0,0,0,0,0,0,0,145,0,0,0,0,0,0,0,0,0,0,0,0,0,0,0,0,0,0,0,0,0,0,0,0,0,0,0,0,0,0,0,0,0,
0,0,0,0,0,0,0,0,0,0,0,0,0,0,0,0,145,0,0,0,0,0,0,0,0,0,0,0,0,0,0,0,0,0,0,0,0,0,0,0,0,0,0,0,0,0,0,0,0,0,
0,0,0,0,0,0,0,0,0,0,0,0,0,0,0,0,145,0,0,0,0,0,0,0,0,0,0,0,0,0,0,0,0,0,0,0,0,0,0,0,0,0,0,0,0,0,0,0,0,0,
0,0,0,0,0,0,0,0,0,0,0,0,0,0,0,0,145,0,0,0,0,0,0,0,0,0,0,0,0,0,0,0,0,0,0,0,0,0,0,0,0,0,0,0,0,0,0,0,0,0,
0,0,0,0,0,0,0,0,0,0,0,0,0,0,0,0,145,0,0,0,0,0,0,0,0,0,0,0,0,0,0,0,0,0,0,0,0,0,0,0,0,0,0,0,0,0,0,0,0,0,
0,0,0,0,0,0,0,0,0,0,0,0,0,0,0,0,145,0,0,0,0,0,0,0,0,0,0,0,0,0,0,0,0,0,0,0,0,0,0,0,0,0,0,0,0,0,0,0,0,0,
0,0,0,0,0,0,0,0,0,0,0,0,0,0,0,0,145,0,0,0,0,0,0,0,0,0,0,0,0,0,0,0,0,0,0,0,0,0,0,0,0,0,0,0,0,0,0,0,0,0,
0,0,0,0,0,0,0,0,0,0,0,0,0,0,0,0,145,0,0,0,0,0,0,0,0,0,0,0,0,0,0,0,0,0,0,0,0,0,0,0,0,0,0,0,0,0,0,0,0,0,
0,0,0,0,0,0,0,0,0,0,0,0,0,0,0,0,145,0,0,0,0,0,0,0,0,0,0,0,0,0,0,0,0,0,0,0,0,0,0,0,0,0,0,0,0,0,0,0,0,0,
0,0,0,0,0,0,0,0,0,0,0,0,0,0,0,0,145,0,0,0,0,0,0,0,0,0,0,0,0,0,0,0,0,0,0,0,0,0,0,0,0,0,0,0,0,0,0,0,0,0,
0,0,0,0,0,0,0,0,0,0,0,0,0,0,0,0,145,0,0,0,0,0,0,0,0,0,0,0,0,0,0,0,0,0,0,0,0,0,0,0,0,0,0,0,0,0,0,0,0,0,
0,0,0,0,0,0,0,0,0,0,0,0,0,0,0,0,145,0,0,0,0,0,0,0,0,0,0,0,0,0,0,0,0,0,0,0,0,0,0,0,0,0,0,0,0,0,0,0,0,0,
0,0,0,0,0,0,0,0,0,0,0,0,0,0,0,0,145,0,0,0,0,0,0,0,0,0,0,0,0,0,0,0,0,0,0,0,0,0,0,0,0,0,0,0,0,0,0,0,0,0,
0,0,0,0,0,0,0,0,0,0,0,0,0,0,0,0,145,0,0,0,0,0,0,0,0,0,0,0,0,0,0,0,0,0,0,0,0,0,0,0,0,0,0,0,0,0,0,0,0,0,
0,0,0,0,0,0,0,0,0,0,0,0,0,0,0,0,145,0,0,0,0,0,0,0,0,0,0,0,0,0,0,0,0,0,0,0,0,0,0,0,0,0,0,0,0,0,0,0,0,0,
0,0,0,0,0,0,0,0,0,0,0,0,0,0,0,0,145,0,0,0,0,0,0,0,0,0,0,0,0,0,0,0,0,0,0,0,0,0,0,0,0,0,0,0,0,0,0,0,0,0,
0,0,0,0,0,0,0,0,0,0,0,0,0,0,0,0,145,0,0,0,0,0,0,0,0,0,0,0,0,0,0,0,0,0,0,0,0,0,0,0,0,0,0,0,0,0,0,0,0,0,
0,0,0,0,0,0,0,0,0,0,0,0,0,0,0,0,145,0,0,0,0,0,0,0,0,0,0,0,0,0,0,0,0,0,0,0,0,0,0,0,0,0,0,0,0,0,0,0,0,0,
0,0,0,0,0,0,0,0,0,0,0,0,0,0,0,0,145,0,0,0,0,0,0,0,0,0,0,0,0,0,0,0,0,0,0,0,0,0,0,0,0,0,0,0,0,0,0,0,0,0,
0,0,0,0,0,0,0,0,0,0,0,0,0,0,0,0,145,0,0,0,0,0,0,0,0,0,0,0,0,0,0,0,0,0,0,0,0,0,0,0,0,0,0,0,0,0,0,0,0,0,
0,0,0,0,0,0,0,0,0,0,0,0,0,0,0,0,145,0,0,0,0,0,0,0,0,0,0,0,0,0,0,0,0,0,0,0,0,0,0,0,0,0,0,0,0,0,0,0,0,0,
0,0,0,0,0,0,0,0,0,0,0,0,0,0,0,0,145,0,0,0,0,0,0,0,0,0,0,0,0,0,0,0,0,0,0,0,0,0,0,0,0,0,0,0,0,0,0,0,0,0,
0,0,0,0,0,0,0,0,0,0,0,0,0,0,0,0,145,0,0,0,0,0,0,0,0,0,0,0,0,0,0,0,0,0,0,0,0,0,0,0,0,0,0,0,0,0,0,0,0,0,
62,62,62,62,62,62,62,62,62,62,62,62,62,62,62,62,145,62,62,62,62,62,62,62,62,62,62,62,62,62,62,62,62,62,62,62,62,62,62,62,62,62,62,62,63,64,0,0,0,0,
81,81,81,81,81,81,81,81,81,81,81,81,81,81,81,81,145,81,81,81,81,81,81,81,81,81,81,81,81,81,81,81,81,81,81,81,81,81,81,81,81,81,81,81,82,83,0,0,0,0,
0,0,0,0,0,0,0,0,0,0,0,0,0,0,0,0,145,0,0,0,0,0,0,0,0,0,0,0,0,0,0,0,0,0,0,0,0,0,0,0,0,0,0,0,0,0,0,0,0,0,
0,0,0,0,0,0,0,0,0,0,0,0,0,0,0,0,145,0,0,0,0,0,0,0,0,0,0,0,0,0,0,0,0,0,0,0,0,0,0,0,0,0,0,0,0,0,0,0,0,0,
0,0,0,0,0,0,0,0,0,0,0,0,0,0,0,0,145,0,0,0,0,0,0,0,0,0,0,0,0,0,0,0,0,0,0,0,0,0,0,0,0,0,0,0,0,0,0,0,0,0,
0,0,0,0,0,0,0,0,0,0,0,0,0,0,0,0,145,0,0,0,0,0,0,0,0,0,0,0,0,0,0,0,0,0,0,0,0,0,0,0,0,0,0,0,0,0,0,0,0,0,
0,0,0,0,0,0,0,0,0,0,0,0,0,0,0,0,145,0,0,0,0,0,0,0,0,0,0,0,0,0,0,0,0,0,0,0,0,0,0,0,0,0,0,0,0,0,0,0,0,0,
0,0,0,0,0,0,0,0,0,0,0,0,0,0,0,0,145,0,0,0,0,0,0,0,0,0,0,0,0,0,0,0,0,0,0,0,0,0,0,0,0,0,0,0,0,0,0,0,0,0,
0,0,0,0,0,0,0,0,0,0,0,0,0,0,0,0,145,0,0,0,0,0,0,0,0,0,0,0,0,0,0,0,0,0,0,0,0,0,0,0,0,0,0,0,0,0,0,0,0,0,
0,0,0,0,0,0,0,0,0,0,0,0,0,0,0,0,145,0,0,0,0,0,0,0,0,0,0,0,0,0,0,0,0,0,0,0,0,0,0,0,0,0,0,0,0,0,0,0,0,0,
0,0,0,0,0,0,0,0,0,0,0,0,0,0,0,0,164,0,0,0,0,0,0,0,0,0,0,0,0,0,0,0,0,0,0,0,0,0,0,0,0,0,0,0,0,0,0,0,0,0,
0,0,0,0,0,0,0,0,0,0,0,0,0,0,0,0,145,0,0,0,0,0,0,0,0,0,0,0,0,0,0,0,0,0,0,0,0,0,0,0,0,0,0,0,0,0,0,0,0,0,
0,0,0,0,0,0,0,0,0,0,0,0,0,0,0,0,145,0,0,0,0,0,0,0,0,0,0,0,0,0,0,0,0,0,0,0,0,0,0,0,0,0,0,0,0,0,0,0,0,0,
0,0,0,0,0,0,0,0,0,0,0,0,0,0,0,0,145,0,0,0,0,0,0,0,0,0,0,0,0,0,0,0,0,0,0,0,0,0,0,0,0,0,0,0,0,0,0,0,0,0,
0,0,0,0,0,0,0,0,0,0,0,0,0,0,0,0,145,0,0,0,0,0,0,0,0,0,0,0,0,0,0,0,0,0,0,0,0,0,0,0,0,0,0,0,0,0,0,0,0,0,
0,0,0,0,0,0,0,0,0,0,0,0,0,0,0,0,145,0,0,0,0,0,0,0,0,0,0,0,0,0,0,0,0,0,0,0,0,0,0,0,0,0,0,0,0,0,0,0,0,0,
0,0,0,0,0,0,0,0,0,0,0,0,0,0,0,0,145,0,0,0,0,0,0,0,0,0,0,0,0,0,0,0,0,0,0,0,0,0,0,0,0,0,0,0,0,0,0,0,0,0,
0,0,0,0,0,0,0,0,0,0,0,0,0,0,0,0,145,0,0,0,0,0,0,0,0,0,0,0,0,0,0,0,0,0,0,0,0,0,0,0,0,0,0,0,0,0,0,0,0,0,
0,0,0,0,0,0,0,0,0,0,0,0,0,0,0,0,145,0,0,0,0,0,0,0,0,0,0,0,0,0,0,0,0,0,0,0,0,0,0,0,0,0,0,0,0,0,0,0,0,0,
62,62,62,62,62,62,62,62,62,62,63,64,62,62,62,62,145,62,62,62,62,62,62,62,62,62,62,62,62,62,62,62,62,62,62,62,62,62,62,63,64,0,0,0,0,0,0,0,0,0,
81,81,81,81,81,81,81,81,81,81,82,83,81,81,81,81,145,81,81,81,81,81,81,81,81,81,81,81,81,81,81,81,81,81,81,81,81,81,81,82,83,0,0,0,0,0,0,0,0,0,
0,0,0,0,0,0,0,0,0,0,0,0,0,0,0,0,145,0,0,0,0,0,0,0,0,0,0,0,0,0,0,0,0,0,0,0,0,0,0,0,0,0,0,0,0,0,0,0,0,0,
0,0,0,0,0,0,0,0,0,0,0,0,0,0,0,0,145,0,0,0,0,0,0,0,0,0,0,0,0,0,0,0,0,0,0,0,0,0,0,0,0,0,0,0,0,0,0,0,0,0,
0,0,0,0,0,0,0,0,0,0,0,0,0,0,0,0,145,0,0,0,0,0,0,0,0,0,0,0,0,0,0,0,0,0,0,0,0,0,0,0,0,0,0,0,0,0,0,0,0,0,
0,0,0,0,0,0,0,0,0,0,0,0,0,0,0,0,145,0,0,0,0,0,0,0,0,0,0,0,0,0,0,0,0,0,0,0,0,0,0,0,0,0,0,0,0,0,0,0,0,0,
0,0,0,0,0,0,0,0,0,0,0,0,0,0,0,0,145,0,0,0,0,0,0,0,0,0,0,0,0,0,0,0,0,0,0,0,0,0,0,0,0,0,0,0,0,0,0,0,0,0,
0,0,0,0,0,0,0,0,0,0,0,0,0,0,0,0,164,0,0,0,0,0,0,0,0,0,0,0,0,0,0,0,0,0,0,0,0,0,0,0,0,0,0,0,0,0,0,0,0,0
</data>
 </layer>
 <objectgroup color="#55aa00" id="6" name="battleareas">
  <object id="60" x="760" y="725" width="741" height="67"/>
  <object id="159" x="1080" y="478" width="80" height="242"/>
 </objectgroup>
 <layer id="2" name="Tile Layer 2" width="50" height="50">
  <data encoding="csv">
0,0,0,0,0,0,0,0,0,0,0,0,0,0,0,0,0,0,0,0,0,0,0,0,0,263,264,264,264,264,265,0,0,0,0,0,0,0,0,0,0,0,0,0,0,0,0,0,0,0,
0,0,0,0,0,0,0,0,0,0,0,0,0,0,0,0,0,0,0,0,0,0,0,0,0,282,283,283,283,283,284,0,0,0,0,0,0,0,0,0,0,0,0,0,0,0,0,0,0,0,
0,0,0,0,0,0,0,0,0,0,0,0,0,0,0,0,0,0,0,0,0,0,0,0,0,301,302,302,302,302,303,0,0,0,0,0,0,0,0,0,0,0,0,0,0,0,0,0,0,0,
0,0,0,0,0,0,0,0,0,0,0,0,0,0,0,0,0,0,0,0,0,0,0,0,0,320,321,321,321,321,322,0,0,0,0,0,0,0,0,0,0,0,0,0,0,0,0,0,0,0,
0,0,0,0,0,0,0,0,0,0,0,0,0,0,0,0,0,0,0,0,0,0,0,0,0,320,321,321,321,321,322,0,0,0,0,0,0,0,0,0,0,0,0,0,0,0,0,0,0,0,
0,0,0,0,0,0,0,0,0,0,0,0,0,0,0,0,0,0,0,0,0,0,0,0,0,320,321,321,321,321,322,0,0,0,0,0,0,0,0,0,0,0,0,0,0,0,0,0,0,0,
0,0,0,0,0,0,0,0,0,0,0,0,0,0,0,0,0,0,0,0,0,0,0,0,0,320,321,321,321,321,322,0,0,0,0,0,0,0,0,0,0,0,0,0,0,0,0,0,0,0,
0,0,0,0,0,0,0,0,0,0,0,0,0,0,0,0,0,0,0,0,0,0,0,0,263,225,340,340,340,340,227,265,0,0,0,0,0,0,0,0,0,0,0,0,0,0,0,0,0,0,
0,0,0,0,0,0,0,0,0,0,0,0,0,0,0,0,0,0,0,0,0,0,0,0,282,283,283,283,283,283,283,284,0,0,0,0,0,0,0,0,0,0,0,0,0,0,0,0,0,0,
0,0,0,0,0,0,0,0,0,0,0,0,0,0,0,0,0,0,0,0,0,0,0,0,282,283,283,283,283,283,283,284,0,0,0,0,0,0,0,0,0,0,0,0,0,0,0,0,0,0,
0,0,0,0,0,0,0,0,0,0,0,0,0,0,0,0,0,0,0,0,0,0,0,0,301,302,302,65,67,302,302,303,0,0,0,0,0,0,0,0,0,0,0,0,0,0,0,0,0,0,
0,0,0,0,0,0,0,0,0,0,0,0,0,0,0,0,0,0,0,0,0,0,0,0,339,340,340,65,86,340,340,341,0,0,0,0,0,0,0,0,0,0,0,0,0,0,0,0,0,0,
0,0,0,0,0,0,0,0,0,0,0,0,0,0,0,0,0,0,0,0,0,0,0,0,0,0,0,65,105,0,0,0,0,0,0,0,0,0,0,0,0,0,0,0,0,0,0,0,0,0,
0,0,0,0,0,0,0,0,0,0,0,0,0,0,0,0,0,0,0,0,0,0,0,0,0,0,0,65,105,0,0,0,0,0,0,0,0,0,0,0,0,0,0,0,0,0,0,0,0,0,
0,0,0,0,0,0,0,0,0,0,0,0,0,0,0,0,0,0,0,0,0,0,0,0,0,0,0,65,105,0,0,0,0,0,0,0,0,0,0,0,0,0,0,0,0,0,0,0,0,0,
0,0,0,0,0,0,0,0,0,0,0,0,0,0,0,0,0,0,0,0,0,0,0,0,0,0,0,65,105,0,0,0,0,0,0,0,0,0,0,0,0,0,0,0,0,0,0,0,0,0,
0,0,0,0,0,0,0,0,0,0,0,0,0,0,0,0,0,0,0,0,0,0,0,0,0,0,0,65,105,0,0,0,0,0,0,0,0,0,0,0,0,0,0,0,0,0,0,0,0,0,
0,0,0,0,0,0,0,0,0,0,0,0,0,0,0,0,0,0,0,0,0,0,0,0,0,0,0,65,105,0,0,0,0,0,0,0,0,0,0,0,0,0,0,0,0,0,0,0,0,0,
0,0,0,0,0,0,0,0,0,0,0,0,0,0,0,0,0,0,0,0,0,0,0,0,0,0,0,84,105,0,0,0,0,0,0,0,0,0,0,0,0,0,0,0,0,0,0,0,0,0,
0,0,0,0,0,0,0,0,0,0,0,0,0,0,0,0,0,0,0,0,0,0,0,0,0,0,0,103,105,0,0,0,0,0,0,0,0,0,0,0,0,0,0,0,0,0,0,0,0,0,
0,0,0,0,0,0,0,0,0,0,0,0,0,0,0,0,0,0,0,0,0,0,0,0,0,0,0,0,0,0,0,0,0,0,0,0,0,0,0,0,0,0,0,0,0,0,0,0,0,0,
0,0,0,0,0,0,0,0,0,0,0,0,0,0,0,0,0,0,0,0,0,0,0,0,0,0,0,0,0,0,0,0,0,0,0,0,0,0,0,0,0,0,0,0,0,0,0,0,0,0,
0,0,0,0,0,0,0,0,0,0,0,0,0,0,0,0,0,0,0,0,0,0,0,0,0,0,0,0,0,0,0,0,0,0,0,0,0,0,0,0,0,0,0,0,0,0,0,0,0,0,
0,0,0,0,0,0,0,0,0,0,0,0,0,0,0,0,0,0,0,0,0,0,0,0,0,0,0,0,0,0,0,0,0,0,0,0,0,0,0,0,0,0,0,0,0,0,0,0,0,0,
0,0,0,0,0,0,0,0,0,0,0,0,0,0,0,0,0,0,0,0,0,0,0,0,0,0,0,0,0,0,0,0,0,0,0,0,0,0,0,0,0,0,0,0,0,0,0,0,0,0,
0,0,0,0,0,0,0,0,0,0,0,0,0,0,0,0,0,0,0,0,0,0,0,0,0,0,0,0,0,0,0,0,0,0,0,0,0,0,0,0,0,0,0,0,0,0,0,0,0,0,
0,0,0,0,0,0,0,0,0,0,0,0,0,0,0,0,0,0,0,0,0,0,0,0,0,0,0,0,0,0,0,0,0,0,0,0,0,0,0,0,0,0,0,0,0,0,0,0,0,0,
0,0,0,0,0,0,0,0,0,0,0,0,0,0,0,0,0,0,0,0,0,0,0,0,0,0,0,0,0,0,0,0,0,0,0,0,0,0,0,0,0,0,0,0,0,0,0,0,0,0,
0,0,0,0,0,0,0,0,0,0,0,0,0,0,0,0,0,0,0,0,0,0,0,0,0,0,0,0,0,0,0,0,0,0,0,0,0,0,0,0,0,0,0,0,0,0,0,0,0,0,
0,0,0,0,0,0,0,0,0,0,0,0,0,0,0,0,0,0,0,0,0,0,0,0,0,0,0,0,0,0,0,0,0,0,0,0,0,0,0,0,0,0,0,0,0,0,0,0,0,0,
263,264,264,264,264,264,264,265,0,0,0,0,0,0,0,0,0,0,0,0,0,0,0,0,0,0,0,0,0,0,0,0,0,0,0,0,0,0,0,0,0,0,0,0,0,0,0,0,0,0,
282,283,283,283,283,283,283,284,0,0,0,0,0,0,0,0,0,0,0,0,0,0,0,0,0,0,0,0,0,0,0,0,0,0,0,0,0,0,0,0,0,0,0,0,0,0,0,0,0,0,
282,283,283,283,283,283,283,283,62,63,64,64,64,64,64,64,64,64,64,64,64,64,64,64,64,64,0,0,0,0,0,0,0,0,0,0,0,0,0,0,0,0,0,0,0,0,0,0,0,0,
282,283,283,283,283,283,283,283,81,82,83,83,83,83,83,83,83,83,83,83,83,83,83,83,83,83,0,0,0,0,0,0,0,0,0,0,0,0,0,0,0,0,0,0,0,0,0,0,0,0,
282,283,283,283,283,283,283,284,0,0,0,0,0,0,0,0,0,0,0,0,0,0,0,0,0,0,0,0,0,0,0,0,0,0,0,0,0,0,0,0,0,0,0,0,0,0,0,0,0,0,
301,302,282,283,284,302,302,303,0,0,0,0,0,0,0,0,0,0,0,0,0,0,0,0,0,0,0,0,0,0,0,0,0,0,0,0,0,0,0,0,0,0,0,0,0,0,0,0,0,0,
321,321,282,283,284,321,321,322,0,0,0,0,0,0,0,0,0,0,0,0,0,0,0,0,0,0,0,0,0,0,0,0,0,0,0,0,0,0,0,0,0,0,0,0,0,0,0,0,0,0,
320,321,282,283,284,321,321,322,0,0,0,0,0,0,0,0,0,0,0,0,0,0,0,0,0,0,0,0,0,0,0,0,0,0,0,0,0,0,0,0,0,0,0,0,0,0,0,0,0,0,
320,321,282,283,284,321,321,322,0,0,0,0,0,0,0,0,0,0,0,0,0,0,0,0,0,0,0,0,0,0,0,0,0,0,0,0,0,0,0,0,0,0,0,0,0,0,0,0,0,0,
339,340,282,283,284,340,340,341,0,0,0,0,0,0,0,0,0,0,0,0,0,0,0,0,0,0,0,0,0,0,0,0,0,0,0,0,0,0,0,0,0,0,0,0,0,0,0,0,0,0,
0,0,282,283,284,0,0,0,0,0,0,0,0,0,0,0,0,0,0,0,0,0,0,0,0,0,0,0,0,0,0,0,0,0,0,0,0,0,0,0,0,0,0,0,0,0,0,0,0,0,
0,0,282,283,284,0,0,0,0,0,0,0,0,0,0,0,0,0,0,0,0,0,0,0,0,0,0,0,0,0,0,0,0,0,0,0,0,0,0,0,0,0,0,0,0,0,0,0,0,0,
0,0,282,283,284,0,0,0,0,0,0,0,0,0,0,0,0,0,0,0,0,0,0,0,0,0,0,0,0,0,0,0,0,0,0,0,0,0,0,0,0,0,0,0,0,0,0,0,0,0,
0,0,282,283,284,0,0,0,0,0,0,0,0,0,0,0,0,0,0,0,0,0,0,0,0,0,0,0,0,0,0,0,0,0,0,0,0,0,0,0,0,0,0,0,0,0,0,0,0,0,
0,0,282,283,284,0,0,0,0,0,0,0,0,0,0,0,0,0,0,0,0,0,0,0,0,0,0,0,0,0,0,0,0,0,0,0,0,0,0,0,0,0,0,0,0,0,0,0,0,0,
0,0,282,283,284,0,0,0,0,0,0,0,0,0,0,0,0,0,0,0,0,0,0,0,0,0,0,0,0,0,0,0,0,0,0,0,0,0,0,0,0,0,0,0,0,0,0,0,0,0,
0,0,282,283,284,0,0,0,0,0,0,0,0,0,0,0,0,0,0,0,0,0,0,0,0,0,0,0,0,0,0,0,0,0,0,0,0,0,0,0,0,0,0,0,0,0,0,0,0,0,
0,0,282,283,284,0,0,0,0,0,0,0,0,0,0,0,0,0,0,0,0,0,0,0,0,0,0,0,0,0,0,0,0,0,0,0,0,0,0,0,0,0,0,0,0,0,0,0,0,0,
0,0,282,283,284,0,0,0,0,0,0,0,0,0,0,0,0,0,0,0,0,0,0,0,0,0,0,0,0,0,0,0,0,0,0,0,0,0,0,0,0,0,0,0,0,0,0,0,0,0,
0,0,282,283,284,0,0,0,0,0,0,0,0,0,0,0,0,0,0,0,0,0,0,0,0,0,0,0,0,0,0,0,0,0,0,0,0,0,0,0,0,0,0,0,0,0,0,0,0,0
</data>
 </layer>
 <objectgroup id="8" name="paths"/>
 <layer id="1" name="Tile Layer 1" width="50" height="50">
  <data encoding="csv">
0,0,0,0,0,0,0,0,0,0,0,0,0,0,0,0,0,0,0,0,0,0,0,0,0,0,0,0,0,0,0,0,0,0,0,0,0,0,0,0,0,0,0,0,0,0,0,0,0,0,
0,0,0,0,0,0,0,0,0,0,0,0,0,0,0,0,0,0,0,0,0,0,0,0,0,0,0,0,0,0,0,0,0,0,0,0,0,0,0,0,0,0,0,0,0,0,0,0,0,0,
0,0,0,0,0,0,0,0,0,0,0,0,0,0,0,0,0,0,0,0,0,0,0,0,0,0,0,0,0,0,0,0,0,0,0,0,0,0,0,0,0,0,0,0,0,0,0,0,0,0,
0,0,0,0,0,0,0,0,0,0,0,0,0,0,0,0,0,0,0,0,0,0,0,0,0,316,0,0,0,0,318,0,0,0,0,0,0,0,0,0,0,0,0,0,0,0,0,0,0,0,
0,0,0,0,0,0,0,0,0,0,0,0,0,0,0,0,0,0,0,0,0,0,0,0,0,316,0,0,0,0,318,0,0,0,0,0,0,0,0,0,0,0,0,0,0,0,0,0,0,0,
0,0,0,0,0,0,0,0,0,0,0,0,0,0,0,0,0,0,0,0,0,0,0,0,0,316,0,0,0,0,318,0,0,0,0,0,0,0,0,0,0,0,0,0,0,0,0,0,0,0,
0,0,0,0,0,0,0,0,0,0,0,0,0,0,0,0,0,0,0,0,0,0,0,0,0,0,0,0,0,0,0,0,0,0,0,0,0,0,0,0,0,0,0,0,0,0,0,0,0,0,
0,0,0,0,0,0,0,0,0,0,0,0,0,0,0,0,0,0,0,0,0,0,0,0,0,0,0,0,0,0,0,0,0,0,0,0,0,0,0,0,0,0,0,0,0,0,0,0,0,0,
264,264,264,264,264,264,264,264,264,264,264,264,264,265,0,0,0,0,0,0,0,0,0,0,0,0,0,0,0,0,0,0,0,0,0,0,0,0,0,0,0,0,0,0,0,0,0,0,0,0,
302,302,302,302,302,302,302,302,302,302,65,66,67,303,0,0,0,0,0,0,0,0,0,0,0,0,0,0,0,0,0,0,0,0,0,0,0,0,0,0,0,0,0,0,0,0,0,0,0,0,
336,340,340,340,336,340,340,340,336,340,65,66,67,341,0,0,0,0,0,0,0,0,0,0,0,0,0,0,0,0,0,0,0,0,0,0,0,0,0,0,0,0,0,0,0,0,0,0,0,0,
0,0,0,0,0,0,0,0,0,0,65,66,67,0,0,0,0,0,0,0,0,0,0,0,0,340,340,0,0,340,340,0,0,0,0,0,0,0,0,263,264,264,264,265,0,0,0,0,0,0,
0,0,0,0,0,0,0,0,0,0,65,66,67,0,0,0,0,0,0,0,0,0,0,0,0,0,0,0,0,0,0,0,0,0,0,0,0,0,0,301,302,302,302,303,0,0,0,0,0,0,
0,0,0,0,0,0,0,0,0,0,65,66,67,0,0,0,0,0,0,0,0,0,0,0,0,0,0,0,0,0,0,0,0,0,0,0,0,0,0,320,321,321,321,322,0,0,0,0,0,0,
0,0,0,0,0,0,0,0,0,0,84,85,86,0,0,0,0,0,0,0,0,0,0,0,0,0,0,0,0,0,0,0,0,0,0,0,0,0,0,320,255,256,257,322,0,0,0,0,0,0,
0,0,0,0,0,0,0,0,0,0,103,104,105,0,0,0,0,0,0,0,0,0,0,0,0,0,0,0,0,0,0,0,0,0,0,0,0,0,259,320,274,275,276,322,261,0,0,0,0,0,
0,0,0,0,0,0,0,263,264,264,283,283,283,264,264,264,264,264,265,0,0,0,0,0,0,0,0,0,0,0,0,0,0,0,0,0,0,0,278,225,293,294,295,227,280,0,0,0,0,0,
0,0,0,0,0,0,0,282,283,283,283,283,283,283,283,283,283,283,284,0,0,0,0,0,0,0,0,65,67,0,0,0,0,0,0,0,0,0,278,279,279,279,279,279,280,0,0,0,0,0,
0,0,0,0,0,0,0,282,283,283,283,283,283,283,283,283,283,283,284,62,63,64,64,64,64,64,64,3758096469,3758096469,64,64,64,64,64,64,64,64,64,278,279,279,279,279,279,280,0,0,0,0,0,
0,0,0,0,0,0,0,282,283,283,283,283,283,283,283,283,283,283,284,81,82,83,83,83,83,83,83,83,83,83,83,83,83,83,83,83,83,83,278,279,279,279,279,279,280,0,0,0,0,0,
0,0,0,0,0,0,0,282,283,283,283,283,283,283,283,283,283,283,284,0,0,0,0,0,0,0,0,65,67,0,0,0,0,0,0,0,0,0,301,302,302,302,302,302,303,0,0,0,0,0,
0,0,0,0,0,0,0,282,283,283,283,283,283,283,283,283,283,283,284,0,0,0,0,0,0,0,0,84,86,0,0,0,0,0,0,0,0,0,320,321,321,321,321,321,322,0,0,0,0,0,
0,0,0,0,0,0,0,301,302,302,302,302,302,302,302,302,302,302,303,0,0,0,0,0,0,0,0,103,105,0,0,0,0,0,0,0,0,0,320,317,321,321,321,317,322,0,0,0,0,0,
0,0,0,0,0,0,0,320,321,321,321,321,321,321,321,321,321,321,322,0,0,0,0,0,0,0,0,103,105,0,0,0,0,0,0,0,0,0,320,321,321,321,321,321,322,0,0,0,0,0,
0,0,0,0,0,0,0,320,321,321,321,321,321,321,321,321,321,321,322,0,0,0,0,0,0,0,0,103,105,0,0,0,0,0,0,0,0,0,320,317,321,321,321,317,322,0,0,0,0,0,
0,0,0,0,0,0,0,339,340,340,340,340,340,340,340,340,340,340,341,0,0,0,0,0,0,0,0,103,105,0,0,0,0,0,0,0,0,0,320,321,321,321,321,321,322,0,0,0,0,0,
0,0,0,0,0,0,0,0,0,0,0,0,0,0,0,0,0,0,0,0,0,0,0,0,0,0,0,103,105,0,0,0,0,0,0,0,0,0,320,317,321,321,321,317,322,0,0,0,0,0,
0,0,0,0,0,0,0,0,0,0,0,0,0,0,0,0,0,0,0,0,0,0,0,0,0,0,0,103,105,0,0,0,0,0,0,0,0,0,320,321,255,256,257,321,322,0,0,0,0,0,
0,0,0,0,0,0,0,0,0,0,0,0,0,0,0,0,0,0,0,0,0,0,0,0,0,0,0,103,105,0,0,0,0,0,0,0,0,0,320,321,274,275,276,321,322,0,0,0,0,0,
0,0,0,0,0,0,0,0,0,0,0,0,0,0,0,0,0,0,0,0,0,0,0,0,0,0,0,103,105,0,0,0,0,0,0,0,0,263,225,340,293,294,295,340,227,265,0,0,0,0,
0,0,0,0,0,0,0,0,0,0,0,0,0,0,0,0,0,0,0,0,0,0,0,0,0,0,0,103,105,0,0,0,0,0,0,0,0,282,283,283,283,283,283,283,283,284,0,0,0,0,
0,0,0,0,0,0,0,0,0,0,0,0,0,0,0,0,0,0,0,0,0,0,0,0,0,0,263,264,264,265,0,0,0,0,0,0,0,282,283,283,283,283,283,283,283,284,0,0,0,0,
0,0,0,0,0,0,0,0,0,0,0,0,0,0,0,0,0,0,0,0,0,0,0,0,0,0,282,283,283,284,62,63,64,64,64,64,64,282,283,283,283,283,283,283,283,284,0,0,0,0,
0,0,0,0,0,0,0,0,0,0,0,0,0,0,0,0,0,0,0,0,0,0,0,0,0,0,282,283,283,284,81,82,83,83,83,83,83,282,283,283,283,283,283,283,283,284,0,0,0,0,
0,0,0,0,0,0,0,0,0,0,0,0,0,0,0,0,0,0,0,0,0,0,0,0,0,0,282,283,283,284,0,0,0,0,0,0,0,282,283,283,283,283,283,283,283,284,0,0,0,0,
0,0,0,0,0,0,0,0,0,0,0,0,0,0,0,0,0,0,0,0,0,0,0,0,0,0,301,302,302,303,0,0,0,0,0,0,0,282,283,283,283,283,283,283,283,284,0,0,0,0,
0,0,0,0,0,0,0,0,0,0,0,0,0,0,0,0,0,0,0,0,0,0,0,0,0,0,320,321,321,322,0,0,0,0,0,0,0,301,302,302,302,302,302,302,302,303,0,0,0,0,
0,0,0,0,0,0,0,0,0,0,0,0,0,0,0,0,0,0,0,0,0,0,0,0,0,0,320,321,321,322,0,0,0,0,0,0,0,320,321,321,321,321,321,321,321,322,0,0,0,0,
0,0,0,0,0,0,0,0,0,0,0,0,0,0,0,0,0,0,0,0,0,0,0,0,0,0,320,321,321,322,0,0,0,0,0,0,0,320,321,321,321,321,321,321,321,322,0,0,0,0,
0,0,0,0,0,0,0,0,0,0,0,0,0,0,0,0,0,0,0,0,0,0,0,0,0,0,320,321,321,322,0,0,0,0,0,0,0,320,321,321,321,321,321,321,321,322,0,0,0,0,
0,0,0,0,0,0,0,0,0,0,0,0,0,0,0,0,0,0,0,0,0,0,0,0,0,0,320,321,321,322,0,0,0,0,0,0,0,320,321,321,321,321,321,321,321,322,0,0,0,0,
0,0,0,0,0,0,0,0,0,0,0,0,0,0,0,0,0,0,0,0,0,0,0,0,0,0,339,340,340,341,0,0,0,0,0,0,0,320,321,321,321,321,321,321,321,322,0,0,0,0,
0,0,0,0,0,0,0,0,0,0,0,0,0,0,0,0,0,0,0,0,0,0,0,0,0,0,0,0,0,0,0,0,0,0,0,0,0,320,321,321,321,321,321,321,321,322,0,0,0,0,
0,0,0,0,0,0,0,0,0,0,0,0,0,0,0,0,0,0,0,0,0,0,0,0,0,0,0,0,0,0,0,0,0,0,0,0,0,320,321,321,321,321,321,321,321,322,0,0,0,0,
0,0,0,0,0,0,0,0,0,0,0,0,0,0,0,0,0,0,0,0,0,0,0,0,0,0,0,0,0,0,0,0,0,0,0,0,0,320,321,321,321,321,321,321,321,322,0,0,0,0,
0,0,0,0,0,0,0,0,0,0,0,0,0,0,0,0,0,0,0,0,0,0,0,0,0,0,0,0,0,0,0,0,0,0,0,0,0,320,321,321,321,321,321,321,321,322,0,0,0,0,
0,0,0,0,0,0,0,0,0,0,0,0,0,0,0,0,0,0,0,0,0,0,0,0,0,0,0,0,0,0,0,0,0,0,0,0,0,320,321,321,321,321,321,321,321,322,0,0,0,0,
0,0,0,0,0,0,0,0,0,0,0,0,0,0,0,0,0,0,0,0,0,0,0,0,0,0,0,0,0,0,0,0,0,0,0,0,0,320,321,321,321,321,321,321,321,322,0,0,0,0,
0,0,0,0,0,0,0,0,0,0,0,0,0,0,0,0,0,0,0,0,0,0,0,0,0,0,0,0,0,0,0,0,0,0,0,0,0,320,321,321,321,321,321,321,321,322,0,0,0,0,
0,0,0,0,0,0,0,0,0,0,0,0,0,0,0,0,0,0,0,0,0,0,0,0,0,0,0,0,0,0,0,0,0,0,0,0,0,320,321,321,321,321,321,321,321,322,0,0,0,0
</data>
 </layer>
 <objectgroup color="#ff55ff" id="3" name="objects">
  <object id="1" name="chest" x="1120" y="361">
   <properties>
    <property name="item" value="pocket_pie"/>
   </properties>
   <point/>
  </object>
  <object id="38" name="interactable" x="1520" y="1160" width="118" height="40">
   <properties>
    <property name="text1">* (The wall looks huggable.)
* (You resist the urge to hug it.)</property>
   </properties>
  </object>
  <object id="39" name="interactable" x="1680" y="1160" width="105" height="40">
   <properties>
    <property name="text1">* (The wall looks huggable.)
* (You resist the urge to hug it.)</property>
   </properties>
  </object>
  <object id="41" name="transition" x="1640" y="640" width="40" height="40">
   <properties>
    <property name="facing" value="down"/>
    <property name="map" value="recep3"/>
    <property name="marker" value="entranceB"/>
   </properties>
  </object>
  <object id="42" name="transition" x="1640" y="1160" width="40" height="40">
   <properties>
    <property name="map" value="recep3"/>
    <property name="marker" value="entranceC"/>
   </properties>
  </object>
  <object id="62" name="transition" x="-40" y="320" width="40" height="40">
   <properties>
    <property name="map" value="recep2"/>
    <property name="marker" value="entrance"/>
   </properties>
  </object>
  <object id="78" name="enemy" x="80" y="1240" width="31.5" height="28.5">
   <properties>
    <property name="actor" value="dusteer"/>
    <property name="chase" type="bool" value="true"/>
    <property name="encounter" value="dusteer"/>
    <property name="enemy" value="dusteer"/>
    <property name="once" type="bool" value="true"/>
   </properties>
  </object>
  <object id="136" name="script" x="0" y="280" width="43" height="77">
   <properties>
    <property name="cutscene" value="kris.soul"/>
   </properties>
  </object>
  <object id="138" name="transition" x="80" y="2000" width="118.339" height="44.2818">
   <properties>
    <property name="map" value="recep4"/>
    <property name="marker" value="entranceA"/>
   </properties>
  </object>
  <object id="139" name="entranceC" x="136.888" y="1977.36">
   <point/>
  </object>
  <object id="140" name="warning_spawner" x="760" y="720" width="754" height="79.0909">
   <properties>
    <property name="lanes" type="int" value="7"/>
   </properties>
   <polygon points="0,0 754,0 754,79.0909 0,79.0909"/>
  </object>
  <object id="142" name="enemy" x="456.25" y="763.75" width="31.5" height="28.5">
   <properties>
    <property name="actor" value="dusteer"/>
    <property name="chase" type="bool" value="true"/>
    <property name="encounter" value="dusteer1"/>
    <property name="enemy" value="dusteer"/>
    <property name="once" type="bool" value="true"/>
   </properties>
  </object>
  <object id="158" name="warning_spawner" x="1080" y="443.333" width="80" height="276.667">
   <properties>
    <property name="lanes" type="int" value="7"/>
   </properties>
   <polygon points="0,0 80,0 80,276.667 0,276.667"/>
  </object>
  <object id="140" name="interactable" x="1080.27" y="1201.19" width="81.8333" height="38.9091">
   <properties>
    <property name="text1" value="* Seems the path is blocked by dog cones."/>
   </properties>
  </object>
  <object id="144" gid="362" x="1078.45" y="1240" width="28" height="38"/>
  <object id="146" gid="362" x="1106.64" y="1240" width="28" height="38"/>
  <object id="148" gid="362" x="1133" y="1240" width="28" height="38"/>
 </objectgroup>
 <objectgroup color="#aa00ff" id="4" name="markers" visible="0">
  <object id="2" name="entranceA" x="35.9997" y="345">
   <point/>
  </object>
  <object id="40" name="entranceB" x="1660" y="1253">
   <point/>
  </object>
  <object id="64" name="entranceC" x="1661.17" y="752.167">
   <point/>
  </object>
 </objectgroup>
 <objectgroup color="#0000ff" id="5" name="collision">
  <object id="3" x="0" y="280" width="560" height="40"/>
  <object id="4" x="0" y="360" width="400" height="40"/>
  <object id="5" x="520" y="360" width="40" height="40"/>
  <object id="6" x="560" y="320" width="40" height="40"/>
  <object id="7" x="360" y="400" width="40" height="240"/>
  <object id="8" x="520" y="400" width="40" height="240"/>
  <object id="9" x="560" y="600" width="200" height="40"/>
  <object id="10" x="760" y="640" width="40" height="80"/>
  <object id="11" x="760" y="800" width="40" height="80"/>
  <object id="12" x="280" y="880" width="480" height="40"/>
  <object id="13" x="240" y="640" width="40" height="240"/>
  <object id="14" x="280" y="600" width="80" height="40"/>
  <object id="17" x="800" y="680" width="280" height="40"/>
  <object id="18" x="760" y="790" width="760" height="40"/>
  <object id="19" x="1480" y="600" width="40" height="80"/>
  <object id="20" x="1520" y="560" width="280" height="40"/>
  <object id="21" x="1800" y="600" width="40" height="240"/>
  <object id="23" x="1520" y="800" width="280" height="40"/>
  <object id="24" x="1480" y="1120" width="40" height="40"/>
  <object id="25" x="1440" y="1160" width="40" height="120"/>
  <object id="26" x="1800" y="1120" width="40" height="40"/>
  <object id="27" x="1840" y="1160" width="40" height="280"/>
  <object id="28" x="1200" y="1240" width="240" height="40"/>
  <object id="29" x="1160" y="832" width="40" height="408"/>
  <object id="31" x="1040" y="831.5" width="40" height="408.5"/>
  <object id="32" x="321.333" y="1126.67" width="40" height="160"/>
  <object id="33" x="1040" y="1400" width="160" height="40"/>
  <object id="34" x="1200" y="1360" width="280" height="40"/>
  <object id="35" x="1440" y="1400" width="40" height="40"/>
  <object id="36" x="1480" y="1440" width="360" height="40"/>
  <object id="43" x="1560.5" y="600" width="72" height="80"/>
  <object id="44" x="1688" y="600" width="72" height="80"/>
  <object id="45" x="1520" y="1120" width="113.5" height="80"/>
  <object id="46" x="1686.75" y="1120" width="113.25" height="80"/>
  <object id="47" x="1600" y="1080" width="160" height="40"/>
  <object id="48" x="1160" y="400" width="120" height="40"/>
  <object id="49" x="960" y="400" width="120" height="40"/>
  <object id="50" x="920" y="280" width="40" height="120"/>
  <object id="51" x="960" y="240" width="40" height="40"/>
  <object id="52" x="1240" y="240" width="40" height="40"/>
  <object id="53" x="1280" y="280" width="40" height="120"/>
  <object id="54" x="960" y="0" width="40" height="280"/>
  <object id="55" x="1240" y="0" width="40" height="240"/>
  <object id="56" x="1000" y="280" width="240" height="40"/>
  <object id="65" x="360" y="1240" width="680" height="40"/>
  <object id="66" x="320" y="1360" width="720" height="40"/>
  <object id="67" x="200" y="1400" width="120" height="40"/>
  <object id="69" x="200" y="1440" width="40" height="562"/>
  <object id="70" x="0" y="1400" width="80" height="600"/>
  <object id="71" x="-40" y="1200" width="40" height="200"/>
  <object id="72" x="0" y="1160" width="320" height="40"/>
  <object id="150" x="1160" y="680" width="360" height="40"/>
  <object id="151" x="1040" y="480" width="40" height="200"/>
  <object id="152" x="1160" y="480" width="40" height="200"/>
  <object id="153" x="1040" y="440" width="40" height="40"/>
  <object id="154" x="1160" y="440" width="40" height="40"/>
  <object id="150" x="1078.55" y="1201.45" width="84" height="38.5455"/>
 </objectgroup>
 <objectgroup color="#55aaff" id="9" name="enemycollision">
  <object id="84" x="0" y="280" width="560" height="40"/>
  <object id="85" x="0" y="360" width="400" height="40"/>
  <object id="86" x="520" y="360" width="40" height="40"/>
  <object id="87" x="560" y="320" width="40" height="40"/>
  <object id="88" x="360" y="400" width="40" height="240"/>
  <object id="89" x="520" y="400" width="40" height="240"/>
  <object id="90" x="560" y="600" width="200" height="40"/>
  <object id="91" x="759" y="640" width="40" height="188"/>
  <object id="92" x="760" y="800" width="40" height="80"/>
  <object id="93" x="280" y="880" width="480" height="40"/>
  <object id="94" x="240" y="640" width="40" height="240"/>
  <object id="95" x="280" y="600" width="80" height="40"/>
  <object id="97" x="760" y="790" width="760" height="40"/>
  <object id="98" x="1480" y="600" width="40" height="80"/>
  <object id="99" x="1520" y="560" width="280" height="40"/>
  <object id="100" x="1800" y="600" width="40" height="240"/>
  <object id="101" x="1520" y="800" width="280" height="40"/>
  <object id="102" x="1480" y="1120" width="40" height="40"/>
  <object id="103" x="1440" y="1160" width="40" height="120"/>
  <object id="104" x="1800" y="1120" width="40" height="40"/>
  <object id="105" x="1840" y="1160" width="40" height="280"/>
  <object id="106" x="1200" y="1240" width="240" height="40"/>
  <object id="107" x="1160" y="832" width="40" height="408"/>
  <object id="108" x="1040" y="831.5" width="40" height="408.5"/>
  <object id="109" x="321.333" y="1155.67" width="40" height="241"/>
  <object id="110" x="1040" y="1400" width="160" height="40"/>
  <object id="111" x="1200" y="1360" width="280" height="40"/>
  <object id="112" x="1440" y="1400" width="40" height="40"/>
  <object id="113" x="1480" y="1440" width="360" height="40"/>
  <object id="114" x="1560" y="600" width="80" height="80"/>
  <object id="115" x="1680" y="600" width="80" height="80"/>
  <object id="116" x="1520" y="1120" width="120" height="80"/>
  <object id="117" x="1680" y="1120" width="120" height="80"/>
  <object id="118" x="1600" y="1080" width="160" height="40"/>
  <object id="119" x="1160" y="400" width="120" height="40"/>
  <object id="120" x="960" y="400" width="120" height="40"/>
  <object id="121" x="920" y="280" width="40" height="120"/>
  <object id="122" x="960" y="240" width="40" height="40"/>
  <object id="123" x="1240" y="240" width="40" height="40"/>
  <object id="124" x="1280" y="280" width="40" height="120"/>
  <object id="125" x="960" y="0" width="40" height="280"/>
  <object id="126" x="1240" y="0" width="40" height="240"/>
  <object id="127" x="1000" y="280" width="240" height="40"/>
  <object id="128" x="360" y="1240" width="680" height="40"/>
  <object id="129" x="320" y="1360" width="720" height="40"/>
  <object id="130" x="200" y="1400" width="120" height="40"/>
  <object id="131" x="200" y="1440" width="40" height="562"/>
  <object id="132" x="0" y="1400" width="80" height="600"/>
  <object id="133" x="-40" y="1200" width="40" height="200"/>
  <object id="134" x="0" y="1160" width="320" height="40"/>
 </objectgroup>
</map>
