<?xml version="1.0" encoding="UTF-8"?>
<map version="1.10" tiledversion="1.11.2" orientation="orthogonal" renderorder="right-down" width="34" height="17" tilewidth="40" tileheight="40" infinite="0" nextlayerid="15" nextobjectid="26">
 <editorsettings>
  <export target="recep1.lua" format="lua"/>
 </editorsettings>
 <properties>
  <property name="music" value="hallway"/>
  <property name="name" value="Receptionist Bridge"/>
 </properties>
 <tileset firstgid="1" name="Receptionist" tilewidth="16" tileheight="16" tilecount="361" columns="19" tilerendersize="grid">
  <image source="../../../assets/sprites/tilesets/Receptionist.png" width="318" height="308"/>
 </tileset>
 <tileset firstgid="362" source="../tilesets/Receptionist.tsx"/>
 <imagelayer id="10" name="Image Layer 1" tintcolor="#646578" offsetx="-23" offsety="533" parallaxx="0.3" parallaxy="0.3" repeatx="1" repeaty="1">
  <image source="../../../assets/sprites/tilesets/indoors recep bg_1.png" width="972" height="848"/>
 </imagelayer>
 <layer id="14" name="downwards" width="34" height="17" tintcolor="#afafd1">
  <data encoding="csv">
0,0,0,0,0,0,0,0,0,0,0,0,0,0,0,0,0,0,0,0,0,0,0,0,0,0,0,0,0,0,0,0,0,0,
0,0,0,0,0,0,0,0,0,0,0,0,0,0,0,0,0,0,0,0,0,0,0,0,0,0,0,0,0,0,0,0,0,0,
0,0,0,0,0,0,0,0,0,0,0,0,0,0,0,0,0,0,0,0,0,0,0,0,0,0,0,0,0,0,0,0,0,0,
0,0,0,0,0,0,301,302,302,302,302,302,302,302,0,0,0,0,0,0,0,0,0,0,0,0,0,0,0,0,0,0,0,0,
0,0,0,0,0,0,320,317,321,317,321,317,321,321,0,0,0,0,0,0,0,0,0,0,0,0,0,0,0,0,0,0,0,0,
0,0,0,0,0,0,320,321,321,321,321,321,321,321,0,0,0,0,0,0,0,0,0,0,0,0,0,0,0,0,0,0,0,0,
0,0,0,0,0,0,320,317,0,317,0,317,0,321,0,0,0,0,0,0,0,0,0,0,0,0,0,0,0,0,0,0,0,0,
0,0,0,0,0,0,0,340,340,340,340,340,340,340,0,0,0,0,0,0,0,0,0,0,0,0,0,0,0,0,0,0,0,0,
0,0,0,0,0,0,0,0,0,0,0,0,0,0,0,0,0,0,0,0,0,0,0,0,0,0,0,0,0,0,0,0,0,0,
0,0,0,0,0,0,0,0,0,0,0,0,0,0,0,0,0,0,0,0,0,0,0,0,0,0,0,0,0,0,0,0,0,0,
0,0,0,0,0,0,0,0,0,0,0,0,0,0,0,0,0,0,0,0,0,0,0,0,0,0,0,0,0,0,0,0,0,0,
0,0,0,0,0,0,0,0,663,659,663,663,663,663,659,663,663,663,663,659,663,663,663,663,659,663,663,663,659,659,663,663,663,659,
0,0,0,0,0,0,0,0,321,321,321,321,321,321,682,321,321,321,321,321,321,321,321,321,321,321,321,321,321,321,321,321,321,321,
0,0,0,0,0,0,0,0,321,678,321,321,321,321,678,321,321,321,321,678,321,321,321,321,678,321,321,321,678,678,321,321,321,678,
0,0,0,0,0,0,0,0,321,321,321,321,321,321,321,321,321,321,321,321,321,321,321,321,321,321,321,321,321,321,321,321,321,321,
0,0,0,0,0,0,0,0,321,678,321,321,321,321,678,321,321,321,321,678,321,321,321,321,678,321,321,321,678,678,321,321,321,678,
0,0,0,0,0,0,0,0,0,0,0,0,0,0,0,0,0,0,0,0,0,0,0,0,0,0,0,0,0,0,0,0,0,0
</data>
 </layer>
 <layer id="3" name="Tile Layer 1" width="34" height="17" tintcolor="#afafd1">
  <data encoding="csv">
0,0,0,0,0,0,0,0,0,0,0,0,0,0,0,0,0,0,0,0,0,0,0,0,0,0,0,0,0,0,0,0,0,0,
0,0,0,0,0,0,263,264,264,264,264,264,264,264,264,264,265,0,0,0,0,0,0,0,0,0,0,0,0,0,0,0,0,0,
0,0,0,0,0,0,282,283,283,283,283,283,283,283,283,283,284,0,0,0,0,0,0,0,0,0,0,0,0,0,0,0,0,0,
0,0,0,0,0,0,0,0,0,0,0,0,0,0,282,283,284,0,0,0,0,0,0,0,0,0,0,0,0,0,0,0,0,0,
0,0,0,0,0,0,0,0,0,0,0,0,0,0,282,283,284,0,0,0,0,0,0,0,0,0,0,0,0,0,0,0,0,0,
0,0,0,0,0,0,0,0,0,0,0,0,0,0,278,279,280,0,0,0,0,0,0,0,0,0,0,0,0,0,0,0,0,0,
0,0,0,0,0,0,0,0,682,0,682,0,682,0,278,279,280,0,0,0,0,0,0,0,0,0,0,0,0,0,0,0,0,0,
0,0,0,0,0,263,225,0,0,0,0,0,0,0,278,279,280,0,0,0,0,0,0,0,0,0,0,0,0,0,0,0,0,0,
0,0,0,0,0,282,283,283,283,283,283,283,283,283,283,283,283,621,621,621,621,621,621,621,621,621,621,621,621,621,621,621,621,621,
0,0,0,0,0,282,283,283,283,283,283,283,283,283,283,283,283,640,640,640,640,640,640,640,640,640,640,640,640,640,640,640,640,640,
0,0,0,0,0,282,283,644,644,644,644,644,644,644,644,644,644,640,640,640,640,640,640,640,640,640,640,640,640,640,640,640,640,640,
0,0,0,0,0,282,283,284,0,0,0,0,0,0,0,0,0,0,0,0,0,0,0,0,0,0,0,0,0,0,0,0,0,0,
0,0,0,0,0,282,283,284,0,0,0,0,0,0,0,0,0,0,0,0,0,0,0,0,0,0,0,0,0,0,0,0,0,0,
0,0,0,0,0,282,283,284,0,0,0,0,0,0,0,0,0,0,0,0,0,0,0,0,0,0,0,0,0,0,0,0,0,0,
0,0,0,0,0,282,283,284,0,0,0,0,0,0,0,0,0,0,0,0,0,0,0,0,0,0,0,0,0,0,0,0,0,0,
0,0,0,0,0,282,283,284,0,0,0,0,0,0,0,0,0,0,0,0,0,0,0,0,0,0,0,0,0,0,0,0,0,0,
0,0,0,0,0,643,644,645,0,0,0,0,0,0,0,0,0,0,0,0,0,0,0,0,0,0,0,0,0,0,0,0,0,0
</data>
 </layer>
 <objectgroup color="#ff00ff" id="4" name="objects">
  <object id="2" name="transition" x="1320.27" y="317.911" width="39.8111" height="123.311">
   <properties>
    <property name="map" value="recep2"/>
    <property name="marker" value="entranceA"/>
   </properties>
  </object>
  <object id="17" name="transition" x="197.572" y="682.75" width="124.217" height="41.4056">
   <properties>
    <property name="map" value="recep_start"/>
    <property name="marker" value="entranceA"/>
   </properties>
  </object>
  <object id="20" name="chest" x="304.667" y="63.3333" width="34" height="34">
   <properties>
    <property name="item" value="sharp_syringe"/>
   </properties>
  </object>
  <object id="21" name="enemy" x="396" y="57" width="54" height="44">
   <properties>
    <property name="actor" value="sirengeist"/>
    <property name="chase" type="bool" value="true"/>
    <property name="encounter" value="sirengeist3"/>
    <property name="enemy" value="sirengeist"/>
    <property name="once" type="bool" value="true"/>
   </properties>
  </object>
  <object id="22" name="script" x="221.333" y="522.333" width="80" height="80">
   <properties>
    <property name="cutscene" value="musicnotif.recep"/>
   </properties>
  </object>
 </objectgroup>
 <objectgroup color="#aa00ff" id="6" name="markers" tintcolor="#afafd1">
  <object id="3" name="entranceA" x="255.978" y="583.75">
   <point/>
  </object>
  <object id="16" name="entrance2" x="1149.09" y="375.317">
   <point/>
  </object>
  <object id="25" name="spawn" x="560" y="360">
   <point/>
  </object>
 </objectgroup>
 <objectgroup color="#0055ff" id="7" name="collision" visible="0">
  <object id="4" x="203.239" y="239.1" width="41.4056" height="41.4056"/>
  <object id="5" x="161.833" y="239.1" width="41.4056" height="414.056"/>
  <object id="6" x="320" y="440" width="41.4056" height="248.433"/>
  <object id="7" x="360" y="440" width="1001.14" height="41.4056"/>
  <object id="8" x="672.772" y="281.839" width="697.894" height="37.4056"/>
  <object id="9" x="678.439" y="33.4056" width="41.4056" height="248.433"/>
  <object id="11" x="239.311" y="276.506" width="318.506" height="41.4056"/>
  <object id="12" x="230.645" y="118.217" width="327.839" height="41.4056"/>
  <object id="13" x="201.239" y="38.7389" width="41.4056" height="82.8111"/>
  <object id="14" x="220.645" y="-3.33337" width="455.461" height="41.4056"/>
  <object id="24" x="522" y="158" width="40" height="120"/>
 </objectgroup>
 <layer id="5" name="Tile Layer 2" width="34" height="17" visible="0" tintcolor="#797ea3" offsetx="250" offsety="0" parallaxx="1.3">
  <data encoding="csv">
0,0,0,0,0,0,0,0,0,0,0,0,0,0,0,0,0,0,0,0,0,0,0,0,0,0,0,0,320,321,321,321,321,321,
0,0,0,0,0,0,0,0,0,0,0,0,0,0,0,0,0,0,0,0,0,0,0,0,0,0,0,0,320,321,321,321,321,321,
0,0,0,0,0,0,0,0,0,0,0,0,0,0,0,0,0,0,0,0,0,0,0,0,0,0,0,0,320,321,321,321,321,321,
0,0,0,0,0,0,0,0,0,0,0,0,0,0,0,0,0,0,0,0,0,0,0,0,0,0,0,0,320,321,321,321,321,321,
0,0,0,0,0,0,0,0,0,0,0,0,0,0,0,0,0,0,0,0,0,0,0,0,0,0,0,0,320,321,321,321,321,321,
0,0,0,0,0,0,0,0,0,0,0,0,0,0,0,0,0,0,0,0,0,0,0,0,0,0,0,0,320,321,321,321,321,321,
0,0,0,0,0,0,0,0,0,0,0,0,0,0,0,0,0,0,0,0,0,0,0,0,0,0,0,0,320,321,321,321,321,321,
0,0,0,0,0,0,0,0,0,0,0,0,0,0,0,0,0,0,0,0,0,0,0,0,0,0,0,0,320,321,321,321,321,321,
0,0,0,0,0,0,0,0,0,0,0,0,0,0,0,0,0,0,0,0,0,0,0,0,0,0,0,0,320,321,321,321,321,321,
0,0,0,0,0,0,0,0,0,0,0,0,0,0,0,0,0,0,0,0,0,0,0,0,0,0,0,0,320,321,321,321,321,321,
0,0,0,0,0,0,0,0,0,0,0,0,0,0,0,0,0,0,0,0,0,0,0,0,0,0,0,0,320,321,321,321,321,321,
0,0,0,0,0,0,0,0,0,0,0,0,0,0,0,0,0,0,0,0,0,0,0,0,0,0,0,0,320,321,321,321,321,321,
0,0,0,0,0,0,0,0,0,0,0,0,0,0,0,0,0,0,0,0,0,0,0,0,0,0,0,0,320,321,321,321,321,321,
0,0,0,0,0,0,0,0,0,0,0,0,0,0,0,0,0,0,0,0,0,0,0,0,0,0,0,0,320,321,321,321,321,321,
0,0,0,0,0,0,0,0,0,0,0,0,0,0,0,0,0,0,0,0,0,0,0,0,0,0,0,0,320,321,321,321,321,321,
0,0,0,0,0,0,0,0,0,0,0,0,0,0,0,0,0,0,0,0,0,0,0,0,0,0,0,0,320,321,321,321,321,321,
0,0,0,0,0,0,0,0,0,0,0,0,0,0,0,0,0,0,0,0,0,0,0,0,0,0,0,0,0,0,0,0,0,0
</data>
 </layer>
 <objectgroup color="#ff0000" id="11" name="paths"/>
 <objectgroup color="#00c000" id="12" name="controllers"/>
 <objectgroup color="#00ff00" id="13" name="battleareas"/>
</map>
