<?xml version="1.0" encoding="UTF-8"?>
<map version="1.10" tiledversion="1.11.2" orientation="orthogonal" renderorder="right-down" width="20" height="15" tilewidth="40" tileheight="40" infinite="0" nextlayerid="13" nextobjectid="32">
 <editorsettings>
  <export target="recep2a.lua" format="lua"/>
 </editorsettings>
 <properties>
  <property name="music" value="hallway"/>
 </properties>
 <tileset firstgid="1" source="../tilesets/Receptionist.tsx"/>
 <imagelayer id="2" name="bg" visible="0" tintcolor="#646578" offsetx="-68" offsety="-82">
  <image source="../../../assets/sprites/tilesets/indoors recep bg_1.png" width="972" height="848"/>
 </imagelayer>
 <layer id="1" name="Tile Layer 1" width="20" height="15" tintcolor="#afafd1">
  <data encoding="csv">
0,0,0,0,0,0,320,321,317,321,321,321,317,321,322,0,0,0,0,0,
0,0,0,0,0,0,320,321,321,321,321,321,321,321,322,0,0,0,0,0,
0,0,0,0,0,0,320,321,317,321,321,321,317,321,322,0,0,0,0,0,
0,0,0,0,0,0,320,321,321,321,321,321,321,321,322,0,0,0,0,0,
0,0,0,0,0,0,320,321,317,321,321,321,317,321,322,0,0,0,0,0,
0,0,0,0,0,0,320,321,321,321,321,321,321,321,322,0,0,0,0,0,
0,0,0,0,0,0,320,321,321,321,321,321,321,321,322,0,0,0,0,0,
0,0,0,0,0,263,264,264,264,264,264,264,264,264,264,32,32,32,33,0,
0,0,0,0,0,282,283,283,283,283,283,283,283,283,283,51,51,51,52,0,
0,0,0,0,0,282,283,283,283,283,283,283,283,283,283,51,51,51,52,0,
0,0,0,0,0,282,283,283,283,283,283,283,283,283,283,51,51,51,284,0,
0,0,0,0,0,0,0,0,282,283,283,283,284,0,0,0,0,0,0,0,
0,0,0,0,0,0,0,0,282,283,283,283,284,0,0,0,0,0,0,0,
0,0,0,0,0,0,0,0,282,283,283,283,284,0,0,0,0,0,0,0,
0,0,0,0,0,0,0,0,282,283,283,283,284,0,0,0,0,0,0,0
</data>
 </layer>
 <layer id="12" name="boom" width="20" height="15" tintcolor="#afafd1">
  <data encoding="csv">
0,0,0,0,0,0,0,0,0,0,0,0,0,0,0,0,0,0,0,0,
0,0,0,0,0,0,0,0,0,0,0,0,0,0,0,0,0,0,0,0,
0,0,0,0,0,0,0,0,0,0,0,0,0,0,0,0,0,0,0,0,
0,0,0,0,0,0,0,0,0,0,0,0,0,0,0,0,0,0,0,0,
0,0,0,0,0,0,0,0,0,0,0,0,0,0,0,0,0,0,0,0,
0,0,0,0,0,0,0,0,0,0,0,0,0,0,0,0,0,0,0,0,
0,0,0,0,0,0,0,0,0,0,0,0,0,0,0,0,0,0,0,0,
0,0,0,0,0,0,0,0,0,0,0,0,0,0,0,0,0,0,0,0,
0,0,0,0,0,0,0,0,0,0,0,0,0,0,0,0,0,0,0,0,
0,0,0,0,0,0,0,0,0,0,0,0,0,0,0,0,0,0,0,0,
0,0,0,0,0,0,0,0,0,0,0,0,0,0,0,0,0,0,0,0,
0,0,0,0,0,301,302,302,0,0,0,0,0,302,302,302,302,302,71,0,
0,0,0,0,0,339,340,340,0,0,0,0,0,340,340,226,226,226,109,0,
0,0,0,0,0,0,0,0,0,0,0,0,0,0,0,0,0,0,0,0,
0,0,0,0,0,0,0,0,0,0,0,0,0,0,0,0,0,0,0,0
</data>
 </layer>
 <objectgroup color="#0000ff" id="3" name="collision" visible="0">
  <object id="1" x="200" y="240" width="440" height="40"/>
  <object id="3" x="520" y="440" width="120" height="40"/>
  <object id="4" x="520" y="480" width="40" height="120"/>
  <object id="5" x="280" y="440" width="40" height="160"/>
  <object id="6" x="200" y="440" width="80" height="40"/>
  <object id="7" x="160" y="280" width="40" height="160"/>
  <object id="15" x="642" y="239.667" width="160" height="40"/>
  <object id="16" x="760.615" y="284" width="40" height="155"/>
  <object id="17" x="642.25" y="441.5" width="160" height="40"/>
 </objectgroup>
 <objectgroup color="#ff55ff" id="4" name="objects" visible="0">
  <object id="9" name="transition" x="320" y="595" width="200" height="40">
   <properties>
    <property name="map" value="recep2"/>
    <property name="marker" value="entranceB"/>
   </properties>
  </object>
  <object id="10" name="chest" x="723" y="359">
   <properties>
    <property name="item" value="honey_drop"/>
   </properties>
   <point/>
  </object>
  <object id="24" name="forcefield" x="643" y="279" width="38" height="159">
   <properties>
    <property name="cond" value="not (Game:getFlag(&quot;heart_solved&quot;, 0) &gt;= 1)"/>
   </properties>
  </object>
  <object id="25" name="heartbutton" x="320" y="339.5" width="37" height="38">
   <properties>
    <property name="button_id" type="int" value="1"/>
   </properties>
  </object>
  <object id="26" name="heartbutton" x="420" y="339.5" width="37" height="38">
   <properties>
    <property name="button_id" type="int" value="2"/>
   </properties>
  </object>
  <object id="27" name="heartbutton" x="520" y="339.5" width="40" height="40.5">
   <properties>
    <property name="button_id" type="int" value="3"/>
   </properties>
  </object>
  <object id="28" name="heartscreen" x="351.66" y="136" width="30" height="10"/>
  <object id="31" name="hideparty" x="237" y="280" width="363" height="158"/>
 </objectgroup>
 <objectgroup id="9" name="objects_party" visible="0"/>
 <objectgroup color="#55ff7f" id="11" name="controllers" visible="0"/>
 <objectgroup color="#aa55ff" id="5" name="markers" visible="0">
  <object id="8" name="entranceA" x="422" y="543">
   <point/>
  </object>
 </objectgroup>
</map>
