<?xml version="1.0" encoding="UTF-8"?>
<map version="1.10" tiledversion="1.11.2" orientation="orthogonal" renderorder="right-down" width="20" height="40" tilewidth="40" tileheight="40" infinite="0" backgroundcolor="#010110" nextlayerid="9" nextobjectid="53">
 <editorsettings>
  <export target="recep_start.lua" format="lua"/>
 </editorsettings>
 <properties>
  <property name="music" value="wind"/>
  <property name="name" value="Receptionist - Entrance"/>
  <property name="reflections" type="bool" value="true"/>
 </properties>
 <tileset firstgid="1" source="../tilesets/Receptionist.tsx"/>
 <tileset firstgid="362" source="../tilesets/cones.tsx"/>
 <imagelayer id="3" name="bg" visible="0" offsetx="-1.33333" offsety="72.6667" parallaxx="0.05" parallaxy="0.05" repeatx="1">
  <image source="../../../assets/sprites/tilesets/receptionist bg.png" width="640" height="480"/>
 </imagelayer>
 <layer id="2" name="Tile Layer 2" width="20" height="40">
  <data encoding="csv">
0,0,0,0,0,0,0,0,0,0,0,0,0,0,0,0,0,0,0,0,
0,0,0,0,0,0,0,0,0,0,0,0,0,0,0,0,0,0,0,0,
0,0,0,0,0,0,0,0,0,0,0,0,0,0,0,0,0,0,0,0,
0,0,0,0,264,0,0,0,0,0,0,0,0,0,0,0,0,0,0,0,
0,0,0,0,0,0,0,0,0,283,283,283,283,283,0,0,0,0,0,0,
0,0,0,282,0,0,0,0,0,0,0,0,0,0,0,0,0,0,0,0,
0,0,0,0,0,0,0,0,0,0,0,0,0,0,0,0,0,0,0,0,
0,0,0,282,0,0,0,0,0,0,264,264,264,264,264,264,264,0,0,0,
0,0,0,0,0,0,0,0,0,0,0,0,0,0,0,0,0,0,0,0,
0,0,0,0,0,0,0,0,0,0,0,0,0,0,0,0,0,0,0,0,
0,0,0,0,0,0,0,0,0,0,0,0,0,0,0,0,0,0,0,0,
0,0,0,0,0,0,0,0,0,0,0,0,0,0,0,0,0,0,0,0,
0,0,0,0,0,0,0,0,0,0,0,0,0,0,0,0,0,0,0,0,
0,0,0,0,0,0,0,0,0,0,0,0,0,0,0,0,0,0,0,0,
0,0,0,0,0,0,0,0,0,0,0,0,0,0,0,0,0,0,0,0,
0,0,0,0,0,0,0,0,0,0,0,0,0,0,0,0,0,0,0,0,
0,0,0,0,0,0,0,0,0,0,0,0,0,0,0,0,0,0,0,0,
0,0,0,0,0,0,0,0,0,0,0,0,0,0,0,0,0,0,0,0,
0,0,0,0,0,0,0,0,0,0,0,0,0,0,0,0,0,0,0,0,
0,0,0,0,0,0,0,0,0,0,0,0,0,0,0,0,0,0,0,0,
0,0,0,0,0,0,0,0,0,0,0,0,0,0,0,0,0,0,0,0,
0,0,0,0,0,0,0,0,0,0,0,0,0,0,0,0,0,0,0,0,
0,0,0,0,0,0,0,0,0,0,0,0,0,0,0,0,0,0,0,0,
0,0,0,0,0,0,0,0,0,0,0,0,0,0,0,0,0,0,0,0,
0,0,0,0,0,0,0,0,0,0,0,0,0,0,0,0,0,0,0,0,
0,0,0,0,0,0,0,0,0,0,0,0,0,0,0,0,0,0,0,0,
0,0,0,0,0,0,0,0,0,0,0,0,0,0,0,0,0,0,0,0,
0,0,0,0,0,0,0,0,0,0,0,0,0,0,0,0,0,0,0,0,
0,0,0,0,0,0,0,0,0,0,0,0,0,0,0,0,0,0,0,0,
0,0,0,0,0,0,0,0,0,0,0,0,0,0,0,0,0,0,0,0,
0,0,0,0,0,0,0,0,0,0,0,0,0,0,0,0,0,0,0,0,
0,0,0,0,0,0,0,0,0,0,0,0,0,0,0,0,0,0,0,0,
0,0,0,0,0,0,0,0,0,0,0,0,0,0,0,0,0,0,0,0,
0,0,0,0,0,0,0,0,0,0,0,0,0,0,0,0,0,0,0,0,
0,0,0,0,0,0,0,0,0,0,0,0,0,0,0,0,0,0,0,0,
0,0,0,0,0,0,0,0,0,0,0,0,0,0,0,0,0,0,0,0,
0,0,0,0,0,0,0,0,0,0,0,0,0,0,0,0,0,0,0,0,
0,0,0,0,0,0,0,0,0,0,0,0,0,0,0,0,0,0,0,0,
0,0,0,0,0,0,0,0,0,0,0,0,0,0,0,0,0,0,0,0,
0,0,0,0,0,0,0,0,0,0,0,0,0,0,0,0,0,0,0,0
</data>
 </layer>
 <layer id="1" name="Tile Layer 1" width="20" height="40">
  <data encoding="csv">
0,0,0,0,0,320,321,321,321,321,321,321,321,321,321,321,321,321,321,321,
0,0,0,0,0,320,321,325,326,321,321,321,321,255,256,257,321,321,321,321,
0,0,0,0,0,320,321,321,321,321,321,321,321,274,275,276,321,321,321,321,
0,0,0,263,0,225,340,340,340,340,340,340,340,293,294,295,321,321,321,321,
0,0,0,282,283,283,283,283,283,283,283,283,31,32,32,264,141,340,340,340,
0,0,0,282,284,260,260,260,260,260,282,283,50,283,283,283,284,0,0,0,
0,0,0,0,0,279,279,279,279,279,0,0,0,0,0,0,0,265,0,0,
0,0,0,0,0,283,283,283,283,283,0,0,0,0,0,0,0,284,0,0,
0,0,0,282,283,283,283,283,283,283,283,283,283,283,283,283,283,284,0,0,
0,0,0,0,0,0,0,0,65,66,66,67,0,0,0,0,0,0,0,0,
0,0,0,0,0,0,0,0,65,66,66,67,0,0,0,0,0,0,0,0,
0,0,0,0,0,0,0,0,65,66,66,67,0,0,0,0,0,0,0,0,
0,0,0,0,0,0,0,0,65,66,66,67,0,0,0,0,0,0,0,0,
0,0,0,0,0,0,0,0,65,66,66,67,0,0,0,0,0,0,0,0,
0,0,0,0,0,0,0,0,65,66,66,67,0,0,0,0,0,0,0,0,
0,0,0,0,0,0,0,0,65,66,66,67,0,0,0,0,0,0,0,0,
0,0,0,0,0,0,0,0,65,66,66,67,0,0,0,0,0,0,0,0,
0,0,0,0,0,0,0,0,65,66,66,67,0,0,0,0,0,0,0,0,
0,0,0,0,0,0,0,0,65,66,66,67,0,0,0,0,0,0,0,0,
0,0,0,0,0,0,0,0,65,66,66,67,0,0,0,0,0,0,0,0,
0,0,0,0,0,0,0,0,65,66,66,67,0,0,0,0,0,0,0,0,
0,0,0,0,0,0,0,0,65,66,66,67,0,0,0,0,0,0,0,0,
0,0,0,0,0,0,0,0,65,66,66,67,0,0,0,0,0,0,0,0,
0,0,0,0,0,0,0,0,65,66,66,67,0,0,0,0,0,0,0,0,
0,0,0,0,0,0,0,0,65,66,66,67,0,0,0,0,0,0,0,0,
0,0,0,0,0,0,0,0,84,85,66,67,0,0,0,0,0,0,0,0,
0,0,0,0,0,0,0,0,103,104,66,67,0,0,0,0,0,0,0,0,
0,0,0,0,0,0,0,0,65,66,66,67,0,0,0,0,0,0,0,0,
0,0,0,0,0,0,0,0,65,66,66,67,0,0,0,0,0,0,0,0,
0,0,0,0,0,0,0,0,65,66,66,67,0,0,0,0,0,0,0,0,
0,0,0,0,0,0,0,0,65,66,66,67,0,0,0,0,0,0,0,0,
0,0,0,0,0,0,0,0,65,66,66,67,0,0,0,0,0,0,0,0,
0,0,0,0,0,0,0,0,65,66,66,67,0,0,0,0,0,0,0,0,
0,0,0,0,0,0,0,0,65,66,66,67,0,0,0,0,0,0,0,0,
0,0,0,0,0,0,0,0,65,66,66,67,0,0,0,0,0,0,0,0,
0,0,0,0,0,0,0,0,65,66,66,67,0,0,0,0,0,0,0,0,
0,0,0,0,0,0,0,0,84,85,66,67,0,0,0,0,0,0,0,0,
0,0,0,0,0,0,0,0,84,85,66,67,0,0,0,0,0,0,0,0,
0,0,0,0,0,0,0,0,84,85,66,67,0,0,0,0,0,0,0,0,
0,0,0,0,0,0,0,0,84,85,66,67,0,0,0,0,0,0,0,0
</data>
 </layer>
 <layer id="8" name="tint!" width="20" height="40" tintcolor="#7281a3">
  <data encoding="csv">
0,0,0,0,0,0,0,0,0,0,0,0,0,0,0,0,0,0,0,0,
0,0,0,0,0,0,0,0,0,0,0,0,0,0,0,0,0,0,0,0,
0,0,0,0,0,0,0,0,0,0,0,0,0,0,0,0,0,0,0,0,
0,0,0,0,0,0,0,0,0,0,0,0,0,0,0,0,0,0,0,0,
0,0,0,0,0,0,0,0,0,0,0,0,0,0,0,0,0,0,0,0,
0,0,0,0,0,0,0,0,0,0,0,0,0,0,0,0,0,0,0,0,
0,0,0,0,0,0,0,0,0,0,0,0,0,0,0,0,0,0,0,0,
0,0,0,0,0,0,0,0,0,0,0,0,0,0,0,0,0,0,0,0,
0,0,0,0,0,0,0,0,0,0,0,0,0,0,0,0,0,0,0,0,
0,0,0,0,0,0,0,0,0,0,0,0,0,0,0,0,0,0,0,0,
0,0,0,0,0,0,0,0,0,0,0,0,0,0,0,0,0,0,0,0,
0,0,0,0,0,0,0,320,0,0,0,0,90,0,0,0,0,0,0,0,
0,0,0,0,0,0,0,320,0,0,0,0,90,0,0,0,0,0,0,0,
0,0,0,0,0,0,0,320,0,0,0,0,90,0,0,0,0,0,0,0,
0,0,0,0,0,0,0,320,0,0,0,0,90,0,0,0,0,0,0,0,
0,0,0,0,0,0,0,320,0,0,0,0,90,0,0,0,0,0,0,0,
0,0,0,0,0,0,0,320,0,0,0,0,90,0,0,0,0,0,0,0,
0,0,0,0,0,0,0,320,0,0,0,0,90,0,0,0,0,0,0,0,
0,0,0,0,0,0,0,320,0,0,0,0,90,0,0,0,0,0,0,0,
0,0,0,0,0,0,0,320,0,0,0,0,90,0,0,0,0,0,0,0,
0,0,0,0,0,0,0,320,0,0,0,0,90,0,0,0,0,0,0,0,
0,0,0,0,0,0,0,320,0,0,0,0,90,0,0,0,0,0,0,0,
0,0,0,0,0,0,0,320,0,0,0,0,90,0,0,0,0,0,0,0,
0,0,0,0,0,0,0,320,0,0,0,0,90,0,0,0,0,0,0,0,
0,0,0,0,0,0,0,320,0,0,0,0,90,0,0,0,0,0,0,0,
0,0,0,0,0,0,0,320,0,0,0,0,90,0,0,0,0,0,0,0,
0,0,0,0,0,0,0,320,0,0,0,0,90,0,0,0,0,0,0,0,
0,0,0,0,0,0,0,320,0,0,0,0,90,0,0,0,0,0,0,0,
0,0,0,0,0,0,0,320,0,0,0,0,90,0,0,0,0,0,0,0,
0,0,0,0,0,0,0,320,0,0,0,0,90,0,0,0,0,0,0,0,
0,0,0,0,0,0,0,320,0,0,0,0,90,0,0,0,0,0,0,0,
0,0,0,0,0,0,0,320,0,0,0,0,90,0,0,0,0,0,0,0,
0,0,0,0,0,0,0,320,0,0,0,0,90,0,0,0,0,0,0,0,
0,0,0,0,0,0,0,320,0,0,0,0,90,0,0,0,0,0,0,0,
0,0,0,0,0,0,0,320,0,0,0,0,90,0,0,0,0,0,0,0,
0,0,0,0,0,0,0,320,0,0,0,0,90,0,0,0,0,0,0,0,
0,0,0,0,0,0,0,320,0,0,0,0,90,0,0,0,0,0,0,0,
0,0,0,0,0,0,0,320,0,0,0,0,90,0,0,0,0,0,0,0,
0,0,0,0,0,0,0,320,0,0,0,0,90,0,0,0,0,0,0,0,
0,0,0,0,0,0,0,320,0,0,0,0,90,0,0,0,0,0,0,0
</data>
 </layer>
 <layer id="7" name="thisismyshadow" width="20" height="40">
  <data encoding="csv">
0,0,0,0,0,0,0,0,0,0,0,0,0,0,0,0,0,0,0,0,
0,0,0,0,0,0,0,0,0,0,0,0,0,0,0,0,0,0,0,0,
0,0,0,0,0,0,0,0,0,0,0,0,0,0,0,0,0,0,0,0,
0,0,0,0,0,0,0,0,0,0,0,0,0,0,0,0,0,0,0,0,
0,0,0,0,0,0,0,0,0,0,0,0,0,0,0,0,0,0,0,0,
0,0,0,0,0,0,0,0,0,0,0,0,0,0,0,0,0,0,0,0,
0,0,0,301,303,0,0,0,0,0,301,302,302,302,302,302,303,0,0,0,
0,0,0,263,264,0,0,0,0,0,0,0,0,0,0,0,0,0,0,0,
0,0,0,0,0,0,0,0,0,0,0,0,0,0,0,0,0,0,0,0,
0,0,0,301,302,302,302,302,0,0,0,0,302,302,302,302,302,303,0,0,
0,0,0,339,340,340,340,340,0,0,0,0,340,340,340,340,340,341,0,0,
0,0,0,0,0,0,0,0,0,0,0,0,0,0,0,0,0,0,0,0,
0,0,0,0,0,0,0,0,0,0,0,0,0,0,0,0,0,0,0,0,
0,0,0,0,0,0,0,0,0,0,0,0,0,0,0,0,0,0,0,0,
0,0,0,0,0,0,0,0,0,0,0,0,0,0,0,0,0,0,0,0,
0,0,0,0,0,0,0,0,0,0,0,0,0,0,0,0,0,0,0,0,
0,0,0,0,0,0,0,0,0,0,0,0,0,0,0,0,0,0,0,0,
0,0,0,0,0,0,0,0,0,0,0,0,0,0,0,0,0,0,0,0,
0,0,0,0,0,0,0,0,0,0,0,0,0,0,0,0,0,0,0,0,
0,0,0,0,0,0,0,0,0,0,0,0,0,0,0,0,0,0,0,0,
0,0,0,0,0,0,0,0,0,0,0,0,0,0,0,0,0,0,0,0,
0,0,0,0,0,0,0,0,0,0,0,0,0,0,0,0,0,0,0,0,
0,0,0,0,0,0,0,0,0,0,0,0,0,0,0,0,0,0,0,0,
0,0,0,0,0,0,0,0,0,0,0,0,0,0,0,0,0,0,0,0,
0,0,0,0,0,0,0,0,0,0,0,0,0,0,0,0,0,0,0,0,
0,0,0,0,0,0,0,0,0,0,0,0,0,0,0,0,0,0,0,0,
0,0,0,0,0,0,0,0,0,0,0,0,0,0,0,0,0,0,0,0,
0,0,0,0,0,0,0,0,0,0,0,0,0,0,0,0,0,0,0,0,
0,0,0,0,0,0,0,0,0,0,0,0,0,0,0,0,0,0,0,0,
0,0,0,0,0,0,0,0,0,0,0,0,0,0,0,0,0,0,0,0,
0,0,0,0,0,0,0,0,0,0,0,0,0,0,0,0,0,0,0,0,
0,0,0,0,0,0,0,0,0,0,0,0,0,0,0,0,0,0,0,0,
0,0,0,0,0,0,0,0,0,0,0,0,0,0,0,0,0,0,0,0,
0,0,0,0,0,0,0,0,0,0,0,0,0,0,0,0,0,0,0,0,
0,0,0,0,0,0,0,0,0,0,0,0,0,0,0,0,0,0,0,0,
0,0,0,0,0,0,0,0,0,0,0,0,0,0,0,0,0,0,0,0,
0,0,0,0,0,0,0,0,0,0,0,0,0,0,0,0,0,0,0,0,
0,0,0,0,0,0,0,0,0,0,0,0,0,0,0,0,0,0,0,0,
0,0,0,0,0,0,0,0,0,0,0,0,0,0,0,0,0,0,0,0,
0,0,0,0,0,0,0,0,0,0,0,0,0,0,0,0,0,0,0,0
</data>
 </layer>
 <objectgroup color="#ff00b2" id="4" name="objects">
  <object id="28" name="transition" x="562.644" y="114.455" width="35.6117" height="41.0909">
   <properties>
    <property name="map" value="recep1"/>
    <property name="marker" value="entranceA"/>
   </properties>
  </object>
  <object id="33" name="savepoint" x="168" y="319">
   <properties>
    <property name="marker" value="save_spawn"/>
    <property name="text1">* A breeze rushes past you.[wait:5]
* Your last memory was playing piano.</property>
    <property name="text2" value="* The power of sudden transitions shine within you."/>
   </properties>
   <point/>
  </object>
  <object id="37" name="interactable" x="281" y="109.25" width="78.75" height="39.5">
   <properties>
    <property name="cutscene" value="hospital.patient0034"/>
   </properties>
  </object>
  <object id="38" name="transition" x="321.25" y="1595.5" width="158.5" height="4.5">
   <properties>
    <property name="map" value="recep_kris"/>
    <property name="marker" value="entranceA"/>
   </properties>
  </object>
  <object id="49" gid="366" x="520.333" y="140.515" width="18" height="20"/>
  <object id="51" name="keypad" x="519.727" y="120.136" width="18.7273" height="32.6364">
   <properties>
    <property name="door_target" type="object" value="48"/>
    <property name="keypad" type="object" value="49"/>
    <property name="num1" type="float" value="0"/>
    <property name="num2" type="float" value="0"/>
    <property name="num3" type="float" value="3"/>
    <property name="num4" type="float" value="4"/>
   </properties>
  </object>
  <object id="48" gid="365" x="545.667" y="160.333" width="66" height="96.3333"/>
 </objectgroup>
 <objectgroup color="#aa55ff" id="6" name="markers">
  <object id="29" name="entranceA" x="581.364" y="201.807">
   <point/>
  </object>
  <object id="30" name="spawn" x="405" y="1544">
   <point/>
  </object>
  <object id="34" name="save_spawn" x="224.758" y="331">
   <point/>
  </object>
 </objectgroup>
 <objectgroup color="#5500ff" id="5" name="collision" visible="0">
  <object id="1" x="278.909" y="360.136" width="41.0909" height="773.227"/>
  <object id="2" x="282.909" y="1132.36" width="41.0909" height="493.091"/>
  <object id="3" x="478.242" y="404.667" width="41.0909" height="1223.82"/>
  <object id="4" x="129.985" y="360.667" width="148.364" height="41.0909"/>
  <object id="5" x="83.8939" y="124.621" width="41.0909" height="235.545"/>
  <object id="6" x="117.652" y="80.697" width="82.1818" height="41.0909"/>
  <object id="8" x="713.348" y="243.894" width="41.0909" height="191.955"/>
  <object id="9" x="478.894" y="361.667" width="233.455" height="41.0909"/>
  <object id="10" x="401.121" y="241.394" width="276.636" height="41.0909"/>
  <object id="11" x="125.235" y="239.894" width="74.3068" height="42.3409"/>
  <object id="12" x="199.667" y="108.121" width="350.656" height="41.0909"/>
  <object id="13" x="672.758" y="120.788" width="41.0909" height="121.515"/>
  <object id="14" x="610.422" y="120.121" width="61.1685" height="41.0909"/>
  <object id="15" x="523.394" y="25.9394" width="123.273" height="41.0909"/>
  <object id="18" x="607.748" y="67.4972" width="31.7521" height="51.624"/>
  <object id="19" x="526.896" y="67.2638" width="24.5145" height="40.624"/>
  <object id="24" x="192.223" y="200.064" width="7.44368" height="39.3111"/>
  <object id="25" x="399.926" y="189.447" width="7.86019" height="53.2525"/>
  <object id="27" x="301.333" y="1600.67" width="198" height="32"/>
 </objectgroup>
</map>
